proprietary/odm/etc/camera/filters_lut/bt2020_to_p3_3dlut.cube
#Created by : Dolby Laboratories
#Copyright: (C) Copyright 2022 Dolby Laboratories
#is_rgb_input 1
#is_rgb_output 1
#input_offset 0.000000
#shape_order 1.000000
#format 6
# MaxLuma:1000.00 MinLuma:0.00010 Eotf=Gamma
#LUT Size
LUT_3D_SIZE 9
#data domain
DOMAIN_MIN 0 0 0
DOMAIN_MAX 1.0 1.0 1.0
#LUT data points
0 0 0
0.142931 0 0.00654612
0.285893 0 0.0131075
0.42884 0 0.0196536
0.564004 0 0.0261997
0.681132 0 0.0344091
0.802075 0 0.0467231
0.925032 0 0.0647593
1 0 0.0907759
0 0.130022 0
0.128511 0.125399 0
0.279973 0.111971 0
0.425254 0.0864424 0.00943008
0.561929 0.0216983 0.0197604
0.680095 0 0.0298009
0.801572 0 0.0434577
0.924773 0 0.0624399
1 0 0.0891432
0 0.26006 0
0.0579995 0.257679 0
0.257053 0.250813 0
0.41178 0.239704 0
0.554391 0.223957 0
0.676493 0.19588 0
0.799863 0.122454 0.0315557
0.923964 0 0.0548714
1 0 0.0840162
0 0.390112 0
0 0.388495 0
0.210513 0.383795 0
0.38558 0.376211 0
0.539147 0.36585 0
0.669459 0.348684 0
0.796658 0.31252 0
0.922499 0.224689 0.0390021
1 0 0.0746777
0 0.519448 0
0 0.518318 0
0.116014 0.514961 0
0.343999 0.509392 0
0.513771 0.501625 0
0.658228 0.488762 0
0.791623 0.462852 0
0.920241 0.407721 0
1 0.267369 0.0590677
0 0.641794 0
0 0.64123 0
0 0.639521 0
0.259739 0.636713 0
0.462776 0.632807 0
0.636866 0.626398 0
0.78233 0.613306 0
0.916121 0.585016 0
1 0.512291 0.00444038
0 0.765469 0
0 0.765179 0
0 0.764324 0
0 0.762905 0
0.334386 0.760937 0
0.582345 0.757717 0
0.760906 0.751278 0
0.906889 0.738216 0
1 0.709987 0
0 0.889799 0
0 0.889647 0
0 0.88922 0
0 0.888518 0
0 0.887526 0
0.38526 0.885908 0
0.706004 0.882673 0
0.885435 0.876219 0
1 0.863157 0
0 1 0
0 1 0
0 1 0
0 1 0
0 1 0
0 1 0
0.471183 1 0
0.830335 1 0
1 1 0
0 0 0.131075
0.140688 0 0.12546
0.284855 0 0.125292
0.428153 0 0.126009
0.563592 0 0.127138
0.680919 0 0.129061
0.801968 0 0.13286
0.924987 0 0.140215
1 0 0.153964
0 0.129702 0.12549
0.124987 0.124987 0.124987
0.278614 0.111376 0.124743
0.424445 0.0855573 0.125216
0.561486 0.0176394 0.126223
0.679866 0 0.128054
0.80145 0 0.131823
0.924727 0 0.139193
1 0 0.153017
0 0.259907 0.121508
0.0490425 0.257511 0.121492
0.255314 0.250614 0.12163
0.410788 0.23946 0.122133
0.553826 0.223667 0.123079
0.676234 0.195514 0.124849
0.799741 0.121813 0.128618
0.923919 0 0.13608
1 0 0.150149
0 0.390005 0.114946
0 0.388388 0.115053
0.208286 0.383673 0.115419
0.384421 0.376089 0.116091
0.538476 0.365698 0.117159
0.669154 0.348516 0.11902
0.796521 0.312291 0.122927
0.922438 0.224338 0.130663
1 0 0.14522
0 0.519387 0.105135
0 0.518257 0.105303
0.111818 0.514885 0.105806
0.342657 0.509316 0.106676
0.512947 0.501534 0.107927
0.657877 0.48864 0.110033
0.79147 0.462715 0.114275
0.920165 0.407538 0.122576
1 0.267079 0.137972
0 0.641764 0.0865187
0 0.641184 0.0867475
0 0.63949 0.0874495
0.257908 0.636667 0.0886091
0.461784 0.632776 0.0902266
0.636454 0.626352 0.0928511
0.782162 0.613245 0.0979782
0.91606 0.584939 0.107637
1 0.512154 0.124941
0 0.765438 0.0175326
0 0.765164 0.0187533
0 0.764294 0.0220035
0 0.76289 0.0265507
0.332967 0.760922 0.0318303
0.581765 0.757687 0.0390021
0.760693 0.751263 0.0503853
0.906798 0.738186 0.067628
1 0.709957 0.0929885
0 0.889784 0
0 0.889647 0
0 0.88922 0
0 0.888502 0
0 0.88751 0
0.384009 0.885893 0
0.705715 0.882658 0
0.885328 0.876219 0
1 0.863157 0
0 1 0
0 1 0
0 1 0
0 1 0
0 1 0
0 1 0
0.470176 1 0
0.830182 1 0
1 1 0
0 0 0.26215
0.131945 0 0.254047
0.281392 0 0.250919
0.426001 0 0.250385
0.562341 0 0.250599
0.680278 0 0.251377
0.801648 0 0.253223
0.924819 0 0.257084
1 0 0.26479
0 0.128481 0.254246
0.113436 0.123598 0.252781
0.274357 0.109529 0.251072
0.421958 0.0828565 0.250416
0.560082 0 0.250446
0.679179 0 0.251072
0.801114 0 0.252811
0.924559 0 0.256596
1 0 0.264286
0 0.259419 0.25098
0 0.256977 0.250645
0.249989 0.249989 0.249989
0.407767 0.238727 0.249546
0.552132 0.222782 0.249485
0.675441 0.1944 0.249943
0.799374 0.119875 0.251469
0.923735 0 0.255116
1 0 0.26273
0 0.389685 0.247562
0 0.388067 0.247456
0.201389 0.383322 0.247242
0.380926 0.375677 0.247089
0.536431 0.36524 0.24715
0.668238 0.347967 0.247578
0.796109 0.31162 0.248997
0.92224 0.223316 0.252522
1 0 0.26009
0 0.519173 0.243046
0 0.518029 0.24303
0.0981003 0.514641 0.243015
0.338567 0.509056 0.243061
0.510445 0.501228 0.243259
0.656825 0.488304 0.243793
0.791012 0.462303 0.245243
0.919966 0.407019 0.248737
1 0.266209 0.256306
0 0.641657 0.235523
0 0.641077 0.235554
0 0.639368 0.23566
0.252323 0.636545 0.235889
0.458762 0.632639 0.23624
0.635203 0.6262 0.236912
0.781643 0.613077 0.238499
0.915831 0.584695 0.2421
1 0.511757 0.249805
0 0.765393 0.219715
0 0.765103 0.219776
0 0.764248 0.219989
0 0.762829 0.220356
0.328649 0.760861 0.22089
0.579995 0.757626 0.221775
0.760082 0.751186 0.223667
0.906538 0.738094 0.227649
1 0.709834 0.235874
0 0.889754 0.183917
0 0.889616 0.184024
0 0.889189 0.184344
0 0.888472 0.184878
0 0.88748 0.185626
0.38027 0.885863 0.186877
0.704829 0.882628 0.18938
0.885023 0.876173 0.194385
1 0.863111 0.204227
0 1 0.0691081
0 1 0.0694285
0 1 0.0703746
0 1 0.0719158
0 1 0.0740215
0 1 0.0773785
0.467109 1 0.0837262
0.82974 1 0.0951705
1 1 0.114733
0 0 0.39324
0.113161 0 0.385016
0.274693 0 0.378668
0.422095 0 0.376394
0.560098 0 0.375677
0.679164 0 0.375662
0.801099 0 0.376547
0.924544 0 0.378943
1 0 0.3841
0 0.125948 0.384207
0.0901045 0.120912 0.381842
0.266712 0.106218 0.3785
0.417578 0.0780652 0.376608
0.557626 0 0.375799
0.677989 0 0.375647
0.800549 0 0.376379
0.924285 0 0.378683
1 0 0.38378
0 0.258473 0.379507
0 0.256001 0.378882
0.240726 0.24889 0.377554
0.402609 0.23743 0.376364
0.549218 0.221271 0.375631
0.674083 0.192523 0.375311
0.798749 0.116564 0.375799
0.923445 0 0.377874
1 0 0.382834
0 0.389136 0.376486
0 0.387488 0.376242
0.189303 0.382696 0.375647
0.37499 0.37499 0.37499
0.532937 0.364446 0.374487
0.666697 0.347066 0.374212
0.795407 0.310491 0.374548
0.921935 0.221592 0.37641
1 0 0.381186
0 0.518791 0.37322
0 0.517647 0.373114
0.069398 0.514229 0.372839
0.331624 0.508598 0.372503
0.506172 0.500725 0.372229
0.655055 0.487724 0.372091
0.790234 0.461631 0.372442
0.919631 0.406149 0.374182
1 0.264744 0.37882
0 0.641474 0.368185
0 0.640894 0.368154
0 0.63917 0.368063
0.24271 0.636347 0.367956
0.453681 0.63241 0.36791
0.633097 0.625956 0.367971
0.780774 0.612772 0.36846
0.91545 0.584298 0.370199
1 0.51107 0.374746
0 0.765301 0.35816
0 0.765011 0.358175
0 0.764157 0.358206
0 0.762737 0.358297
0.321324 0.760754 0.358434
0.576989 0.757519 0.358724
0.75903 0.751064 0.359487
0.906111 0.737942 0.36141
1 0.709636 0.366033
0 0.889708 0.337316
0 0.88957 0.337362
0 0.889143 0.337484
0 0.888426 0.337697
0 0.887434 0.338003
0.373938 0.885817 0.338521
0.703334 0.882567 0.33962
0.884504 0.876112 0.34197
1 0.863035 0.347066
0 1 0.291051
0 1 0.291112
0 1 0.29131
0 1 0.29163
0 1 0.292088
0 1 0.292851
0.461967 1 0.294392
0.829007 1 0.29752
1 1 0.303822
0 0 0.523323
0.0769665 0 0.516289
0.263905 0 0.508003
0.416022 0 0.503792
0.55671 0 0.501854
0.677531 0 0.500923
0.800305 0 0.500923
0.924163 0 0.502312
1 0 0.505928
0 0.121767 0.514763
0.0356603 0.116609 0.511879
0.254994 0.101152 0.507134
0.411002 0.0706645 0.503853
0.553964 0 0.502052
0.676265 0 0.501045
0.799725 0 0.500908
0.923888 0 0.50219
1 0 0.50573
0 0.256992 0.50837
0 0.254475 0.507485
0.226886 0.247227 0.505531
0.395102 0.235538 0.503578
0.544945 0.219089 0.502144
0.672129 0.189822 0.501122
0.797848 0.111727 0.500755
0.923033 0 0.501762
1 0 0.505135
0 0.388281 0.504921
0 0.386618 0.504555
0.170809 0.381781 0.503624
0.36643 0.373983 0.50251
0.527871 0.363317 0.501503
0.664469 0.345769 0.500633
0.794415 0.308888 0.500175
0.921477 0.219135 0.500938
1 0 0.504082
0 0.518242 0.501976
0 0.517082 0.501793
0 0.513634 0.501305
0.321614 0.507942 0.500648
0.499992 0.499992 0.499992
0.652537 0.486915 0.499352
0.789151 0.460655 0.498939
0.919142 0.404929 0.49958
1 0.262669 0.502525
0 0.641199 0.497917
0 0.64062 0.497841
0 0.638895 0.497597
0.228534 0.636042 0.497261
0.446464 0.632105 0.49691
0.630091 0.625589 0.496559
0.779553 0.612345 0.496345
0.914916 0.583734 0.496971
1 0.510124 0.499748
0 0.765164 0.490333
0 0.764889 0.490303
0 0.764019 0.490242
0 0.7626 0.49015
0.31078 0.760616 0.490059
0.572717 0.757366 0.490013
0.757565 0.750881 0.49012
0.905516 0.737728 0.490944
1 0.709346 0.493706
0 0.889647 0.475181
0 0.889509 0.475181
0 0.889082 0.475227
0 0.888365 0.475288
0 0.887373 0.475395
0.364874 0.88574 0.475608
0.701244 0.88249 0.476097
0.883772 0.876036 0.477317
1 0.862928 0.480369
0 1 0.443442
0 1 0.443488
0 1 0.44358
0 1 0.443748
0 1 0.443992
0 1 0.444404
0.454658 1 0.445228
0.82797 1 0.446983
1 1 0.450706
0 0 0.645167
0 0 0.641138
0.243305 0 0.634806
0.404791 0 0.630549
0.550484 0 0.628138
0.674617 0 0.626596
0.798947 0 0.625742
0.923506 0 0.625895
1 0 0.627405
0 0.113863 0.639811
0 0.108476 0.637675
0.233234 0.0916762 0.633616
0.399191 0.0559396 0.63032
0.547372 0 0.628199
0.673213 0 0.626703
0.798306 0 0.625803
0.923217 0 0.625879
1 0 0.627329
0 0.25417 0.634272
0 0.251606 0.633494
0.201389 0.244205 0.631678
0.381994 0.232227 0.62974
0.537423 0.21532 0.628183
0.668757 0.185199 0.626856
0.796323 0.103197 0.625895
0.922316 0 0.625803
1 0 0.627115
0 0.386725 0.631235
0 0.385046 0.630884
0.134371 0.380133 0.629999
0.351644 0.372198 0.628885
0.519036 0.361379 0.627817
0.66067 0.343572 0.626764
0.792752 0.306203 0.625818
0.920729 0.215015 0.625589
1 0 0.626719
0 0.51725 0.629114
0 0.516075 0.628931
0 0.512581 0.628443
0.304204 0.506813 0.627771
0.489387 0.498741 0.627054
0.648234 0.485527 0.626245
0.787305 0.459037 0.625437
0.918334 0.402869 0.625116
1 0.25922 0.626093
0 0.640742 0.626688
0 0.640162 0.626596
0 0.638407 0.626337
0.202838 0.635538 0.625956
0.434195 0.631556 0.625528
0.624994 0.624994 0.624994
0.777478 0.611643 0.624384
0.914031 0.582788 0.624094
1 0.508522 0.624933
0 0.76495 0.62266
0 0.76466 0.622614
0 0.76379 0.622507
0 0.762356 0.622339
0.292439 0.760372 0.622141
0.565377 0.757107 0.621881
0.755093 0.750591 0.621561
0.904509 0.737377 0.621454
1 0.708888 0.622263
0 0.88954 0.614939
0 0.889403 0.614939
0 0.888975 0.614908
0 0.888258 0.614878
0 0.887266 0.614832
0.349371 0.885618 0.614801
0.697704 0.882368 0.614786
0.882567 0.875883 0.615015
1 0.86276 0.616022
0 1 0.59881
0 1 0.59881
0 1 0.59884
0 1 0.598886
0 1 0.598962
0 1 0.599084
0.442298 1 0.599344
0.82623 1 0.59997
1 1 0.60145
0 0 0.768582
0 0 0.766369
0.191699 0 0.761944
0.37882 0 0.758022
0.535912 0 0.755261
0.668101 0 0.753109
0.795987 0 0.751461
0.922133 0 0.750668
1 0 0.750896
0 0.0949416 0.765408
0 0.0887007 0.763928
0.178744 0.0675059 0.760693
0.372427 0 0.757534
0.532174 0 0.755138
0.666468 0 0.75314
0.79527 0 0.751522
0.921828 0 0.750698
1 0 0.750881
0 0.247608 0.76083
0 0.245014 0.760143
0.134249 0.2374 0.758465
0.353094 0.224933 0.756512
0.5205 0.207187 0.754788
0.661433 0.175326 0.75314
0.793088 0.0832074 0.751644
0.920851 0 0.750759
1 0 0.750851
0 0.383139 0.757809
0 0.38143 0.757473
0 0.376425 0.756603
0.319173 0.368307 0.755459
0.499336 0.357214 0.754284
0.652552 0.338949 0.753033
0.789227 0.300618 0.751705
0.919173 0.206394 0.75079
1 0 0.750759
0 0.515023 0.75584
0 0.513817 0.755657
0 0.510246 0.755169
0.265339 0.504326 0.754452
0.467048 0.496056 0.753674
0.639124 0.482612 0.752743
0.783475 0.45568 0.751629
0.916655 0.398672 0.750729
1 0.252094 0.750591
0 0.639735 0.754009
0 0.639139 0.753918
0 0.637369 0.753643
0.136797 0.634455 0.753216
0.408209 0.630396 0.752728
0.614176 0.623728 0.752087
0.77322 0.610162 0.751232
0.912215 0.58085 0.750423
1 0.505257 0.75021
0 0.764492 0.751553
0 0.764187 0.751507
0 0.763317 0.751369
0 0.761868 0.751171
0.251392 0.759869 0.750896
0.549554 0.756573 0.750546
0.749996 0.749996 0.749996
0.902449 0.73666 0.749401
1 0.707927 0.749187
0 0.889326 0.747539
0 0.889174 0.747509
0 0.888747 0.747463
0 0.888029 0.747372
0 0.887022 0.747265
0.315816 0.88539 0.747112
0.690349 0.882109 0.746868
0.880095 0.875593 0.746578
1 0.862394 0.746532
0 1 0.739834
0 1 0.739834
0 1 0.739834
0 1 0.739818
0 1 0.739803
0 1 0.739773
0.416297 1 0.739757
0.82269 1 0.739773
1 1 0.740047
0 0 0.892775
0 0 0.891615
0 0 0.888853
0.314809 0 0.88574
0.498466 0 0.88304
0.652628 0 0.880507
0.789303 0 0.878111
0.919142 0 0.876402
1 0 0.875624
0 0.0290227 0.89102
0 0 0.890089
0 0 0.887816
0.306981 0 0.885161
0.493568 0 0.88275
0.65066 0 0.880415
0.788464 0 0.878111
0.918791 0 0.876432
1 0 0.875639
0 0.232227 0.887648
0 0.229557 0.887098
0 0.221592 0.885679
0.282826 0.208225 0.883848
0.478904 0.188785 0.882063
0.644648 0.152728 0.880156
0.785946 0 0.878126
0.917723 0 0.876509
1 0 0.875685
0 0.374701 0.884779
0 0.372976 0.884474
0 0.367864 0.883635
0.238514 0.359503 0.88249
0.454017 0.347982 0.881254
0.634241 0.328939 0.879805
0.781613 0.288746 0.878111
0.915862 0.187671 0.876585
1 0 0.875715
0 0.509773 0.882734
0 0.508537 0.882551
0 0.504814 0.882048
0.158511 0.498634 0.8813
0.41738 0.49012 0.880461
0.618708 0.476295 0.879393
0.775265 0.448615 0.878019
0.913146 0.389944 0.876631
1 0.237018 0.875746
0 0.63743 0.880934
0 0.63682 0.880827
0 0.635004 0.880537
0 0.632013 0.880095
0.349371 0.627848 0.879545
0.589822 0.620996 0.878813
0.764141 0.607019 0.877775
0.908431 0.576806 0.876585
1 0.498436 0.8757
0 0.76347 0.878981
0 0.763165 0.87892
0 0.76228 0.878767
0 0.760815 0.878538
0.134203 0.75877 0.878233
0.512459 0.755413 0.877806
0.739178 0.74873 0.877119
0.898207 0.73518 0.876219
1 0.705974 0.875425
0 0.888853 0.876493
0 0.888716 0.876463
0 0.888273 0.876402
0 0.887556 0.87628
0 0.886534 0.876143
0.233845 0.884886 0.875914
0.674495 0.881575 0.875547
0.874998 0.874998 0.874998
1 0.861677 0.874418
0 1 0.872465
0 1 0.872465
0 1 0.872435
0 1 0.872389
0 1 0.872343
0 1 0.872251
0.358206 1 0.872099
0.815335 1 0.871855
1 1 0.87158
0 0 1
0 0 1
0 0 1
0.0707256 0 1
0.39791 0 1
0.612421 0 1
0.773342 0 1
0.912383 0 1
1 0 1
0 0 1
0 0 1
0 0 1
0.0185702 0 1
0.391745 0 1
0.609796 0 1
0.77232 0 1
0.911955 0 1
1 0 1
0 0.195041 1
0 0.192035 1
0 0.182849 1
0 0.166796 1
0.372946 0.142 1
0.60177 0.0884565 1
0.769268 0 1
0.910704 0 1
1 0 1
0 0.354788 1
0 0.353017 1
0 0.347753 1
0 0.339025 1
0.340017 0.326802 1
0.587839 0.306294 1
0.764096 0.262135 1
0.908568 0.141741 1
1 0 1
0 0.496941 1
0 0.495628 1
0 0.491753 1
0 0.48539 1
0.288685 0.476585 1
0.56672 0.462196 1
0.756664 0.433188 1
0.905501 0.371252 1
1 0.202945 1
0 0.631952 1
0 0.631327 1
0 0.62945 1
0 0.626337 1
0.175372 0.621988 1
0.525933 0.614786 1
0.74374 0.600061 1
0.900282 0.568048 1
1 0.484077 1
0 0.76112 1
0 0.760815 1
0 0.759899 1
0 0.758404 1
0 0.756298 1
0.415732 0.75285 1
0.714778 0.745968 1
0.889158 0.732006 1
1 0.701885 1
0 0.887831 1
0 0.887678 1
0 0.887236 1
0 0.886503 1
0 0.885481 1
0 0.883787 1
0.637278 0.88043 1
0.864179 0.873732 1
1 0.860182 1
0 1 1
0 1 1
0 1 1
0 1 1
0 1 1
0 1 1
0.193668 1 1
0.799466 1 1
1 1 1
