proprietary/odm/etc/camera/filters_lut/bt2020_hlg_to_p3_srgb_3dlut_light.cube
TITLE "Generated by Resolve"
LUT_3D_SIZE 17
#LUT data points
0 0 0
0.00291447 0 0
0.067216 0 0
0.164401 0 0
0.255436 0 0
0.340673 0 0
0.420188 0 0
0.494057 0 1.5259e-05
0.562371 0 1.5259e-05
0.63241 0 3.0518e-05
0.710246 0 4.57771e-05
0.793332 0 6.10361e-05
0.878264 0 9.15541e-05
0.961151 0 0.00015259
1 0 0.000213626
1 0 0.000289921
1 0 0.000366217
0 0.00170901 0
0.00166323 0.00146487 0
0.0617838 0.000854505 0
0.160983 0.000244144 0
0.252979 0 0
0.338781 0 0
0.418662 0 0
0.49279 0 0
0.561303 0 1.5259e-05
0.63151 0 1.5259e-05
0.709499 0 3.0518e-05
0.792721 0 6.10361e-05
0.877775 0 9.15541e-05
0.960769 0 0.000137331
1 0 0.000198367
1 0 0.000274662
1 0 0.000350958
0 0.0456397 0
3.0518e-05 0.0442359 0
0.0444038 0.0399481 0
0.150423 0.0314641 0
0.245487 0.0214694 0
0.333028 0.0123598 0
0.414054 0.00534066 0
0.488991 0.00122072 0
0.558083 0 0
0.628809 0 1.5259e-05
0.707256 0 1.5259e-05
0.790906 0 4.57771e-05
0.876326 0 7.62951e-05
0.95964 0 0.000122072
1 0 0.000183108
1 0 0.000259403
1 0 0.000335698
0 0.133577 0
0 0.132677 0
0.0163119 0.129992 0
0.131807 0.125429 0
0.232624 0.115801 0
0.323293 0.103502 0
0.406287 0.0885328 0
0.482582 0.0708019 0
0.552697 0.0500496 0
0.624262 0.0244755 0
0.703502 0.00560006 0
0.787869 0 1.5259e-05
0.873915 0 4.57771e-05
0.957748 0 7.62951e-05
1 0 0.000137331
1 0 0.000213626
1 0 0.000289921
0 0.215946 0
0 0.215305 0
0.000869764 0.213367 0
0.100053 0.210117 0
0.213672 0.205509 0
0.309209 0.194491 0
0.395178 0.181369 0
0.473487 0.166293 0
0.545052 0.149355 0
0.617853 0.128313 0
0.698222 0.0991531 0
0.783581 0.0578775 0
0.870512 0.00996414 1.5259e-05
0.955093 0 4.57771e-05
1 0 9.15541e-05
1 0 0.000167849
1 0 0.000244144
0 0.293065 0
0 0.292576 0
0 0.291081 0
0.0534981 0.288594 0
0.18262 0.285069 0
0.290333 0.280491 0
0.380484 0.267689 0
0.461555 0.253147 0
0.535088 0.237064 0
0.609506 0.217487 0
0.691371 0.191196 0
0.778058 0.156222 0
0.866117 0.109514 0
0.951675 0.0442969 1.5259e-05
1 0.000350958 4.57771e-05
1 0 0.000106813
1 0 0.000198367
0 0.365011 0
0 0.364614 0
0 0.363424 0
0.00521859 0.36141 0
0.14229 0.358602 0
0.258869 0.35494 0
0.361837 0.350439 0
0.446586 0.335653 0
0.522667 0.319417 0
0.599161 0.29984 0
0.682902 0.273915 0
0.771237 0.240208 0
0.860731 0.196994 0
0.947478 0.141817 0
1 0.0688182 1.5259e-05
1 0.00143435 6.10361e-05
1 0 0.000137331
0 0.431846 0
0 0.43151 0
0 0.430518 0
0 0.42887 0
0.0889143 0.426535 0
0.220798 0.423529 0
0.329412 0.419837 0
0.428275 0.415412 0
0.507607 0.398566 0
0.586709 0.378332 0
0.672755 0.351766 0
0.763104 0.317617 0
0.854307 0.274678 0
0.942489 0.221668 0
1 0.156512 0
1 0.0730755 3.0518e-05
1 0.000549325 9.15541e-05
0 0.49366 0
0 0.493385 0
0 0.492546 0
0 0.491142 0
0.0168002 0.489174 0
0.174701 0.486641 0
0.292027 0.483528 0
0.394629 0.47982 0
0.489708 0.475517 0
0.572015 0.454307 0
0.660853 0.426581 0
0.753597 0.39118 0
0.84683 0.347143 0
0.936706 0.293767 0
1 0.230228 0
1 0.154528 0
1 0.0584115 4.57771e-05
0 0.557046 0
0 0.556802 0
0 0.5561 0
0 0.554925 0
0 0.553262 0
0.109331 0.551125 0
0.243565 0.548501 0
0.352438 0.545388 0
0.450385 0.541787 0
0.552712 0.537133 0
0.64535 0.507774 0
0.741299 0.470466 0
0.837186 0.424399 0
0.929259 0.369207 0
1 0.304799 0
1 0.230838 0
1 0.144869 1.5259e-05
0 0.627466 0
0 0.627268 0
0 0.626673 0
0 0.625711 0
0 0.624338 0
0.00550851 0.622568 0
0.17084 0.620401 0
0.29308 0.617838 0
0.396612 0.614862 0
0.501686 0.611048 0
0.622705 0.6056 0
0.723476 0.565499 0
0.823316 0.516274 0
0.918578 0.457786 0
1 0.390494 0
1 0.315053 0
1 0.231373 0
0 0.702632 0
0 0.70248 0
0 0.702007 0
0 0.701213 0
0 0.700099 0
0 0.698665 0
0.0425269 0.696925 0
0.206378 0.694835 0
0.322545 0.692439 0
0.433555 0.689357 0
0.557244 0.684962 0
0.697429 0.678691 0
0.80322 0.62504 0
0.903227 0.561715 0
0.994171 0.48957 0
1 0.409949 0
1 0.324071 0
0 0.779477 0
0 0.779355 0
0 0.778973 0
0 0.778347 0
0 0.777462 0
0 0.776318 0
0 0.774929 0
0.0571908 0.773281 0
0.216083 0.771374 0
0.341939 0.768933 0
0.47245 0.765454 0
0.614679 0.760494 0
0.773816 0.753399 0
0.880964 0.683543 0
0.977462 0.604532 0
1 0.518257 0
1 0.426841 0
0 0.854475 0
0 0.854383 0
0 0.854078 0
0 0.85359 0
0 0.852903 0
0 0.852018 0
0 0.850919 0
0 0.849638 0
0.0249638 0.848142 0
0.211856 0.84625 0
0.361852 0.843534 0
0.511315 0.839673 0
0.671244 0.83418 0
0.848356 0.826307 0
0.953231 0.738277 0
1 0.642878 0
1 0.542947 0
0 0.924254 0
0 0.924178 0
0 0.923949 0
0 0.923568 0
0 0.923049 0
0 0.922362 0
0 0.921523 0
0 0.920531 0
0 0.919402 0
0.000381476 0.917937 0
0.207492 0.915862 0
0.381155 0.912917 0
0.54815 0.908705 0
0.724208 0.902724 0
0.917708 0.894148 0
1 0.787015 0
1 0.675669 0
0 0.986175 0
0 0.98613 0
0 0.985946 0
0 0.985672 0
0 0.98526 0
0 0.984741 0
0 0.984115 0
0 0.983368 0
0 0.982513 0
0 0.981414 0
0 0.979843 0
0.203265 0.97763 0
0.398856 0.974456 0
0.581292 0.969955 0
0.771466 0.963531 0
0.979263 0.954345 0
1 0.828519 0
0 1 0
0 1 0
0 1 0
0 1 0
0 1 0
0 1 0
0 1 0
0 1 0
0 1 0
0 1 0
0 1 0
0 1 0
0.199405 1 0
0.414267 1 0
0.60972 1 0
0.811719 1 0
1 1 0
0 0 0.00149538
0.00260929 0 0.00151064
0.0660563 0 0.00149538
0.163653 0 0.00148013
0.254902 0 0.00144961
0.340261 0 0.00143435
0.419852 0 0.00140383
0.493782 0 0.00137331
0.562127 0 0.00134279
0.632227 0 0.00129702
0.710079 0 0.00125124
0.793194 0 0.00120546
0.878157 0 0.00114443
0.961059 0 0.00108339
1 0 0.00102235
1 0 0.000961318
1 0 0.000915541
0 0.00166323 0.00141909
0.00143435 0.00143435 0.00143435
0.060502 0.000854505 0.00146487
0.160098 0.000259403 0.00151064
0.252277 0 0.00157168
0.338155 0 0.00166323
0.418082 0 0.00175479
0.492241 0 0.0018616
0.560769 0 0.00198367
0.630991 0 0.002121
0.708965 0 0.00230411
0.792187 0 0.002533
0.877226 0 0.00282292
0.960204 0 0.00314336
1 0 0.00349432
1 0 0.00384527
1 0 0.00418097
0 0.0454261 0.00120546
1.5259e-05 0.0439918 0.00123598
0.043061 0.039704 0.0012665
0.149554 0.0316472 0.00131228
0.2448 0.0220645 0.00138857
0.332433 0.0131838 0.00146487
0.413504 0.00611887 0.00155642
0.488441 0.00172427 0.00166323
0.557565 7.62951e-05 0.00178531
0.62829 0 0.0019379
0.706737 0 0.002121
0.790372 0 0.00236515
0.875792 0 0.00265507
0.959075 0 0.00299077
1 0 0.00335698
1 0 0.0037232
1 0 0.00408942
0 0.133425 0.000885023
0 0.132509 0.000961318
0.0157931 0.129824 0.000991836
0.130938 0.125277 0.00102235
0.231952 0.116045 0.00108339
0.322698 0.104265 0.00117494
0.405737 0.0899825 0.0012665
0.482063 0.0731365 0.00137331
0.552178 0.0535439 0.00149538
0.623758 0.0285496 0.00164797
0.702998 0.00794995 0.00183108
0.78735 9.15541e-05 0.00207523
0.873381 0 0.00238041
0.957198 0 0.00274662
1 0 0.0031281
1 0 0.00354009
1 0 0.00392157
0 0.215839 0.000534066
0 0.215167 0.000656138
0.000869764 0.21323 0.000671397
0.0995804 0.209995 0.000701915
0.213031 0.205402 0.000747692
0.308659 0.194751 0.000823987
0.394675 0.182071 0.000915541
0.472999 0.167529 0.00102235
0.544564 0.151263 0.00112917
0.617365 0.13109 0.00128176
0.697719 0.103304 0.00146487
0.783078 0.0644541 0.00172427
0.869993 0.0149996 0.00204471
0.954559 0 0.00241093
1 0 0.00283818
1 0 0.00328069
1 0 0.00370794
0 0.292988 0.000244144
0 0.292439 0.000366217
0 0.290959 0.000381476
0.0537423 0.288472 0.000411994
0.182391 0.284962 0.000442512
0.289815 0.2804 0.00047303
0.380011 0.267948 0.000549325
0.461097 0.253803 0.000640879
0.53463 0.238193 0.000747692
0.609049 0.219196 0.000885023
0.690898 0.19379 0.00106813
0.777569 0.160143 0.00132753
0.865614 0.115602 0.00164797
0.951141 0.0546883 0.00202945
1 0.00198367 0.00248722
1 0 0.00296025
1 0 0.00343328
0 0.36495 6.10361e-05
0 0.364492 0.00015259
0 0.363302 0.000167849
0.00564584 0.361303 0.000167849
0.142657 0.358495 0.000198367
0.258747 0.354849 0.000213626
0.36141 0.350362 0.000244144
0.446159 0.335897 0.000320439
0.52224 0.320043 0.000396735
0.598733 0.300908 0.000518807
0.682445 0.275654 0.000686656
0.770764 0.242878 0.000915541
0.860243 0.201068 0.00122072
0.94696 0.148089 0.00161746
1 0.0793317 0.00209049
1 0.00485237 0.00260929
1 0 0.0031281
0 0.431785 0
0 0.431388 3.0518e-05
0 0.430411 3.0518e-05
0 0.428763 4.57771e-05
0.0902419 0.426444 4.57771e-05
0.221195 0.423438 6.10361e-05
0.329366 0.419745 7.62951e-05
0.427909 0.415351 9.15541e-05
0.507225 0.39881 0.000137331
0.586313 0.378958 0.000213626
0.672328 0.352926 0.000350958
0.762661 0.319509 0.000534066
0.853834 0.277623 0.000808728
0.941985 0.226154 0.0011902
1 0.163424 0.00166323
1 0.0847334 0.00221256
1 0.00323491 0.00277714
0 0.493614 0
0 0.493263 0
0 0.492424 0
0 0.491035 0
0.0187686 0.489067 0
0.175845 0.486549 0
0.292454 0.483436 0
0.394614 0.479744 0
0.489387 0.475456 1.5259e-05
0.571664 0.454582 4.57771e-05
0.660471 0.427314 0.000106813
0.753185 0.392523 0.000244144
0.846387 0.349355 0.000457771
0.936217 0.297154 0.000793469
1 0.23537 0.00125124
1 0.162478 0.00180056
1 0.0723583 0.00241093
0 0.557 0
0 0.55668 0
0 0.555978 0
0 0.554803 0
0 0.553155 0
0.111833 0.551034 0
0.244678 0.548409 0
0.352926 0.545312 0
0.450462 0.541711 0
0.552422 0.537087 0
0.645014 0.50811 0
0.740917 0.471336 4.57771e-05
0.836774 0.425986 0.000167849
0.928786 0.371756 0.000411994
1 0.308705 0.000823987
1 0.236713 0.00135805
1 0.15407 0.00198367
0 0.627436 0
0 0.627146 0
0 0.626566 0
0 0.625589 0
0 0.624216 0
0.00749218 0.622461 0
0.173266 0.62031 0
0.294362 0.617746 0
0.397269 0.614786 0
0.501869 0.610986 0
0.622446 0.605554 0
0.723156 0.565911 0
0.82295 0.517296 0
0.918151 0.459617 0.000106813
1 0.393393 0.000381476
1 0.319417 0.000839246
1 0.237934 0.00144961
0 0.702617 0
0 0.702358 0
0 0.701885 0
0 0.701091 0
0 0.699977 0
0 0.698558 0
0.0490578 0.696818 0
0.20914 0.694743 0
0.324163 0.692348 0
0.43444 0.689281 0
0.557534 0.684901 0
0.6972 0.678645 0
0.802915 0.625528 0
0.902846 0.562875 0
0.993744 0.4916 6.10361e-05
1 0.413138 0.000350958
1 0.328847 0.000869764
0 0.779461 0
0 0.779232 0
0 0.778851 0
0 0.778225 0
0 0.77734 0
0 0.776211 0
0 0.774823 0
0.0646982 0.773175 0
0.219547 0.771267 0
0.343969 0.768841 0
0.473564 0.765377 0
0.615091 0.760433 0
0.773602 0.753353 0
0.880659 0.684092 0
0.977081 0.605814 0
1 0.520485 3.0518e-05
1 0.430289 0.000320439
0 0.854459 0
0 0.854246 0
0 0.853956 0
0 0.853452 0
0 0.852766 0
0 0.851881 0
0 0.850797 0
0 0.849515 0
0.0345769 0.848035 0
0.216251 0.846143 0
0.364309 0.843442 0
0.512642 0.839597 0
0.671748 0.834119 0
0.848157 0.826276 0
0.952926 0.738872 0
1 0.644266 0
1 0.545327 1.5259e-05
0 0.924239 0
0 0.924041 0
0 0.923812 0
0 0.92343 0
0 0.922911 0
0 0.922225 0
0 0.921401 0
0 0.920409 0
0 0.91928 0
0.00196841 0.917815 0
0.212879 0.915755 0
0.384009 0.91281 0
0.549676 0.908629 0
0.724804 0.902663 0
0.917525 0.894118 0
1 0.787671 0
1 0.67715 0
0 0.986175 0
0 0.985977 0
0 0.985809 0
0 0.985519 0
0 0.985122 0
0 0.984604 0
0 0.983978 0
0 0.98323 0
0 0.982376 0
0 0.981277 0
0 0.979721 0
0.209613 0.977508 0
0.40206 0.974365 0
0.582986 0.969879 0
0.772137 0.96347 0
0.979095 0.954314 0
1 0.829221 0
0 1 0
0 1 0
0 1 0
0 1 0
0 1 0
0 1 0
0 1 0
0 1 0
0 1 0
0 1 0
0 1 0
0 1 0
0.206638 1 0
0.417762 1 0
0.611551 1 0
0.812451 1 0
1 1 0
0 0 0.0404974
0.00175479 0 0.0405737
0.062501 0 0.0407568
0.161425 0 0.0394293
0.2533 0 0.0376593
0.339025 0 0.0355383
0.41886 0 0.0331884
0.492958 0 0.030457
0.56144 0 0.027924
0.631632 0 0.0251621
0.70959 0 0.0219577
0.792798 0 0.0184634
0.877836 0 0.0149081
0.960815 0 0.0115663
1 0 0.00866712
1 0 0.00633249
1 0 0.00459297
0 0.00151064 0.0400702
0.000885023 0.00132753 0.0401312
0.0568551 0.00077821 0.0403143
0.157839 0.000228885 0.0393988
0.25066 0 0.0381781
0.336919 0 0.0367132
0.41709 0 0.03505
0.491417 0 0.0332799
0.560067 0 0.0314488
0.630396 0 0.02916
0.708476 0 0.0267338
0.791791 0 0.0239719
0.876921 0 0.0210574
0.95996 0 0.018143
1 0 0.0154421
1 0 0.0131075
1 0 0.0111849
0 0.0447395 0.0387579
0 0.0433204 0.038819
0.0390021 0.0390021 0.0390021
0.14696 0.0321965 0.0393072
0.242741 0.0238499 0.0397192
0.330632 0.0157778 0.0402228
0.411826 0.00885023 0.0407874
0.486854 0.00378424 0.0413977
0.555993 0.000900282 0.0420386
0.626734 0 0.0427863
0.70518 0 0.0437018
0.7888 0 0.0447852
0.874189 0 0.0460212
0.957443 0 0.0473335
1 0 0.048661
1 0 0.0499123
1 0 0.0510414
0 0.132998 0.0350958
0 0.132082 0.0355535
0.0142977 0.129335 0.0369116
0.128344 0.124834 0.0372168
0.229953 0.116747 0.0376593
0.320958 0.106523 0.0382239
0.404135 0.0942245 0.0388495
0.480522 0.079881 0.0395514
0.550668 0.0634928 0.0402991
0.622248 0.0425574 0.0411383
0.701473 0.0178683 0.0421759
0.785809 0.00299077 0.0434119
0.871794 0 0.0448157
0.955566 0 0.0463111
1 0 0.0478218
1 0 0.0492409
1 0 0.0505226
0 0.215534 0.0301518
0 0.214847 0.0313268
0.000823987 0.212818 0.0341802
0.0982071 0.209613 0.0344549
0.211139 0.205066 0.0348516
0.307027 0.195483 0.0354772
0.393149 0.184131 0.0361944
0.471519 0.171176 0.0369879
0.543114 0.156771 0.0378271
0.615915 0.139116 0.0388037
0.696254 0.11516 0.0400244
0.781582 0.0826581 0.0414893
0.868437 0.0375372 0.043122
0.952956 0.00350958 0.0448768
1 0 0.0466316
1 0 0.0482948
1 0 0.0497749
0 0.292744 0.0249332
0 0.292195 0.0263371
0 0.290578 0.0307164
0.0544594 0.288121 0.0309911
0.181689 0.284657 0.0315862
0.288304 0.28014 0.0320745
0.378607 0.268681 0.0328832
0.459724 0.255726 0.0337835
0.533257 0.241474 0.0347448
0.60766 0.224231 0.0358587
0.689479 0.201343 0.0372625
0.776104 0.171405 0.0389563
0.864103 0.132677 0.0409247
0.949569 0.0823224 0.0429999
1 0.0181582 0.0450904
1 0 0.0470588
1 0 0.0488136
0 0.364752 0.0196689
0 0.364294 0.0214389
0 0.362936 0.0272526
0.00703441 0.360967 0.0274815
0.143725 0.35819 0.0278172
0.258396 0.354589 0.0282597
0.360159 0.350149 0.0287938
0.444907 0.336629 0.0297856
0.520974 0.321859 0.0308537
0.597436 0.304082 0.0323644
0.681117 0.280735 0.0339666
0.769375 0.250675 0.0359197
0.858778 0.212772 0.0381933
0.945434 0.165789 0.0406958
1 0.10753 0.043183
1 0.0317693 0.0455329
1 0 0.0476387
0 0.431632 0.014725
0 0.431235 0.0167697
0 0.43006 0.0237278
0 0.428428 0.0239414
0.0941482 0.426139 0.0242313
0.2224 0.423163 0.0246281
0.329229 0.419516 0.0250858
0.42681 0.415167 0.0256657
0.506111 0.399527 0.0268254
0.585138 0.380804 0.0282139
0.671092 0.356344 0.0299992
0.761334 0.325078 0.0324407
0.85243 0.286198 0.0350347
0.940505 0.239033 0.0379187
1 0.182849 0.0409094
1 0.11577 0.0437324
1 0.0305943 0.0462348
0 0.493477 0.0103761
0 0.493126 0.0125277
0 0.492073 0.020325
0 0.4907 0.0205081
0.025391 0.488762 0.0207675
0.179202 0.486259 0.021088
0.293706 0.483192 0.0215
0.394598 0.47953 0.0220035
0.488426 0.475288 0.0225834
0.570626 0.45539 0.0240635
0.659342 0.42945 0.0259861
0.751965 0.39649 0.028397
0.84506 0.355795 0.0315251
0.934783 0.307012 0.0348058
1 0.25008 0.0382391
1 0.18468 0.0416114
1 0.108598 0.0445869
0 0.556893 0.00643931
0 0.556573 0.00851453
0 0.555627 0.0167697
0 0.554467 0.0169223
0 0.552834 0.0171359
0.11902 0.550729 0.0174105
0.24799 0.54815 0.0177615
0.35436 0.545068 0.0181888
0.45066 0.541512 0.018677
0.551568 0.536934 0.0193027
0.644022 0.509133 0.0213321
0.739803 0.473915 0.0239261
0.835538 0.430655 0.0270695
0.927428 0.379248 0.0307317
1 0.320012 0.0349126
1 0.253513 0.0388647
1 0.179522 0.0424811
0 0.627329 0.00297551
0 0.627054 0.0047303
0 0.6262 0.0128786
0 0.625238 0.0130007
0 0.623896 0.0131838
0.0156252 0.622156 0.0133974
0.180346 0.62002 0.0136873
0.298131 0.617487 0.0140078
0.399207 0.614557 0.0144045
0.502403 0.610788 0.0149081
0.621683 0.605417 0.0156405
0.722225 0.567132 0.0183261
0.821836 0.520287 0.0216983
0.916899 0.464958 0.0256962
1 0.401846 0.0301671
1 0.332067 0.0350347
1 0.25658 0.0394141
0 0.702541 0.000701915
0 0.702281 0.00180056
0 0.701518 0.00900282
0 0.700725 0.00909438
0 0.699641 0.00921645
0 0.698222 0.0093843
0.0670634 0.696498 0.00959792
0.217166 0.694453 0.00984207
0.328878 0.692088 0.010132
0.437049 0.689036 0.0104982
0.558404 0.684718 0.0110475
0.696513 0.678523 0.011841
0.801999 0.626932 0.0152285
0.901732 0.566278 0.01944
0.992462 0.497566 0.0243381
1 0.422461 0.029633
1 0.342641 0.0351415
0 0.7794 0
0 0.779171 0.000244144
0 0.77847 0.00553903
0 0.777844 0.00560006
0 0.776974 0.00567636
0 0.77586 0.00579843
0 0.774487 0.00593576
0.0852827 0.772854 0.00608835
0.229526 0.770977 0.00628672
0.349935 0.768566 0.00653086
0.476844 0.765133 0.00689708
0.616266 0.760235 0.0074464
0.772976 0.753246 0.00825513
0.879774 0.685695 0.012253
0.975967 0.609583 0.0172885
1 0.527001 0.0230869
1 0.440314 0.02916
0 0.854414 0
0 0.8542 0
0 0.853559 0.00285344
0 0.853071 0.00288396
0 0.852384 0.00292973
0 0.851514 0.00300603
0 0.850446 0.00308232
0 0.849165 0.00317388
0.063859 0.8477 0.00329595
0.228901 0.845823 0.00343328
0.371496 0.843153 0.00364691
0.516564 0.839353 0.00396735
0.673228 0.833936 0.00445563
0.847593 0.826169 0.00518807
0.952056 0.740642 0.00961318
1 0.648371 0.0153811
1 0.5523 0.021973
0 0.924208 0
0 0.92401 0
0 0.9234 0.00111391
0 0.923033 0.00112917
0 0.922515 0.00115969
0 0.921828 0.0011902
0 0.921004 0.00122072
0 0.920043 0.0012665
0 0.918914 0.00132753
0.0171664 0.917479 0.00140383
0.22826 0.915434 0.00151064
0.39234 0.91252 0.00166323
0.554162 0.908385 0.00190738
0.726543 0.902464 0.00228885
0.917006 0.894026 0.00289921
1 0.789593 0.00743114
1 0.681514 0.0137636
0 0.986145 0
0 0.985946 0
0 0.985382 0.000259403
0 0.985107 0.000259403
0 0.98471 0.000274662
0 0.984207 0.000274662
0 0.983581 0.000289921
0 0.982849 0.00030518
0 0.981994 0.000335698
0 0.980911 0.000350958
0.000396735 0.97937 0.000396735
0.227649 0.977172 0.000457771
0.411414 0.97406 0.000549325
0.587976 0.969619 0.000701915
0.774105 0.963287 0.000961318
0.978607 0.954238 0.00138857
1 0.831266 0.00573739
0 1 0
0 1 0
0 1 1.5259e-05
0 1 1.5259e-05
0 1 1.5259e-05
0 1 1.5259e-05
0 1 1.5259e-05
0 1 1.5259e-05
0 1 1.5259e-05
0 1 1.5259e-05
0 1 3.0518e-05
0 1 4.57771e-05
0.2271 1 6.10361e-05
0.42797 1 9.15541e-05
0.616968 1 0.00015259
0.814603 1 0.000289921
1 1 0.000549325
0 0 0.126223
0.000762951 0 0.126268
0.0546578 0 0.12639
0.157656 0 0.126589
0.250599 0 0.123674
0.33695 0 0.120089
0.417197 0 0.115908
0.491569 0 0.111269
0.560265 0 0.106249
0.630655 0 0.100313
0.708782 0 0.0926986
0.792142 0 0.0831922
0.877317 0 0.0717784
0.960403 0 0.0586709
1 0 0.0442969
1 0 0.0297856
1 0 0.0191958
0 0.00128176 0.125948
0.00030518 0.00117494 0.125978
0.0492714 0.000671397 0.126101
0.15404 0.000167849 0.126299
0.247959 0 0.123751
0.334844 0 0.120607
0.415427 0 0.116976
0.490043 0 0.112932
0.558907 0 0.108583
0.629419 0 0.103456
0.707668 0 0.0968948
0.791135 0 0.088777
0.876387 0 0.079118
0.959548 0 0.0681468
1 0 0.0562905
1 0 0.0441749
