proprietary/odm/etc/camera/filters_lut/bt2020_hlg_to_p3_srgb_3dlut_light.cube
TITLE "Generated by Resolve"
LUT_3D_SIZE 9
#LUT data points
0 0 0
0.067216 0 0
0.255436 0 0
0.420188 0 0
0.562371 0 1.5259e-05
0.710246 0 4.57771e-05
0.878264 0 9.15541e-05
1 0 0.000213626
1 0 0.000366217
0 0.0456397 0
0.0444038 0.0399481 0
0.245487 0.0214694 0
0.414054 0.00534066 0
0.558083 0 0
0.707256 0 1.5259e-05
0.876326 0 7.62951e-05
1 0 0.000183108
1 0 0.000335698
0 0.215946 0
0.000869764 0.213367 0
0.213672 0.205509 0
0.395178 0.181369 0
0.545052 0.149355 0
0.698222 0.0991531 0
0.870512 0.00996414 1.5259e-05
1 0 9.15541e-05
1 0 0.000244144
0 0.365011 0
0 0.363424 0
0.14229 0.358602 0
0.361837 0.350439 0
0.522667 0.319417 0
0.682902 0.273915 0
0.860731 0.196994 0
1 0.0688182 1.5259e-05
1 0 0.000137331
0 0.49366 0
0 0.492546 0
0.0168002 0.489174 0
0.292027 0.483528 0
0.489708 0.475517 0
0.660853 0.426581 0
0.84683 0.347143 0
1 0.230228 0
1 0.0584115 4.57771e-05
0 0.627466 0
0 0.626673 0
0 0.624338 0
0.17084 0.620401 0
0.396612 0.614862 0
0.622705 0.6056 0
0.823316 0.516274 0
1 0.390494 0
1 0.231373 0
0 0.779477 0
0 0.778973 0
0 0.777462 0
0 0.774929 0
0.216083 0.771374 0
0.47245 0.765454 0
0.773816 0.753399 0
0.977462 0.604532 0
1 0.426841 0
0 0.924254 0
0 0.923949 0
0 0.923049 0
0 0.921523 0
0 0.919402 0
0.207492 0.915862 0
0.54815 0.908705 0
0.917708 0.894148 0
1 0.675669 0
0 1 0
0 1 0
0 1 0
0 1 0
0 1 0
0 1 0
0.199405 1 0
0.60972 1 0
1 1 0
0 0 0.0404974
0.062501 0 0.0407568
0.2533 0 0.0376593
0.41886 0 0.0331884
0.56144 0 0.027924
0.70959 0 0.0219577
0.877836 0 0.0149081
1 0 0.00866712
1 0 0.00459297
0 0.0447395 0.0387579
0.0390021 0.0390021 0.0390021
0.242741 0.0238499 0.0397192
0.411826 0.00885023 0.0407874
0.555993 0.000900282 0.0420386
0.70518 0 0.0437018
0.874189 0 0.0460212
1 0 0.048661
1 0 0.0510414
0 0.215534 0.0301518
0.000823987 0.212818 0.0341802
0.211139 0.205066 0.0348516
0.393149 0.184131 0.0361944
0.543114 0.156771 0.0378271
0.696254 0.11516 0.0400244
0.868437 0.0375372 0.043122
1 0 0.0466316
1 0 0.0497749
0 0.364752 0.0196689
0 0.362936 0.0272526
0.143725 0.35819 0.0278172
0.360159 0.350149 0.0287938
0.520974 0.321859 0.0308537
0.681117 0.280735 0.0339666
0.858778 0.212772 0.0381933
1 0.10753 0.043183
1 0 0.0476387
0 0.493477 0.0103761
0 0.492073 0.020325
0.025391 0.488762 0.0207675
0.293706 0.483192 0.0215
0.488426 0.475288 0.0225834
0.659342 0.42945 0.0259861
0.84506 0.355795 0.0315251
1 0.25008 0.0382391
1 0.108598 0.0445869
0 0.627329 0.00297551
0 0.6262 0.0128786
0 0.623896 0.0131838
0.180346 0.62002 0.0136873
0.399207 0.614557 0.0144045
0.621683 0.605417 0.0156405
0.821836 0.520287 0.0216983
1 0.401846 0.0301671
1 0.25658 0.0394141
0 0.7794 0
0 0.77847 0.00553903
0 0.776974 0.00567636
0 0.774487 0.00593576
0.229526 0.770977 0.00628672
0.476844 0.765133 0.00689708
0.772976 0.753246 0.00825513
0.975967 0.609583 0.0172885
1 0.440314 0.02916
0 0.924208 0
0 0.9234 0.00111391
0 0.922515 0.00115969
0 0.921004 0.00122072
0 0.918914 0.00132753
0.22826 0.915434 0.00151064
0.554162 0.908385 0.00190738
0.917006 0.894026 0.00289921
1 0.681514 0.0137636
0 1 0
0 1 1.5259e-05
0 1 1.5259e-05
0 1 1.5259e-05
0 1 1.5259e-05
0 1 3.0518e-05
0.2271 1 6.10361e-05
0.616968 1 0.00015259
1 1 0.000549325
0 0 0.206531
0.0435645 0 0.206653
0.246799 0 0.206989
0.414862 0 0.196521
0.558648 0 0.183459
0.707652 0 0.165087
0.876585 0 0.136614
1 0 0.0988327
1 0 0.0570077
0 0.0381476 0.205737
0.0246281 0.0363928 0.205829
0.236133 0.0218204 0.206165
0.407828 0.00779736 0.198581
0.553216 0.000671397 0.189212
0.703243 0 0.176272
0.872938 0 0.156802
1 0 0.132296
1 0 0.107393
0 0.214298 0.203342
0 0.211597 0.203464
0.2038 0.2038 0.2038
0.38732 0.191791 0.204318
0.537575 0.176715 0.204929
0.690654 0.155276 0.205722
0.862547 0.121386 0.206867
1 0.0746166 0.208179
1 0.0216526 0.209369
0 0.363989 0.18851
0 0.362188 0.191623
0.147723 0.357031 0.200259
0.355337 0.34931 0.200763
0.516182 0.328649 0.201678
0.676036 0.299397 0.202899
0.853223 0.253529 0.204608
1 0.191196 0.206561
1 0.118791 0.208347
0 0.492943 0.169665
0 0.491539 0.176761
0.0569314 0.487572 0.195941
0.298436 0.482231 0.196414
0.484749 0.474647 0.197086
0.655039 0.437476 0.198871
0.839994 0.379339 0.201404
1 0.30074 0.204288
1 0.210437 0.206912
0 0.626963 0.142321
0 0.625834 0.155657
0 0.622629 0.190097
0.205661 0.618906 0.190524
0.406485 0.613672 0.191135
0.618769 0.604898 0.192111
0.817624 0.531502 0.196033
0.998627 0.432547 0.200504
1 0.319478 0.204532
0 0.779156 0.0973831
0 0.778225 0.122377
0 0.775586 0.181613
0.00187686 0.77319 0.181964
0.264836 0.769833 0.182467
0.489097 0.764233 0.183276
0.770642 0.752834 0.184924
0.97171 0.623682 0.192706
1 0.476631 0.199664
0 0.924056 0.0294347
0 0.923262 0.0766155
0 0.920989 0.171466
0 0.919554 0.17174
0 0.91754 0.172107
0.280781 0.914199 0.172717
0.570871 0.907439 0.173922
0.915038 0.893675 0.176364
1 0.69781 0.189624
0 1 9.15541e-05
0 1 0.0242161
0 1 0.161837
0 1 0.162005
0 1 0.162249
0 1 0.162646
0.294804 1 0.163455
0.637049 1 0.165072
1 1 0.168276
0 0 0.351858
0.0169985 0 0.351934
0.223789 0 0.352148
0.408118 0 0.352499
0.553948 0 0.33312
0.704387 0 0.305821
0.874479 0 0.263355
1 0 0.206622
1 0 0.143008
0 0.0285344 0.35137
0.00996414 0.0326238 0.3514
0.21593 0.0197299 0.351598
0.401083 0.00621042 0.351949
0.548562 0.000350958 0.335058
0.700023 0 0.311437
0.870863 0 0.275227
1 0 0.228138
1 0 0.177798
0 0.201038 0.349889
0 0.201266 0.349935
0.192523 0.201907 0.350057
0.38056 0.189822 0.350393
0.532998 0.174807 0.34049
0.687495 0.153445 0.32694
0.860517 0.119707 0.306889
1 0.073106 0.282322
1 0.020798 0.258244
0 0.362707 0.347402
0 0.360906 0.347478
0.133761 0.355795 0.347707
0.348043 0.348043 0.348043
0.508949 0.338567 0.348455
0.668391 0.325612 0.348989
0.844877 0.306493 0.349752
1 0.283116 0.350637
1 0.260288 0.351431
0 0.492042 0.324392
0 0.490654 0.327031
0.0367285 0.486717 0.334432
0.305394 0.480781 0.345235
0.479225 0.473686 0.345632
0.648569 0.44921 0.346517
0.832395 0.412299 0.347768
1 0.365637 0.349218
1 0.317891 0.35053
0 0.626337 0.291524
0 0.625208 0.298085
0 0.622034 0.31606
0.239872 0.617258 0.341451
0.417136 0.612345 0.341802
0.614389 0.60415 0.342397
0.811307 0.547845 0.344488
0.990662 0.475029 0.346868
1 0.39791 0.34905
0 0.778759 0.239155
0 0.777829 0.25272
0 0.775204 0.288441
0.113878 0.771282 0.336019
0.31165 0.768124 0.336324
0.506874 0.76289 0.336797
0.767117 0.752224 0.337774
0.965316 0.64416 0.342107
1 0.526497 0.346044
0 0.923812 0.165545
0 0.923018 0.19118
0 0.92076 0.253651
0 0.917388 0.329671
0.132311 0.915496 0.329885
0.347265 0.912367 0.330236
0.59498 0.906035 0.330938
0.912108 0.893156 0.332357
1 0.721431 0.339925
0 1 0.0727703
0 1 0.119951
0 1 0.21828
0 1 0.323751
0 1 0.323888
0.103288 1 0.324117
0.377401 1 0.324575
0.665888 1 0.32549
1 1 0.327337
0 0 0.477287
0.00209049 0 0.477333
0.193759 0 0.477485
0.376867 0 0.477729
0.547326 0 0.47808
0.699794 0 0.442313
0.871519 0 0.386633
1 0 0.312078
1 0 0.228046
0 0.0191653 0.476936
0.00148013 0.0281071 0.476921
0.189837 0.0173953 0.477073
0.372351 0.00575265 0.477317
0.54197 9.15541e-05 0.477653
0.69546 0 0.444709
0.867933 0 0.393851
1 0 0.326818
1 0 0.253468
0 0.184329 0.475898
0 0.188388 0.475898
0.178408 0.199619 0.475898
0.359335 0.188479 0.476143
0.526513 0.172107 0.476463
0.683055 0.150881 0.451453
0.857694 0.117342 0.413687
1 0.070985 0.36585
1 0.0196384 0.316762
0 0.340719 0.474174
0 0.341451 0.474189
0.121798 0.343496 0.474266
0.339147 0.346548 0.474372
0.502617 0.337026 0.474678
0.664134 0.324224 0.461341
0.842176 0.305318 0.441825
1 0.282216 0.418235
1 0.259678 0.395529
0 0.490776 0.471733
0 0.489418 0.471794
0.0134279 0.485512 0.471962
0.295445 0.479652 0.472221
0.472541 0.472541 0.472541
0.640726 0.462913 0.472953
0.823178 0.448966 0.473533
0.992462 0.432334 0.474205
1 0.416571 0.474815
0 0.625452 0.431968
0 0.624338 0.434943
0 0.621195 0.443275
0.229328 0.616464 0.455451
0.429587 0.610758 0.469673
0.60911 0.603235 0.470085
0.803677 0.566827 0.471229
0.981033 0.521737 0.472557
1 0.476967 0.473777
0 0.77818 0.369223
0 0.777264 0.37731
0 0.77467 0.399481
0.100237 0.770779 0.430671
0.361151 0.766079 0.465568
0.527428 0.761273 0.465904
0.76289 0.751492 0.46659
0.95761 0.667872 0.469245
1 0.580941 0.471672
0 0.923476 0.282872
0 0.922683 0.299489
0 0.920439 0.342947
0 0.917082 0.400336
0.264927 0.913039 0.460807
0.415 0.910155 0.461051
0.62266 0.904356 0.461524
0.908553 0.892546 0.462501
1 0.74876 0.467414
0 1 0.179751
0 1 0.210224
0 1 0.283253
0 1 0.370657
0.143603 1 0.456382
0.280598 1 0.45655
0.459419 1 0.456855
0.698924 1 0.457481
1 1 0.458747
0 0 0.607736
0 0 0.607767
0.148196 0 0.607874
0.331487 0 0.608042
0.496574 0 0.608286
0.692134 0 0.608698
0.866606 0 0.537087
1 0 0.441093
1 0 0.332601
0 0.00993362 0.607492
0 0.0229496 0.607446
0.150912 0.0145418 0.607553
0.330938 0.00518807 0.607721
0.494133 0.000183108 0.607965
0.687861 0 0.608362
0.863081 0 0.540566
1 0 0.450523
1 0 0.350622
0 0.160418 0.606775
0 0.170321 0.606729
0.158419 0.196551 0.606638
0.329351 0.186694 0.60679
0.487129 0.172274 0.607034
0.675654 0.146578 0.607401
0.852979 0.113375 0.550286
1 0.0674296 0.476326
1 0.017792 0.397818
0 0.309514 0.605554
0 0.314031 0.605539
0.10486 0.326558 0.605493
0.327001 0.344533 0.605417
0.476509 0.336156 0.605631
0.657008 0.321889 0.605982
0.83769 0.303365 0.564508
1 0.280735 0.512596
1 0.258671 0.460304
0 0.451774 0.603861
0 0.453269 0.603876
0.00921645 0.457465 0.603891
0.287633 0.463676 0.603922
0.463493 0.471 0.603952
0.633982 0.461357 0.604288
0.818982 0.447669 0.581094
0.98999 0.431373 0.553124
1 0.415946 0.526268
0 0.624002 0.601038
0 0.622904 0.601099
0 0.619806 0.601236
0.211093 0.615167 0.601434
0.419715 0.609552 0.601678
0.602014 0.602014 0.602014
0.793393 0.591165 0.602472
0.968078 0.578378 0.603006
1 0.566415 0.60351
0 0.777249 0.524269
0 0.776349 0.528252
0 0.773785 0.539406
0.0755322 0.76994 0.555657
0.351949 0.765301 0.574548
0.553674 0.759106 0.598779
0.757229 0.750515 0.599237
0.94725 0.698177 0.600702
1 0.64654 0.602029
0 0.922911 0.419715
0 0.922133 0.430106
0 0.919905 0.458366
0 0.916579 0.49781
0.256443 0.912566 0.541558
0.492241 0.907225 0.59501
0.657725 0.902098 0.595346
0.903822 0.891722 0.596033
1 0.783612 0.599069
0 1 0.297765
0 1 0.318074
0 1 0.370535
0 1 0.438712
0.135424 1 0.50956
0.428962 1 0.591546
0.551324 1 0.59176
0.740566 1 0.592187
1 1 0.593057
0 0 0.755947
0 0 0.755962
0.0638895 0 0.756039
0.256611 0 0.756146
0.415091 0 0.756298
0.597742 0 0.756558
0.856641 0 0.757092
1 0 0.629999
1 0 0.486168
0 0.00239567 0.755795
0 0.0166781 0.755718
0.0823682 0.011017 0.755779
0.263569 0.00444038 0.755886
0.417884 0.000381476 0.756039
0.597452 0 0.756298
0.853208 0 0.756817
1 0 0.63444
1 0 0.497322
0 0.122225 0.755322
0 0.142397 0.755245
0.127138 0.192142 0.755062
0.282536 0.184131 0.755169
0.425681 0.172503 0.755306
0.596597 0.152117 0.755566
0.843412 0.10515 0.756054
1 0.0600595 0.64683
1 0.0144045 0.527733
0 0.260349 0.754543
0 0.271473 0.754482
0.0782635 0.301213 0.754314
0.309102 0.341665 0.754086
0.437079 0.334905 0.754223
0.595346 0.323461 0.754452
0.82858 0.299382 0.75491
1 0.277714 0.664897
1 0.256626 0.570275
0 0.390616 0.753445
0 0.397055 0.753399
0.00476081 0.414816 0.753292
0.276249 0.440116 0.753109
0.450401 0.468818 0.752911
0.593835 0.461067 0.753124
0.810452 0.445075 0.753536
0.984985 0.42945 0.685924
1 0.414679 0.617548
0 0.54757 0.751629
0 0.550332 0.751614
0 0.558114 0.751568
0.214023 0.569528 0.751507
0.414603 0.58291 0.751446
0.591821 0.600275 0.751339
0.785672 0.589395 0.75172
0.963592 0.577096 0.712932
1 0.565576 0.675441
0 0.775357 0.747967
0 0.774472 0.747997
0 0.771984 0.748119
0.0181125 0.768246 0.748287
0.332769 0.76376 0.748486
0.542611 0.757733 0.748745
0.749111 0.749111 0.749111
0.932357 0.739025 0.749554
1 0.729656 0.74995
0 0.921782 0.614847
0 0.921004 0.619776
0 0.918822 0.633494
0 0.915572 0.653422
0.238712 0.91165 0.676555
0.483406 0.906401 0.706157
0.704479 0.898909 0.746105
0.897078 0.890562 0.746532
1 0.830472 0.748028
0 1 0.461662
0 1 0.473838
0 1 0.506859
0 1 0.552697
0.118074 1 0.603265
0.422599 1 0.664744
0.66096 1 0.743328
0.79585 1 0.743603
1 1 0.744167
0 0 0.897093
0 0 0.897108
0 0 0.897139
0.141314 0 0.897215
0.29839 0 0.897307
0.466545 0 0.897459
0.697185 0 0.89778
1 0 0.898405
1 0 0.704723
0 0 0.897002
0 0.0108186 0.896895
0.00105287 0.00761425 0.896941
0.163943 0.00366217 0.897002
0.310536 0.000701915 0.897093
0.472847 0 0.897246
0.698665 0 0.897551
1 0 0.898177
1 0 0.70988
0 0.0681163 0.896712
0 0.105577 0.89662
0.0847639 0.186954 0.896345
0.219425 0.18114 0.896406
0.342992 0.172778 0.896498
0.490303 0.158358 0.896651
0.702861 0.126604 0.896941
1 0.0442054 0.897536
1 0.00881971 0.724285
0 0.192859 0.896239
0 0.214755 0.896162
0.0420996 0.269612 0.895903
0.287327 0.338308 0.895521
0.387106 0.33344 0.895613
0.515328 0.325261 0.89575
0.709072 0.308263 0.896025
0.989883 0.271565 0.896574
1 0.252476 0.745281
0 0.307469 0.895582
0 0.321889 0.895506
0.00158694 0.360082 0.895277
0.262623 0.411399 0.894942
0.434821 0.466285 0.894545
0.543893 0.460716 0.894667
0.716442 0.449317 0.894926
0.974853 0.425559 0.89543
1 0.412131 0.769665
0 0.44419 0.894499
0 0.453101 0.894438
0 0.477531 0.894255
0.21738 0.511971 0.89398
0.408606 0.550591 0.89366
0.579812 0.598276 0.893233
0.726131 0.590478 0.893446
0.954482 0.574487 0.893904
1 0.563897 0.800916
0 0.64152 0.892302
0 0.645411 0.892271
0 0.656291 0.89218
0.0964981 0.672221 0.892042
0.35082 0.690822 0.89189
0.544274 0.714809 0.891676
0.739635 0.747509 0.891371
0.924804 0.737392 0.891722
1 0.728618 0.843214
0 0.919493 0.887877
0 0.918746 0.887907
0 0.916655 0.887999
0 0.913527 0.888136
0.199756 0.909773 0.888304
0.465187 0.904753 0.888533
0.694392 0.897581 0.888838
0.889204 0.889204 0.889204
1 0.881468 0.88954
0 1 0.687755
0 1 0.693385
0 1 0.709072
0 1 0.731838
0.0783856 1 0.758221
0.409552 1 0.791928
0.654124 1 0.837354
0.855238 1 0.8869
1 1 0.887221
0 0 1
0 0 1
0 0 1
9.15541e-05 0 1
0.143221 0 1
0.306035 0 1
0.509514 0 1
0.777279 0 1
1 0 1
0 0 1
0 0.00671397 1
0 0.00512703 1
0.0192874 0.00303655 1
0.174792 0.00109865 1
0.323583 1.5259e-05 1
0.518532 0 1
0.780041 0 1
1 0 1
0 0.0115358 1
0 0.0652171 1
0.035935 0.182116 1
0.147387 0.178363 1
0.248875 0.173022 1
0.369512 0.163943 1
0.543297 0.144671 1
0.787823 0.100511 1
1 0.00204471 1
0 0.112734 1
0 0.151476 1
0.0121157 0.237934 1
0.266163 0.335225 1
0.335821 0.332113 1
0.430137 0.326909 1
0.578378 0.316213 1
0.799268 0.293782 1
1 0.243977 1
0 0.210864 1
0 0.237415 1
0.000259403 0.302861 1
0.249653 0.383444 1
0.420096 0.463951 1
0.49398 0.460395 1
0.617884 0.453178 1
0.812757 0.4383 1
1 0.406943 1
0 0.325353 1
0 0.343435 1
0 0.390784 1
0.220417 0.453361 1
0.403052 0.519295 1
0.568597 0.596429 1
0.666896 0.59147 1
0.830365 0.581353 1
1 0.560494 1
0 0.48864 1
0 0.499458 1
0 0.529015 1
0.151202 0.570428 1
0.366705 0.616526 1
0.5458 0.673091 1
0.730846 0.746029 1
0.854688 0.73959 1
1 0.726482 1
0 0.717113 1
0 0.721828 1
0 0.735042 1
0 0.754314 1
0.282307 0.776761 1
0.496971 0.805646 1
0.702022 0.844846 1
0.881926 0.887968 1
1 0.880217 1
0 1 0.99852
0 1 0.99855
0 1 0.998642
0 1 0.998764
0.0016022 1 0.998917
0.382132 1 0.9991
0.640177 1 0.99939
0.847669 1 0.99971
1 1 1
