proprietary/odm/etc/camera/filters_lut/bt2020_to_p3_3dlut.cube
#Created by : Dolby Laboratories
#Copyright: (C) Copyright 2022 Dolby Laboratories
#is_rgb_input 1
#is_rgb_output 1
#input_offset 0.000000
#shape_order 1.000000
#format 6
# MaxLuma:1000.00 MinLuma:0.00010 Eotf=Gamma
#LUT Size
LUT_3D_SIZE 33
#data domain
DOMAIN_MIN 0 0 0
DOMAIN_MAX 1.0 1.0 1.0
#LUT data points
0 0 0
0.0357214 0 0.00163272
0.071458 0 0.00328069
0.107195 0 0.00491341
0.142931 0 0.00654612
0.178668 0 0.00819409
0.214405 0 0.00982681
0.250141 0 0.0114595
0.285893 0 0.0131075
0.32163 0 0.0147402
0.357366 0 0.0163729
0.393103 0 0.0180209
0.42884 0 0.0196536
0.464576 0 0.0212863
0.500313 0 0.0229343
0.533928 0 0.024567
0.564004 0 0.0261997
0.592767 0 0.0279393
0.621927 0 0.0298619
0.651392 0 0.0320134
0.681132 0 0.0344091
0.711101 0 0.0370489
0.741268 0 0.0399634
0.771603 0 0.043183
0.802075 0 0.0467231
0.832685 0 0.0506294
0.863386 0 0.054902
0.894179 0 0.0596017
0.925032 0 0.0647593
0.955962 0 0.0704051
0.986938 0 0.0766003
1 0 0.0833753
1 0 0.0907759
0 0.0325017 0
0.0321202 0.031342 0
0.0699779 0.027985 0
0.106294 0.0215915 0.00236515
0.14229 0.00537118 0.00494392
0.17818 0 0.00697337
0.213993 0 0.00883497
0.249805 0 0.0106355
0.285588 0 0.0123751
0.321355 0 0.0140993
0.357122 0 0.0158083
0.392889 0 0.0175021
0.428641 0 0.0191806
0.464393 0 0.0208591
0.500145 0 0.0225223
0.533776 0 0.0241855
0.563882 0 0.0258488
0.592676 0 0.0276036
0.621836 0 0.0295567
0.651316 0 0.0317235
0.681056 0 0.0341344
0.71104 0 0.0367895
0.741222 0 0.0397345
0.771557 0 0.0429694
0.802045 0 0.0465248
0.832654 0 0.0504463
0.863355 0 0.0547341
0.894148 0 0.0594492
0.925017 0 0.064622
0.955947 0 0.0702831
0.986923 0 0.0764782
1 0 0.0832532
1 0 0.0906691
0 0.0650034 0
0.0144808 0.0644083 0
0.0642557 0.0626841 0
0.102937 0.0599222 0
0.139986 0.0559854 0
0.17644 0.0505989 0
0.212619 0.0432136 0.00471504
0.248646 0.0324559 0.00756847
0.284596 0.0108186 0.00987259
0.3205 0 0.0119631
0.356359 0 0.0139315
0.392203 0 0.0158389
0.428016 0 0.0176699
0.463828 0 0.0194858
0.499611 0 0.0212558
0.533349 0 0.0230106
0.563516 0 0.0247501
0.592355 0 0.0265812
0.621576 0 0.0286107
0.651087 0 0.0308385
0.680873 0 0.0333104
0.710887 0 0.0360418
0.741085 0 0.0390326
0.77145 0 0.0423133
0.801953 0 0.0459297
0.832578 0 0.049897
0.863294 0 0.0542306
0.894102 0 0.0589914
0.924971 0 0.0641947
0.955901 0 0.0698863
0.986893 0 0.076112
1 0 0.0829328
1 0 0.0903639
0 0.0975204 0
0 0.0971084 0
0.0526131 0.0959335 0
0.096376 0.0940414 0
0.135485 0.0914473 0
0.173083 0.0881208 0
0.209979 0.0839704 0
0.246494 0.0788739 0
0.28278 0.0726024 0.00201419
0.318929 0.0648203 0.00706493
0.354986 0.0548714 0.0100557
0.390967 0.0412146 0.0125582
0.426917 0.0162509 0.0148165
0.462821 0 0.0169375
0.498695 0 0.0189517
0.532586 0 0.0209049
0.562875 0 0.0228122
0.591821 0 0.0247807
0.621118 0 0.0269474
0.650706 0 0.0293126
0.680552 0 0.0318914
0.710613 0 0.0347295
0.740856 0 0.0378271
0.771252 0 0.0412146
0.801801 0 0.0449073
0.832441 0 0.0489509
0.863188 0 0.0533761
0.893996 0 0.0581979
0.924895 0 0.0634775
0.95584 0 0.0692302
0.986831 0 0.0755016
1 0 0.0823682
1 0 0.0898604
0 0.130022 0
0 0.129717 0
0.0289921 0.128832 0
0.0859846 0.127382 0
0.128511 0.125399 0
0.16788 0.122896 0
0.205875 0.119844 0
0.243153 0.116228 0
0.279973 0.111971 0
0.316533 0.106996 0
0.352895 0.101213 0
0.38912 0.0944381 0.00517281
0.425254 0.0864424 0.00943008
0.461311 0.0768444 0.0124971
0.497322 0.0649271 0.0151369
0.531456 0.0490272 0.0175174
0.561929 0.0216983 0.0197604
0.591028 0 0.0220035
0.620462 0 0.0244144
0.650156 0 0.0270085
0.680095 0 0.0298009
0.710231 0 0.0328069
0.740536 0 0.0360723
0.770993 0 0.0396124
0.801572 0 0.0434577
0.832242 0 0.0476234
0.86302 0 0.0521553
0.893874 0 0.057084
0.924773 0 0.0624399
0.955749 0 0.0682841
0.986755 0 0.0746471
1 0 0.0815747
1 0 0.0891432
0 0.162539 0
0 0.162295 0
0 0.161578 0
0.0701762 0.160403 0
0.118685 0.158785 0
0.160647 0.156756 0
0.200183 0.154299 0
0.238499 0.151415 0
0.276066 0.148089 0
0.313176 0.144289 0
0.349981 0.139971 0
0.386542 0.135073 0
0.422965 0.129549 0
0.459251 0.123293 0
0.495445 0.116182 0.0077821
0.529915 0.108049 0.01178
0.560647 0.0986496 0.0149081
0.58996 0.0868544 0.017792
0.619562 0.0702983 0.0207065
0.649409 0.0429694 0.0237125
0.679469 0 0.0268406
0.709697 0 0.0301671
0.740093 0 0.0336767
0.770626 0 0.0374456
0.801266 0 0.0414893
0.831998 0 0.0458381
0.862806 0 0.0505379
0.89369 0 0.0556039
0.924636 0 0.0610971
0.955627 0 0.0670634
0.986648 0 0.0735332
1 0 0.0805524
1 0 0.0881971
0 0.195041 0
0 0.194842 0
0 0.194247 0
0.0434882 0.193256 0
0.105257 0.191897 0
0.151141 0.190173 0
0.192782 0.188098 0
0.232456 0.185687 0
0.271 0.18291 0
0.308827 0.179782 0
0.346181 0.176257 0
0.3832 0.172335 0
0.419974 0.167971 0
0.456565 0.163119 0
0.493004 0.157763 0
0.527901 0.151827 0
0.558999 0.145235 0.00402838
0.588571 0.137438 0.0105135
0.618402 0.127565 0.0149386
0.648447 0.114733 0.0188907
0.67866 0.097322 0.0227054
0.709041 0.0712596 0.0265507
0.739544 0 0.0305028
0.770169 0 0.0346227
0.800885 0 0.0389563
0.831678 0 0.0435645
0.862547 0 0.0484779
0.893477 0 0.0537423
0.924453 0 0.0594186
0.955474 0 0.0655222
0.986526 0 0.0721294
1 0 0.0792859
1 0 0.0870375
0 0.227558 0
0 0.227375 0
0 0.226871 0
0 0.226017 0
0.0866102 0.224842 0
0.138918 0.223346 0
0.183474 0.221546 0
0.224918 0.219455 0
0.264683 0.21706 0
0.30341 0.214374 0
0.341466 0.211368 0
0.379034 0.208042 0
0.416266 0.204379 0
0.453223 0.200366 0
0.489967 0.195956 0
0.525383 0.191165 0
0.556924 0.185916 0
0.586847 0.179843 0
0.616968 0.172366 0
0.647257 0.163043 0.0106355
0.677684 0.151232 0.0165103
0.708232 0.135866 0.0215
0.738872 0.114977 0.0262303
0.769604 0.0835889 0.03093
0.800412 0 0.0357214
0.831296 0 0.0406958
0.862226 0 0.0459144
0.893202 0 0.0514534
0.924224 0 0.0573434
0.955291 0 0.0636606
0.986374 0 0.0704509
1 0 0.07776
1 0 0.0856489
0 0.26006 0
0 0.259907 0
0 0.259464 0
0 0.258717 0
0.0579995 0.257679 0
0.123217 0.256352 0
0.172 0.254765 0
0.215763 0.252918 0
0.257053 0.250813 0
0.29688 0.248432 0
0.335775 0.245792 0
0.374014 0.242893 0
0.41178 0.239704 0
0.44918 0.23624 0
0.48632 0.232471 0
0.522316 0.228382 0
0.554391 0.223957 0
0.584756 0.218891 0
0.615244 0.212741 0
0.645823 0.205203 0
0.676493 0.19588 0
0.70724 0.184222 0.0134737
0.738064 0.169345 0.0201877
0.768933 0.149752 0.0260014
0.799863 0.122454 0.0315557
0.830839 0.0785077 0.0371099
0.861845 0 0.042771
0.892897 0 0.0486763
0.923964 0 0.0548714
0.955062 0 0.0614481
0.986191 0 0.068452
1 0 0.0759442
1 0 0.0840162
0 0.292576 0
0 0.292439 0
0 0.292042 0
0 0.291371 0
0 0.29044 0
0.102464 0.289265 0
0.157885 0.287846 0
0.204776 0.286183 0
0.24799 0.284291 0
0.289174 0.282155 0
0.329076 0.279805 0
0.368109 0.277211 0
0.4065 0.274372 0
0.444434 0.271305 0
0.482002 0.267979 0
0.518654 0.264393 0
0.551385 0.260533 0
0.582269 0.256153 0
0.613184 0.250858 0
0.644114 0.244434 0
0.67509 0.236622 0
0.706096 0.226993 0
0.737102 0.21503 0.00941482
0.768154 0.199893 0.0189212
0.799222 0.180285 0.0260471
0.830304 0.15378 0.0325475
0.861402 0.114549 0.0388952
0.892531 0.0245975 0.045304
0.923674 0 0.0519112
0.954818 0 0.0588235
0.985992 0 0.0661021
1 0 0.0738537
1 0 0.0821241
0 0.325078 0
0 0.324971 0
0 0.324605 0
0 0.323995 0
0 0.323156 0
0.0724956 0.322103 0
0.140383 0.320806 0
0.191684 0.319295 0
0.237385 0.317586 0
0.280217 0.315648 0
0.321309 0.313512 0
0.361257 0.311162 0
0.400397 0.308614 0
0.438926 0.305837 0
0.477012 0.302846 0
0.514351 0.299641 0
0.54786 0.296193 0
0.579355 0.292302 0
0.610773 0.287617 0
0.642145 0.281987 0
0.673457 0.275181 0
0.704753 0.266896 0
0.736004 0.256733 0
0.767239 0.244129 0.00131228
0.798474 0.22829 0.0179599
0.829694 0.207919 0.0265354
0.860899 0.180758 0.0340429
0.892119 0.141878 0.0412146
0.923323 0.0722362 0.0483864
0.954528 0 0.0557412
0.985748 0 0.063386
1 0 0.0714275
1 0 0.0799573
0 0.357595 0
0 0.357488 0
0 0.357153 0
0 0.356603 0
0 0.35584 0
0 0.354864 0
0.117983 0.353689 0
0.176013 0.352316 0
0.224994 0.350744 0
0.269871 0.348974 0
0.312413 0.347021 0
0.353445 0.344869 0
0.393439 0.342535 0
0.43267 0.340002 0
0.471321 0.337285 0
0.509377 0.334356 0
0.543801 0.331243 0
0.575998 0.327718 0
0.608011 0.323507 0
0.639857 0.318456 0
0.671595 0.312398 0
0.703212 0.305058 0
0.734737 0.296147 0
0.766201 0.285222 0
0.79762 0.271717 0
0.828992 0.25478 0.0176394
0.860334 0.233066 0.0276799
0.891646 0.204318 0.0361486
0.922927 0.163729 0.0441596
0.954208 0.095079 0.0521096
0.985489 0 0.0602274
1 0 0.0686351
1 0 0.0774701
0 0.390112 0
0 0.390005 0
0 0.3897 0
0 0.389197 0
0 0.388495 0
0 0.38761 0
0.0870069 0.386526 0
0.157 0.385245 0
0.210513 0.383795 0
0.258 0.382162 0
0.302281 0.380362 0
0.344594 0.378378 0
0.38558 0.376211 0
0.425605 0.373892 0
0.464912 0.371389 0
0.503655 0.368704 0
0.539147 0.36585 0
0.572183 0.362615 0
0.604868 0.35877 0
0.637278 0.354192 0
0.669459 0.348684 0
0.701457 0.342077 0
0.733318 0.334096 0
0.765042 0.324392 0
0.796658 0.31252 0
0.828199 0.297826 0
0.859678 0.279423 0.0182956
0.891112 0.255863 0.0296025
0.922499 0.224689 0.0390021
0.953857 0.180789 0.0478218
0.985183 0.107362 0.0565652
1 0 0.0654459
1 0 0.0746777
0 0.422614 0
0 0.422522 0
0 0.422248 0
0 0.421775 0
0 0.421134 0
0 0.420294 0
0.025742 0.419303 0
0.133257 0.418112 0
0.193515 0.41677 0
0.244388 0.415259 0
0.290822 0.413581 0
0.334646 0.411734 0
0.376776 0.409735 0
0.417716 0.407568 0
0.457771 0.405249 0
0.497154 0.402762 0
0.533883 0.400122 0
0.567849 0.397131 0
0.601328 0.393591 0
0.634363 0.389364 0
0.667079 0.384329 0
0.699504 0.378286 0
0.731701 0.371023 0
0.763714 0.362249 0
0.795575 0.351598 0
0.827314 0.338537 0
0.858961 0.322393 0
0.890517 0.302129 0.0202029
0.922011 0.276158 0.0324559
0.95346 0.241718 0.0426642
0.984863 0.19295 0.0522774
1 0.109697 0.061799
1 0 0.0714885
0 0.455131 0
0 0.455039 0
0 0.45478 0
0 0.454353 0
0 0.453742 0
0 0.452979 0
0 0.452033 0
0.101518 0.450935 0
0.173251 0.449683 0
0.228733 0.448264 0
0.277836 0.446708 0
0.323491 0.444984 0
0.366964 0.443107 0
0.408942 0.441093 0
0.449851 0.438926 0
0.489921 0.436606 0
0.527932 0.434134 0
0.562997 0.431373 0
0.597345 0.428077 0
0.631113 0.424155 0
0.664424 0.419486 0
0.697322 0.413901 0
0.729915 0.407218 0
0.762264 0.399191 0
0.794385 0.389471 0
0.826337 0.377676 0
0.858152 0.363195 0
0.88986 0.345266 0
0.921477 0.322713 0.0233921
0.953017 0.293706 0.0362707
0.984497 0.254994 0.0472114
1 0.199466 0.0575723
1 0.0989242 0.0678874
0 0.487633 0
0 0.487556 0
0 0.487312 0
0 0.486915 0
0 0.486351 0
0 0.485634 0
0 0.484749 0
0.0478828 0.483726 0
0.148394 0.482551 0
0.210575 0.481224 0
0.263157 0.479744 0
0.311025 0.478141 0
0.356069 0.476387 0
0.399252 0.474479 0
0.441108 0.47245 0
0.481971 0.470283 0
0.521248 0.467964 0
0.55758 0.46537 0
0.592935 0.462287 0
0.627512 0.458625 0
0.661463 0.454261 0
0.694911 0.449073 0
0.727947 0.442878 0
0.760647 0.435431 0
0.793072 0.42649 0
0.825269 0.415671 0
0.857267 0.402502 0
0.889143 0.386328 0
0.920882 0.366232 0.00167849
0.952529 0.340871 0.0277867
0.9841 0.30808 0.041062
1 0.26389 0.0526741
1 0.198978 0.0637827
0 0.519448 0
0 0.519387 0
0 0.519173 0
0 0.518822 0
0 0.518318 0
0 0.517693 0
0 0.516915 0
0 0.515999 0
0.116014 0.514961 0
0.189212 0.513771 0
0.246448 0.512444 0
0.297063 0.510994 0
0.343999 0.509392 0
0.388586 0.507668 0
0.431525 0.505791 0
0.473274 0.503777 0
0.513771 0.501625 0
0.551537 0.499184 0
0.588037 0.496284 0
0.623529 0.492836 0
0.658228 0.488762 0
0.692271 0.483894 0
0.72578 0.478096 0
0.758877 0.471168 0
0.791623 0.462852 0
0.824079 0.452842 0
0.856306 0.440711 0
0.88835 0.425925 0
0.920241 0.407721 0
0.951995 0.385031 0.0137942
0.983673 0.356237 0.0332494
1 0.318715 0.0468452
1 0.267369 0.0590677
0 0.549859 0
0 0.549798 0
0 0.54963 0
0 0.549325 0
0 0.548913 0
0 0.548379 0
0 0.547723 0
0 0.546944 0
0.0616465 0.546059 0
0.16173 0.545068 0
0.226078 0.543954 0
0.280461 0.542718 0
0.329809 0.541375 0
0.376135 0.539925 0
0.420401 0.538338 0
0.463203 0.53666 0
0.50486 0.534844 0
0.544411 0.532799 0
0.5823 0.530358 0
0.618875 0.527443 0
0.654444 0.523934 0
0.689189 0.519707 0
0.723278 0.514595 0
0.756832 0.50837 0
0.789944 0.500755 0
0.822721 0.491447 0
0.855192 0.480232 0
0.887434 0.466621 0
0.919493 0.449989 0
0.9514 0.429465 0
0.983169 0.403784 0.0212253
1 0.371008 0.0392462
1 0.327871 0.053254
0 0.580407 0
0 0.580346 0
0 0.580194 0
0 0.57995 0
0 0.579599 0
0 0.579141 0
0 0.578592 0
0 0.577951 0
0 0.577203 0
0.12108 0.576349 0
0.199084 0.575418 0
0.259236 0.57438 0
0.312016 0.573251 0
0.360678 0.572015 0
0.406683 0.570687 0
0.450858 0.569268 0
0.49366 0.567742 0
0.53547 0.566033 0
0.575143 0.563989 0
0.613123 0.561547 0
0.64979 0.558618 0
0.68542 0.555123 0
0.720211 0.550896 0
0.75433 0.545785 0
0.7879 0.539574 0
0.821042 0.53196 0
0.853834 0.522545 0
0.886336 0.510735 0
0.918593 0.49572 0
0.950652 0.477073 0
0.982559 0.454002 0
1 0.42504 0.0275578
1 0.387869 0.0453651
0 0.611048 0
0 0.611002 0
0 0.61088 0
0 0.610666 0
0 0.610376 0
0 0.609995 0
0 0.609522 0
0 0.608988 0
0 0.608347 0
0.0308995 0.607645 0
0.161089 0.606851 0
0.231388 0.605966 0
0.289357 0.60502 0
0.341314 0.603983 0
0.38967 0.602869 0
0.43563 0.601663 0
0.47985 0.600397 0
0.524147 0.598947 0
0.566186 0.597238 0
0.605966 0.595193 0
0.644038 0.592752 0
0.680751 0.589822 0
0.716426 0.586313 0
0.751247 0.582101 0
0.785397 0.577005 0
0.819013 0.570794 0
0.852171 0.563195 0
0.884978 0.55378 0
0.917479 0.541985 0
0.949752 0.526955 0
0.981826 0.507362 0
1 0.481621 0
1 0.449058 0.0335851
0 0.641794 0
0 0.641764 0
0 0.641657 0
0 0.641474 0
0 0.64123 0
0 0.640909 0
0 0.640513 0
0 0.640055 0
0 0.639521 0
0 0.638926 0
0.0981613 0.638254 0
0.193011 0.637522 0
0.259739 0.636713 0
0.316655 0.635843 0
0.368322 0.634897 0
0.416693 0.63389 0
0.462776 0.632807 0
0.509575 0.631601 0
0.554818 0.630152 0
0.596994 0.628443 0
0.636866 0.626398 0
0.674983 0.623957 0
0.711772 0.621027 0
0.747478 0.617533 0
0.78233 0.613306 0
0.81651 0.608209 0
0.850141 0.602014 0
0.883314 0.594415 0
0.916121 0.585016 0
0.948653 0.573236 0
0.980926 0.558221 0
1 0.538643 0
1 0.512291 0.00444038
0 0.672618 0
0 0.672587 0
0 0.672496 0
0 0.672358 0
0 0.672145 0
0 0.67187 0
0 0.67155 0
0 0.671153 0
0 0.67071 0
0 0.670207 0
0 0.669642 0
0.133516 0.669017 0
0.219242 0.66833 0
0.284443 0.667597 0
0.341085 0.666804 0
0.392874 0.665965 0
0.44152 0.665049 0
0.490578 0.664027 0
0.5402 0.662821 0
0.585595 0.661372 0
0.627863 0.659663 0
0.667811 0.657603 0
0.705989 0.655161 0
0.742809 0.652247 0
0.778561 0.648737 0
0.813443 0.644526 0
0.847639 0.639429 0
0.881285 0.633234 0
0.914473 0.62565 0
0.947295 0.616251 0
0.979828 0.604486 0
1 0.589487 0
1 0.569924 0
0 0.703517 0
0 0.703487 0
0 0.70341 0
0 0.703288 0
0 0.703105 0
0 0.702876 0
0 0.702602 0
0 0.702281 0
0 0.7019 0
0 0.701473 0
0 0.700999 0
0 0.700481 0
0.157931 0.699901 0
0.240436 0.69929 0
0.305409 0.698619 0
0.362402 0.697902 0
0.414694 0.697139 0
0.466651 0.696269 0
0.520958 0.695262 0
0.570916 0.694041 0
0.616434 0.692592 0
0.658793 0.690883 0
0.698802 0.688823 0
0.737041 0.686381 0
0.773892 0.683467 0
0.809659 0.679957 0
0.844572 0.675746 0
0.878782 0.670665 0
0.912444 0.664469 0
0.945647 0.656886 0
0.978485 0.647501 0
1 0.635737 0
1 0.620752 0
0 0.734462 0
0 0.734447 0
0 0.734386 0
0 0.734279 0
0 0.734127 0
0 0.733928 0
0 0.7337 0
0 0.733425 0
0 0.733104 0
0 0.732754 0
0 0.732341 0
0 0.731914 0
0 0.731426 0
0.173968 0.730907 0
0.256443 0.730343 0
0.322271 0.729732 0
0.380194 0.729091 0
0.436332 0.728374 0
0.494911 0.727504 0
0.551598 0.726482 0
0.601709 0.725261 0
0.647334 0.723827 0
0.689769 0.722103 0
0.729839 0.720058 0
0.768109 0.717601 0
0.805005 0.714687 0
0.840803 0.711192 0
0.875715 0.706981 0
0.909957 0.7019 0
0.943618 0.695705 0
0.976837 0.688121 0
1 0.678752 0
1 0.666987 0
0 0.765469 0
0 0.765438 0
0 0.765393 0
0 0.765301 0
0 0.765179 0
0 0.765011 0
0 0.764813 0
0 0.764584 0
0 0.764324 0
0 0.764019 0
0 0.763684 0
0 0.763302 0
0 0.762905 0
0 0.762463 0
0.181537 0.76199 0
0.266621 0.761486 0
0.334386 0.760937 0
0.397131 0.760327 0
0.460792 0.759594 0
0.525414 0.75874 0
0.582345 0.757717 0
0.632578 0.756497 0
0.678294 0.755047 0
0.72079 0.753323 0
0.760906 0.751278 0
0.799222 0.748837 0
0.836133 0.745922 0
0.871946 0.742412 0
0.906889 0.738216 0
0.941131 0.73312 0
0.974807 0.72694 0
1 0.719371 0
1 0.709987 0
0 0.796506 0
0 0.79649 0
0 0.796445 0
0 0.796368 0
0 0.796262 0
0 0.796124 0
0 0.795956 0
0 0.795758 0
0 0.795544 0
0 0.795285 0
0 0.794995 0
0 0.79469 0
0 0.794339 0
0 0.793973 0
0 0.793576 0
0.178927 0.793149 0
0.26978 0.792691 0
0.344579 0.792172 0
0.416419 0.791562 0
0.488319 0.790845 0
0.556069 0.789975 0
0.613169 0.788952 0
0.663523 0.787732 0
0.7093 0.786282 0
0.751842 0.784558 0
0.792004 0.782513 0
0.83035 0.780072 0
0.867277 0.777157 0
0.903105 0.773648 0
0.938064 0.769451 0
0.97232 0.76437 0
1 0.75819 0
1 0.750607 0
0 0.827573 0
0 0.827558 0
0 0.827527 0
0 0.827451 0
0 0.827375 0
0 0.827253 0
0 0.827115 0
0 0.826947 0
0 0.826764 0
0 0.826551 0
0 0.826307 0
0 0.826047 0
0 0.825757 0
0 0.825452 0
0 0.825116 0
0 0.82475 0
0.161975 0.824369 0
0.268742 0.823926 0
0.356313 0.823423 0
0.43827 0.822797 0
0.518563 0.82208 0
0.586816 0.82121 0
0.644068 0.820188 0
0.694499 0.818967 0
0.740353 0.817517 0
0.78294 0.815793 0
0.823133 0.813748 0
0.861494 0.811307 0
0.898451 0.808392 0
0.934295 0.804883 0
0.969253 0.800687 0
1 0.795605 0
1 0.789425 0
0 0.858671 0
0 0.858656 0
0 0.858625 0
0 0.858579 0
0 0.858503 0
0 0.858412 0
0 0.858289 0
0 0.858152 0
0 0.858 0
