proprietary/odm/etc/camera/filters_lut/bt2020_to_p3_3dlut.cube
#Created by : Dolby Laboratories
#Copyright: (C) Copyright 2022 Dolby Laboratories
#is_rgb_input 1
#is_rgb_output 1
#input_offset 0.000000
#shape_order 1.000000
#format 6
# MaxLuma:1000.00 MinLuma:0.00010 Eotf=Gamma
#LUT Size
LUT_3D_SIZE 5
#data domain
DOMAIN_MIN 0 0 0
DOMAIN_MAX 1.0 1.0 1.0
#LUT data points
0 0 0
0.285893 0 0.0131075
0.564004 0 0.0261997
0.802075 0 0.0467231
1 0 0.0907759
0 0.26006 0
0.257053 0.250813 0
0.554391 0.223957 0
0.799863 0.122454 0.0315557
1 0 0.0840162
0 0.519448 0
0.116014 0.514961 0
0.513771 0.501625 0
0.791623 0.462852 0
1 0.267369 0.0590677
0 0.765469 0
0 0.764324 0
0.334386 0.760937 0
0.760906 0.751278 0
1 0.709987 0
0 1 0
0 1 0
0 1 0
0.471183 1 0
1 1 0
0 0 0.26215
0.281392 0 0.250919
0.562341 0 0.250599
0.801648 0 0.253223
1 0 0.26479
0 0.259419 0.25098
0.249989 0.249989 0.249989
0.552132 0.222782 0.249485
0.799374 0.119875 0.251469
1 0 0.26273
0 0.519173 0.243046
0.0981003 0.514641 0.243015
0.510445 0.501228 0.243259
0.791012 0.462303 0.245243
1 0.266209 0.256306
0 0.765393 0.219715
0 0.764248 0.219989
0.328649 0.760861 0.22089
0.760082 0.751186 0.223667
1 0.709834 0.235874
0 1 0.0691081
0 1 0.0703746
0 1 0.0740215
0.467109 1 0.0837262
1 1 0.114733
0 0 0.523323
0.263905 0 0.508003
0.55671 0 0.501854
0.800305 0 0.500923
1 0 0.505928
0 0.256992 0.50837
0.226886 0.247227 0.505531
0.544945 0.219089 0.502144
0.797848 0.111727 0.500755
1 0 0.505135
0 0.518242 0.501976
0 0.513634 0.501305
0.499992 0.499992 0.499992
0.789151 0.460655 0.498939
1 0.262669 0.502525
0 0.765164 0.490333
0 0.764019 0.490242
0.31078 0.760616 0.490059
0.757565 0.750881 0.49012
1 0.709346 0.493706
0 1 0.443442
0 1 0.44358
0 1 0.443992
0.454658 1 0.445228
1 1 0.450706
0 0 0.768582
0.191699 0 0.761944
0.535912 0 0.755261
0.795987 0 0.751461
1 0 0.750896
0 0.247608 0.76083
0.134249 0.2374 0.758465
0.5205 0.207187 0.754788
0.793088 0.0832074 0.751644
1 0 0.750851
0 0.515023 0.75584
0 0.510246 0.755169
0.467048 0.496056 0.753674
0.783475 0.45568 0.751629
1 0.252094 0.750591
0 0.764492 0.751553
0 0.763317 0.751369
0.251392 0.759869 0.750896
0.749996 0.749996 0.749996
1 0.707927 0.749187
0 1 0.739834
0 1 0.739834
0 1 0.739803
0.416297 1 0.739757
1 1 0.740047
0 0 1
0 0 1
0.39791 0 1
0.773342 0 1
1 0 1
0 0.195041 1
0 0.182849 1
0.372946 0.142 1
0.769268 0 1
1 0 1
0 0.496941 1
0 0.491753 1
0.288685 0.476585 1
0.756664 0.433188 1
1 0.202945 1
0 0.76112 1
0 0.759899 1
0 0.756298 1
0.714778 0.745968 1
1 0.701885 1
0 1 1
0 1 1
0 1 1
0.193668 1 1
1 1 1
