proprietary/odm/etc/camera/filters_lut/bt2020_hlg_to_p3_srgb_3dlut_light.cube
TITLE "Generated by Resolve"
LUT_3D_SIZE 5
#LUT data points
0 0 0
0.255436 0 0
0.562371 0 1.5259e-05
0.878264 0 9.15541e-05
1 0 0.000366217
0 0.215946 0
0.213672 0.205509 0
0.545052 0.149355 0
0.870512 0.00996414 1.5259e-05
1 0 0.000244144
0 0.49366 0
0.0168002 0.489174 0
0.489708 0.475517 0
0.84683 0.347143 0
1 0.0584115 4.57771e-05
0 0.779477 0
0 0.777462 0
0.216083 0.771374 0
0.773816 0.753399 0
1 0.426841 0
0 1 0
0 1 0
0 1 0
0.199405 1 0
1 1 0
0 0 0.206531
0.246799 0 0.206989
0.558648 0 0.183459
0.876585 0 0.136614
1 0 0.0570077
0 0.214298 0.203342
0.2038 0.2038 0.2038
0.537575 0.176715 0.204929
0.862547 0.121386 0.206867
1 0.0216526 0.209369
0 0.492943 0.169665
0.0569314 0.487572 0.195941
0.484749 0.474647 0.197086
0.839994 0.379339 0.201404
1 0.210437 0.206912
0 0.779156 0.0973831
0 0.775586 0.181613
0.264836 0.769833 0.182467
0.770642 0.752834 0.184924
1 0.476631 0.199664
0 1 9.15541e-05
0 1 0.161837
0 1 0.162249
0.294804 1 0.163455
1 1 0.168276
0 0 0.477287
0.193759 0 0.477485
0.547326 0 0.47808
0.871519 0 0.386633
1 0 0.228046
0 0.184329 0.475898
0.178408 0.199619 0.475898
0.526513 0.172107 0.476463
0.857694 0.117342 0.413687
1 0.0196384 0.316762
0 0.490776 0.471733
0.0134279 0.485512 0.471962
0.472541 0.472541 0.472541
0.823178 0.448966 0.473533
1 0.416571 0.474815
0 0.77818 0.369223
0 0.77467 0.399481
0.361151 0.766079 0.465568
0.76289 0.751492 0.46659
1 0.580941 0.471672
0 1 0.179751
0 1 0.283253
0.143603 1 0.456382
0.459419 1 0.456855
1 1 0.458747
0 0 0.755947
0.0638895 0 0.756039
0.415091 0 0.756298
0.856641 0 0.757092
1 0 0.486168
0 0.122225 0.755322
0.127138 0.192142 0.755062
0.425681 0.172503 0.755306
0.843412 0.10515 0.756054
1 0.0144045 0.527733
0 0.390616 0.753445
0.00476081 0.414816 0.753292
0.450401 0.468818 0.752911
0.810452 0.445075 0.753536
1 0.414679 0.617548
0 0.775357 0.747967
0 0.771984 0.748119
0.332769 0.76376 0.748486
0.749111 0.749111 0.749111
1 0.729656 0.74995
0 1 0.461662
0 1 0.506859
0.118074 1 0.603265
0.66096 1 0.743328
1 1 0.744167
0 0 1
0 0 1
0.143221 0 1
0.509514 0 1
1 0 1
0 0.0115358 1
0.035935 0.182116 1
0.248875 0.173022 1
0.543297 0.144671 1
1 0.00204471 1
0 0.210864 1
0.000259403 0.302861 1
0.420096 0.463951 1
0.617884 0.453178 1
1 0.406943 1
0 0.48864 1
0 0.529015 1
0.366705 0.616526 1
0.730846 0.746029 1
1 0.726482 1
0 1 0.99852
0 1 0.998642
0.0016022 1 0.998917
0.640177 1 0.99939
1 1 1
