proprietary/odm/etc/camera/filters_lut/bt709_srgb_to_p3_srgb_3dlut_light.cube
TITLE "Generated by Resolve"
LUT_3D_SIZE 5
#LUT data points
0 0 0
0.215518 0.000518807 0.000106813
0.444465 0.00663767 0.00134279
0.673426 0.0370336 0.00749218
0.902373 0.0910048 0.0273594
0.0292515 0.243809 0.00340276
0.249989 0.249989 0.00564584
0.464408 0.261311 0.0118105
0.687022 0.278676 0.027512
0.91252 0.301656 0.0579995
0.143496 0.490043 0.0428779
0.306752 0.493523 0.0501717
0.499992 0.499992 0.0631113
0.71194 0.51017 0.082063
0.931334 0.524117 0.105898
0.258335 0.736278 0.119585
0.382986 0.738628 0.124559
0.552377 0.743023 0.133654
0.749996 0.749996 0.147494
0.96054 0.759655 0.165698
0.37319 0.982513 0.196292
0.471763 0.984268 0.2
0.618708 0.987533 0.206882
0.800275 0.992752 0.217533
1 1 0.231876
0 0 0.233082
0.215518 0.000518807 0.236378
0.444465 0.00663767 0.242496
0.673426 0.0370336 0.252033
0.902373 0.0910048 0.264973
0.0292515 0.243809 0.24683
0.249989 0.249989 0.249989
0.464408 0.261311 0.255863
0.687022 0.278676 0.265049
0.91252 0.301656 0.277516
0.143496 0.490043 0.27129
0.306752 0.493523 0.274235
0.499992 0.499992 0.279713
0.71194 0.51017 0.288304
0.931334 0.524117 0.300008
0.258335 0.736278 0.307164
0.382986 0.738628 0.309834
0.552377 0.743023 0.314809
0.749996 0.749996 0.322652
0.96054 0.759655 0.333364
0.37319 0.982513 0.352377
0.471763 0.984268 0.354772
0.618708 0.987533 0.359243
0.800275 0.992752 0.366262
1 1 0.375937
0 0 0.472755
0.215518 0.000518807 0.474601
0.444465 0.00663767 0.478065
0.673426 0.0370336 0.483543
0.902373 0.0910048 0.491127
0.0292515 0.243809 0.480537
0.249989 0.249989 0.482353
0.464408 0.261311 0.485771
0.687022 0.278676 0.491173
0.91252 0.301656 0.49865
0.143496 0.490043 0.494896
0.306752 0.493523 0.496666
0.499992 0.499992 0.499992
0.71194 0.51017 0.505257
0.931334 0.524117 0.512535
0.258335 0.736278 0.517052
0.382986 0.738628 0.518761
0.552377 0.743023 0.52195
0.749996 0.749996 0.527001
0.96054 0.759655 0.53402
0.37319 0.982513 0.5467
0.471763 0.984268 0.548302
0.618708 0.987533 0.551339
0.800275 0.992752 0.556146
1 1 0.562814
0 0 0.712428
0.215518 0.000518807 0.71368
0.444465 0.00663767 0.71603
0.673426 0.0370336 0.719753
0.902373 0.0910048 0.724956
0.0292515 0.243809 0.717708
0.249989 0.249989 0.718944
0.464408 0.261311 0.721279
0.687022 0.278676 0.724971
0.91252 0.301656 0.730129
0.143496 0.490043 0.727535
0.306752 0.493523 0.728771
0.499992 0.499992 0.73106
0.71194 0.51017 0.734722
0.931334 0.524117 0.739803
0.258335 0.736278 0.742977
0.382986 0.738628 0.744167
0.552377 0.743023 0.746426
0.749996 0.749996 0.749996
0.96054 0.759655 0.754986
0.37319 0.982513 0.764065
0.471763 0.984268 0.76524
0.618708 0.987533 0.767422
0.800275 0.992752 0.770901
1 1 0.775753
0 0 0.952102
0.215518 0.000518807 0.953033
0.444465 0.00663767 0.954787
0.673426 0.0370336 0.957565
0.902373 0.0910048 0.96144
0.0292515 0.243809 0.956039
0.249989 0.249989 0.956954
0.464408 0.261311 0.958694
0.687022 0.278676 0.961471
0.91252 0.301656 0.965331
0.143496 0.490043 0.963394
0.306752 0.493523 0.964309
0.499992 0.499992 0.966033
0.71194 0.51017 0.96878
0.931334 0.524117 0.97261
0.258335 0.736278 0.975006
0.382986 0.738628 0.975906
0.552377 0.743023 0.977615
0.749996 0.749996 0.980331
0.96054 0.759655 0.984115
0.37319 0.982513 0.991043
0.471763 0.984268 0.991928
0.618708 0.987533 0.993606
0.800275 0.992752 0.996277
1 1 1
