proprietary/odm/etc/camera/filters_lut/bt709_srgb_to_bt2020_hlg_3dlut_light.cube
TITLE "Generated by Resolve"
LUT_3D_SIZE 5
#LUT data points
0 0 0
0.22208 0.0737011 0.0358892
0.377127 0.125154 0.0609598
0.536538 0.178882 0.087129
0.655741 0.234287 0.114107
0.160876 0.268849 0.0831769
0.27422 0.278767 0.0905928
0.41001 0.296544 0.10312
0.556481 0.322911 0.120455
0.666255 0.356603 0.141207
0.273213 0.45655 0.141253
0.352071 0.46247 0.145739
0.46569 0.473396 0.153841
0.588907 0.490349 0.165957
0.684535 0.512856 0.181582
0.390494 0.622446 0.201877
0.44921 0.625162 0.205051
0.539895 0.630167 0.21088
0.630915 0.637888 0.219883
0.710323 0.648173 0.231907
0.511223 0.733333 0.264424
0.552407 0.734798 0.26685
0.610986 0.73753 0.271351
0.676921 0.741802 0.278401
0.741161 0.747631 0.287984
0.0583505 0.0298924 0.265324
0.229603 0.07953 0.267735
0.381613 0.128664 0.272236
0.539284 0.181353 0.279255
0.65716 0.236179 0.288823
0.17113 0.270497 0.27805
0.280369 0.280369 0.280369
0.41413 0.298054 0.284657
0.558938 0.3243 0.291386
0.667597 0.357855 0.300557
0.279377 0.457542 0.300572
0.356878 0.463432 0.302708
0.469322 0.474342 0.306691
0.590967 0.491264 0.312947
0.685756 0.513695 0.321508
0.394827 0.622889 0.333394
0.452995 0.625605 0.335317
0.542611 0.630594 0.338918
0.632532 0.6383 0.344594
0.711376 0.648569 0.352377
0.514397 0.733577 0.374578
0.554925 0.735042 0.376303
0.612802 0.737758 0.379507
0.678187 0.742031 0.384588
0.742046 0.74786 0.391577
0.0990921 0.0507515 0.450568
0.243183 0.0894789 0.452003
0.389929 0.135058 0.454673
0.544366 0.185931 0.458915
0.6598 0.239719 0.464805
0.188952 0.273594 0.458183
0.291585 0.283345 0.459586
0.421805 0.300862 0.462226
0.5635 0.326879 0.466392
0.6701 0.360204 0.472175
0.290623 0.459373 0.47219
0.365759 0.465248 0.473564
0.476112 0.476112 0.476112
0.594781 0.492973 0.480171
0.687999 0.515236 0.485786
0.402869 0.623728 0.493736
0.460014 0.626429 0.495033
0.547585 0.631403 0.497475
0.635569 0.639078 0.50135
0.713329 0.649302 0.506661
0.520211 0.73402 0.521584
0.559579 0.735485 0.522713
0.61619 0.738216 0.524834
0.680537 0.742473 0.528176
0.743694 0.748272 0.532769
0.141619 0.0725414 0.616754
0.263386 0.10341 0.617426
0.402838 0.144656 0.618677
0.552178 0.193027 0.620661
0.663951 0.245258 0.623407
0.214328 0.278462 0.620325
0.308629 0.288045 0.620981
0.433783 0.305287 0.622217
0.570535 0.330968 0.624155
0.674006 0.363912 0.626841
0.307729 0.462287 0.626856
0.379492 0.468116 0.627482
0.486748 0.47892 0.628672
0.600702 0.495689 0.630549
0.691554 0.517693 0.633143
0.415381 0.625071 0.636805
0.471015 0.627756 0.6374
0.555261 0.632685 0.638529
0.640299 0.640299 0.640299
0.716411 0.650462 0.642771
0.529137 0.734752 0.649882
0.566781 0.736202 0.650446
0.621454 0.738918 0.651484
0.68423 0.74316 0.653132
0.746288 0.748943 0.655436
0.185489 0.0950027 0.728099
0.289357 0.120241 0.72845
0.420279 0.157122 0.729137
0.562585 0.202548 0.730205
0.669596 0.252811 0.731701
0.245548 0.285145 0.730022
0.331075 0.294514 0.730373
0.450019 0.311391 0.731044
0.57995 0.336599 0.732097
0.679347 0.369039 0.733577
0.33022 0.466331 0.733577
0.397955 0.472129 0.733928
0.501274 0.482841 0.734585
0.608698 0.499474 0.735622
0.696391 0.521065 0.737072
0.432303 0.626932 0.739132
0.486015 0.629587 0.739467
0.565499 0.63447 0.740108
0.646738 0.642008 0.741115
0.720638 0.652079 0.742519
0.540932 0.735759 0.746624
0.576394 0.737209 0.74696
0.62858 0.73991 0.747555
0.689281 0.744121 0.748531
0.749874 0.749874 0.749874
