proprietary/odm/etc/camera/filters_lut/bt709_srgb_to_p3_srgb_3dlut_light.cube
TITLE "Generated by Resolve"
LUT_3D_SIZE 9
#LUT data points
0 0 0
0.101045 7.62951e-05 1.5259e-05
0.215518 0.000518807 0.000106813
0.329992 0.00216678 0.000442512
0.444465 0.00663767 0.00134279
0.558953 0.0167697 0.00340276
0.673426 0.0370336 0.00749218
0.7879 0.0640116 0.0148928
0.902373 0.0910048 0.0273594
0.00419623 0.120699 0.000488289
0.124987 0.124987 0.000808728
0.231312 0.13022 0.00135805
0.341527 0.137652 0.00244144
0.453437 0.147204 0.00451667
0.566232 0.158755 0.00823987
0.679515 0.172137 0.0145876
0.793103 0.187167 0.024979
0.906905 0.203662 0.0411536
0.0292515 0.243809 0.00340276
0.151766 0.246571 0.0043183
0.249989 0.249989 0.00564584
0.355474 0.254887 0.00796521
0.464408 0.261311 0.0118105
0.575174 0.269261 0.0179599
0.687022 0.278676 0.027512
0.799542 0.289494 0.041825
0.91252 0.301656 0.0579995
0.0860761 0.366934 0.0140688
0.186343 0.368933 0.0161135
0.275441 0.371405 0.0188907
0.37499 0.37499 0.0234073
0.479957 0.379721 0.0303044
0.587976 0.385611 0.0404822
0.69781 0.39266 0.0525063
0.808835 0.40087 0.0657359
0.920638 0.410208 0.0799725
0.143496 0.490043 0.0428779
0.226719 0.4916 0.0461585
0.306752 0.493523 0.0501717
0.39971 0.4963 0.0558328
0.499992 0.499992 0.0631113
0.604608 0.504616 0.0719005
0.71194 0.51017 0.082063
0.821027 0.51667 0.0934462
0.931334 0.524117 0.105898
0.200916 0.613169 0.081239
0.271244 0.61442 0.0838941
0.342916 0.615976 0.0871748
0.429099 0.618235 0.0918441
0.524239 0.621225 0.0979019
0.624994 0.624994 0.105303
0.729366 0.629541 0.113985
0.836149 0.634867 0.123827
0.94464 0.641001 0.134737
0.258335 0.736278 0.119585
0.318746 0.737331 0.121813
0.382986 0.738628 0.124559
0.462562 0.74052 0.128496
0.552377 0.743023 0.133654
0.64892 0.746181 0.140002
0.749996 0.749996 0.147494
0.85417 0.754482 0.156085
0.96054 0.759655 0.165698
0.31577 0.859403 0.157931
0.368399 0.860288 0.159838
0.426154 0.861402 0.162203
0.499519 0.86302 0.165591
0.583993 0.865171 0.170047
0.676173 0.867872 0.175555
0.773693 0.871138 0.182116
0.874998 0.874998 0.189685
0.979019 0.879438 0.198215
0.37319 0.982513 0.196292
0.419608 0.983291 0.197955
0.471763 0.984268 0.2
0.539422 0.985672 0.202976
0.618708 0.987533 0.206882
0.706447 0.989899 0.211734
0.800275 0.992752 0.217533
0.898512 0.996109 0.224247
1 1 0.231876
0 0 0.113237
0.101045 7.62951e-05 0.115526
0.215518 0.000518807 0.118349
0.329992 0.00216678 0.122393
0.444465 0.00663767 0.127687
0.558953 0.0167697 0.134188
0.673426 0.0370336 0.141863
0.7879 0.0640116 0.150637
0.902373 0.0910048 0.160449
0.00419623 0.120699 0.122789
0.124987 0.124987 0.124987
0.231312 0.13022 0.127703
0.341527 0.137652 0.131594
0.453437 0.147204 0.136675
0.566232 0.158755 0.142947
0.679515 0.172137 0.150347
0.793103 0.187167 0.158846
0.906905 0.203662 0.168368
0.0292515 0.243809 0.134173
0.151766 0.246571 0.136263
0.249989 0.249989 0.138857
0.355474 0.254887 0.142565
0.464408 0.261311 0.147433
0.575174 0.269261 0.153445
0.687022 0.278676 0.160555
0.799542 0.289494 0.168734
0.91252 0.301656 0.177905
0.0860761 0.366934 0.149828
0.186343 0.368933 0.151797
0.275441 0.371405 0.154238
0.37499 0.37499 0.157733
0.479957 0.379721 0.16231
0.587976 0.385611 0.167987
0.69781 0.39266 0.174731
0.808835 0.40087 0.182498
0.920638 0.410208 0.191241
0.143496 0.490043 0.169314
0.226719 0.4916 0.17113
0.306752 0.493523 0.173388
0.39971 0.4963 0.176654
0.499992 0.499992 0.180926
0.604608 0.504616 0.186236
0.71194 0.51017 0.192538
0.821027 0.51667 0.199847
0.931334 0.524117 0.208087
0.200916 0.613169 0.19202
0.271244 0.61442 0.193698
0.342916 0.615976 0.195789
0.429099 0.618235 0.198795
0.524239 0.621225 0.202762
0.624994 0.624994 0.207675
0.729366 0.629541 0.21355
0.836149 0.634867 0.220371
0.94464 0.641001 0.228077
0.258335 0.736278 0.217411
0.318746 0.737331 0.218967
0.382986 0.738628 0.220874
0.462562 0.74052 0.223651
0.552377 0.743023 0.227298
0.64892 0.746181 0.231846
0.749996 0.749996 0.237293
0.85417 0.754482 0.24361
0.96054 0.759655 0.250797
0.31577 0.859403 0.244999
0.368399 0.860288 0.246403
0.426154 0.861402 0.248173
0.499519 0.86302 0.250721
0.583993 0.865171 0.254078
0.676173 0.867872 0.258274
0.773693 0.871138 0.26331
0.874998 0.874998 0.269169
0.979019 0.879438 0.275837
0.37319 0.982513 0.274327
0.419608 0.983291 0.275624
0.471763 0.984268 0.277241
0.539422 0.985672 0.279591
0.618708 0.987533 0.282689
0.706447 0.989899 0.286549
0.800275 0.992752 0.291203
0.898512 0.996109 0.29662
1 1 0.302815
0 0 0.233082
0.101045 7.62951e-05 0.234546
0.215518 0.000518807 0.236378
0.329992 0.00216678 0.239017
0.444465 0.00663767 0.242496
0.558953 0.0167697 0.24683
0.673426 0.0370336 0.252033
0.7879 0.0640116 0.258091
0.902373 0.0910048 0.264973
0.00419623 0.120699 0.239261
0.124987 0.124987 0.240711
0.231312 0.13022 0.242496
0.341527 0.137652 0.24509
0.453437 0.147204 0.248508
0.566232 0.158755 0.252781
0.679515 0.172137 0.257893
0.793103 0.187167 0.263844
0.906905 0.203662 0.270604
0.0292515 0.243809 0.24683
0.151766 0.246571 0.248234
0.249989 0.249989 0.249989
0.355474 0.254887 0.252522
0.464408 0.261311 0.255863
0.575174 0.269261 0.260044
0.687022 0.278676 0.265049
0.799542 0.289494 0.270878
0.91252 0.301656 0.277516
0.0860761 0.366934 0.257527
0.186343 0.368933 0.2589
0.275441 0.371405 0.260594
0.37499 0.37499 0.26305
0.479957 0.379721 0.2663
0.587976 0.385611 0.270344
0.69781 0.39266 0.275196
0.808835 0.40087 0.280873
0.920638 0.410208 0.287327
0.143496 0.490043 0.27129
0.226719 0.4916 0.272602
0.306752 0.493523 0.274235
0.39971 0.4963 0.2766
0.499992 0.499992 0.279713
0.604608 0.504616 0.283619
0.71194 0.51017 0.288304
0.821027 0.51667 0.293767
0.931334 0.524117 0.300008
0.200916 0.613169 0.287922
0.271244 0.61442 0.289174
0.342916 0.615976 0.29073
0.429099 0.618235 0.292988
0.524239 0.621225 0.295979
0.624994 0.624994 0.299702
0.729366 0.629541 0.304189
0.836149 0.634867 0.309438
0.94464 0.641001 0.315419
0.258335 0.736278 0.307164
0.318746 0.737331 0.308354
0.382986 0.738628 0.309834
0.462562 0.74052 0.311971
0.552377 0.743023 0.314809
0.64892 0.746181 0.318364
0.749996 0.749996 0.322652
0.85417 0.754482 0.327642
0.96054 0.759655 0.333364
0.31577 0.859403 0.32874
0.368399 0.860288 0.32987
0.426154 0.861402 0.331273
0.499519 0.86302 0.333303
0.583993 0.865171 0.335988
0.676173 0.867872 0.339361
0.773693 0.871138 0.34342
0.874998 0.874998 0.34818
0.979019 0.879438 0.353613
0.37319 0.982513 0.352377
0.419608 0.983291 0.353445
0.471763 0.984268 0.354772
0.539422 0.985672 0.356695
0.618708 0.987533 0.359243
0.706447 0.989899 0.362417
0.800275 0.992752 0.366262
0.898512 0.996109 0.370764
1 1 0.375937
0 0 0.352911
0.101045 7.62951e-05 0.353979
0.215518 0.000518807 0.355306
0.329992 0.00216678 0.357214
0.444465 0.00663767 0.359762
0.558953 0.0167697 0.362951
0.673426 0.0370336 0.366781
0.7879 0.0640116 0.371283
0.902373 0.0910048 0.37644
0.00419623 0.120699 0.357412
0.124987 0.124987 0.35845
0.231312 0.13022 0.359762
0.341527 0.137652 0.361669
0.453437 0.147204 0.364172
0.566232 0.158755 0.36733
0.679515 0.172137 0.37113
0.793103 0.187167 0.375586
0.906905 0.203662 0.380682
0.0292515 0.243809 0.362936
0.151766 0.246571 0.363973
0.249989 0.249989 0.36527
0.355474 0.254887 0.367147
0.464408 0.261311 0.369619
0.575174 0.269261 0.372732
0.687022 0.278676 0.376486
0.799542 0.289494 0.38088
0.91252 0.301656 0.385931
0.0860761 0.366934 0.370855
0.186343 0.368933 0.371878
0.275441 0.371405 0.373144
0.37499 0.37499 0.37499
0.479957 0.379721 0.377432
0.587976 0.385611 0.380484
0.69781 0.39266 0.384176
0.808835 0.40087 0.388495
0.920638 0.410208 0.393454
0.143496 0.490043 0.381201
0.226719 0.4916 0.382193
0.306752 0.493523 0.383444
0.39971 0.4963 0.385229
0.499992 0.499992 0.387625
0.604608 0.504616 0.3906
0.71194 0.51017 0.394217
0.821027 0.51667 0.398444
0.931334 0.524117 0.403296
0.200916 0.613169 0.393912
0.271244 0.61442 0.394873
0.342916 0.615976 0.396078
0.429099 0.618235 0.397833
0.524239 0.621225 0.400153
0.624994 0.624994 0.403052
0.729366 0.629541 0.406561
0.836149 0.634867 0.410681
0.94464 0.641001 0.415412
0.258335 0.736278 0.408896
0.318746 0.737331 0.409827
0.382986 0.738628 0.411002
0.462562 0.74052 0.41268
0.552377 0.743023 0.414939
0.64892 0.746181 0.417746
0.749996 0.749996 0.421149
0.85417 0.754482 0.425147
0.96054 0.759655 0.429725
0.31577 0.859403 0.426017
0.368399 0.860288 0.426917
0.426154 0.861402 0.428046
0.499519 0.86302 0.429679
0.583993 0.865171 0.431846
0.676173 0.867872 0.434562
0.773693 0.871138 0.437842
0.874998 0.874998 0.441703
0.979019 0.879438 0.446143
0.37319 0.982513 0.445136
0.419608 0.983291 0.446006
0.471763 0.984268 0.447074
0.539422 0.985672 0.448646
0.618708 0.987533 0.450736
0.706447 0.989899 0.453346
0.800275 0.992752 0.456519
0.898512 0.996109 0.460227
1 1 0.4645
0 0 0.472755
0.101045 7.62951e-05 0.473579
0.215518 0.000518807 0.474601
0.329992 0.00216678 0.476081
0.444465 0.00663767 0.478065
0.558953 0.0167697 0.480552
0.673426 0.0370336 0.483543
0.7879 0.0640116 0.487068
0.902373 0.0910048 0.491127
0.00419623 0.120699 0.476234
0.124987 0.124987 0.477058
0.231312 0.13022 0.478065
0.341527 0.137652 0.479545
0.453437 0.147204 0.481514
0.566232 0.158755 0.48397
0.679515 0.172137 0.486946
0.793103 0.187167 0.490455
0.906905 0.203662 0.494499
0.0292515 0.243809 0.480537
0.151766 0.246571 0.481346
0.249989 0.249989 0.482353
0.355474 0.254887 0.483818
0.464408 0.261311 0.485771
0.575174 0.269261 0.488212
0.687022 0.278676 0.491173
0.799542 0.289494 0.494652
0.91252 0.301656 0.49865
0.0860761 0.366934 0.486748
0.186343 0.368933 0.487541
0.275441 0.371405 0.488548
0.37499 0.37499 0.489998
0.479957 0.379721 0.49192
0.587976 0.385611 0.494331
0.69781 0.39266 0.497261
0.808835 0.40087 0.500694
0.920638 0.410208 0.504646
0.143496 0.490043 0.494896
0.226719 0.4916 0.495689
0.306752 0.493523 0.496666
0.39971 0.4963 0.4981
0.499992 0.499992 0.499992
0.604608 0.504616 0.502373
0.71194 0.51017 0.505257
0.821027 0.51667 0.508644
0.931334 0.524117 0.512535
0.200916 0.613169 0.505013
0.271244 0.61442 0.505791
0.342916 0.615976 0.506752
0.429099 0.618235 0.508156
0.524239 0.621225 0.510018
0.624994 0.624994 0.512352
0.729366 0.629541 0.515175
0.836149 0.634867 0.518502
0.94464 0.641001 0.522332
0.258335 0.736278 0.517052
0.318746 0.737331 0.517815
0.382986 0.738628 0.518761
0.462562 0.74052 0.520134
0.552377 0.743023 0.52195
0.64892 0.746181 0.524239
0.749996 0.749996 0.527001
0.85417 0.754482 0.530266
0.96054 0.759655 0.53402
0.31577 0.859403 0.530968
0.368399 0.860288 0.531716
0.426154 0.861402 0.532631
0.499519 0.86302 0.533974
0.583993 0.865171 0.535744
0.676173 0.867872 0.537987
0.773693 0.871138 0.540688
0.874998 0.874998 0.543862
0.979019 0.879438 0.547524
0.37319 0.982513 0.5467
0.419608 0.983291 0.547417
0.471763 0.984268 0.548302
0.539422 0.985672 0.549615
0.618708 0.987533 0.551339
0.706447 0.989899 0.553506
0.800275 0.992752 0.556146
0.898512 0.996109 0.559243
1 1 0.562814
0 0 0.592599
0.101045 7.62951e-05 0.593256
0.215518 0.000518807 0.594095
0.329992 0.00216678 0.5953
0.444465 0.00663767 0.596887
0.558953 0.0167697 0.598917
0.673426 0.0370336 0.601343
0.7879 0.0640116 0.604227
0.902373 0.0910048 0.607538
0.00419623 0.120699 0.595407
0.124987 0.124987 0.596078
0.231312 0.13022 0.596902
0.341527 0.137652 0.598093
0.453437 0.147204 0.599695
0.566232 0.158755 0.601694
0.679515 0.172137 0.60412
0.793103 0.187167 0.606989
0.906905 0.203662 0.610285
0.0292515 0.243809 0.598901
0.151766 0.246571 0.599557
0.249989 0.249989 0.600381
0.355474 0.254887 0.601572
0.464408 0.261311 0.603159
0.575174 0.269261 0.605158
0.687022 0.278676 0.607569
0.799542 0.289494 0.610422
0.91252 0.301656 0.613703
0.0860761 0.366934 0.603952
0.186343 0.368933 0.604608
0.275441 0.371405 0.605417
0.37499 0.37499 0.606607
0.479957 0.379721 0.608179
0.587976 0.385611 0.610162
0.69781 0.39266 0.612558
0.808835 0.40087 0.615381
0.920638 0.410208 0.618631
0.143496 0.490043 0.61062
0.226719 0.4916 0.611276
0.306752 0.493523 0.61207
0.39971 0.4963 0.613245
0.499992 0.499992 0.614801
0.604608 0.504616 0.61677
0.71194 0.51017 0.619135
0.821027 0.51667 0.621927
0.931334 0.524117 0.625147
0.200916 0.613169 0.618936
0.271244 0.61442 0.619577
0.342916 0.615976 0.620371
0.429099 0.618235 0.62153
0.524239 0.621225 0.623056
0.624994 0.624994 0.624994
0.729366 0.629541 0.627329
0.836149 0.634867 0.630091
0.94464 0.641001 0.63328
0.258335 0.736278 0.628901
0.318746 0.737331 0.629526
0.382986 0.738628 0.630304
0.462562 0.74052 0.631449
0.552377 0.743023 0.632959
0.64892 0.746181 0.634867
0.749996 0.749996 0.637171
0.85417 0.754482 0.639887
0.96054 0.759655 0.643015
0.31577 0.859403 0.640482
0.368399 0.860288 0.641093
0.426154 0.861402 0.641871
0.499519 0.86302 0.642985
0.583993 0.865171 0.644465
0.676173 0.867872 0.646342
0.773693 0.871138 0.648615
0.874998 0.874998 0.651286
0.979019 0.879438 0.654368
0.37319 0.982513 0.653666
0.419608 0.983291 0.654261
0.471763 0.984268 0.655024
0.539422 0.985672 0.656123
0.618708 0.987533 0.657572
0.706447 0.989899 0.659403
0.800275 0.992752 0.661631
0.898512 0.996109 0.664256
1 1 0.667277
0 0 0.712428
0.101045 7.62951e-05 0.712993
0.215518 0.000518807 0.71368
0.329992 0.00216678 0.714687
0.444465 0.00663767 0.71603
0.558953 0.0167697 0.717708
0.673426 0.0370336 0.719753
0.7879 0.0640116 0.722164
0.902373 0.0910048 0.724956
0.00419623 0.120699 0.714778
0.124987 0.124987 0.715343
0.231312 0.13022 0.71603
0.341527 0.137652 0.717037
0.453437 0.147204 0.718364
0.566232 0.158755 0.720043
0.679515 0.172137 0.722087
0.793103 0.187167 0.724483
0.906905 0.203662 0.72726
0.0292515 0.243809 0.717708
0.151766 0.246571 0.718257
0.249989 0.249989 0.718944
0.355474 0.254887 0.719951
0.464408 0.261311 0.721279
0.575174 0.269261 0.722942
0.687022 0.278676 0.724971
0.799542 0.289494 0.727367
0.91252 0.301656 0.730129
0.0860761 0.366934 0.721935
0.186343 0.368933 0.722484
0.275441 0.371405 0.723171
0.37499 0.37499 0.724163
0.479957 0.379721 0.72549
0.587976 0.385611 0.727153
0.69781 0.39266 0.729168
0.808835 0.40087 0.731548
0.920638 0.410208 0.734295
0.143496 0.490043 0.727535
0.226719 0.4916 0.728084
0.306752 0.493523 0.728771
0.39971 0.4963 0.729747
0.499992 0.499992 0.73106
0.604608 0.504616 0.732708
0.71194 0.51017 0.734722
0.821027 0.51667 0.737072
0.931334 0.524117 0.739803
0.200916 0.613169 0.734554
0.271244 0.61442 0.735088
0.342916 0.615976 0.735759
0.429099 0.618235 0.736736
0.524239 0.621225 0.738033
0.624994 0.624994 0.739666
0.729366 0.629541 0.74165
0.836149 0.634867 0.743984
0.94464 0.641001 0.7467
0.258335 0.736278 0.742977
0.318746 0.737331 0.743511
0.382986 0.738628 0.744167
0.462562 0.74052 0.745129
0.552377 0.743023 0.746426
0.64892 0.746181 0.748043
0.749996 0.749996 0.749996
0.85417 0.754482 0.752316
0.96054 0.759655 0.754986
0.31577 0.859403 0.752819
0.368399 0.860288 0.753338
0.426154 0.861402 0.753994
0.499519 0.86302 0.754955
0.583993 0.865171 0.756222
0.676173 0.867872 0.757809
0.773693 0.871138 0.759747
0.874998 0.874998 0.762036
0.979019 0.879438 0.764675
0.37319 0.982513 0.764065
0.419608 0.983291 0.764584
0.471763 0.984268 0.76524
0.539422 0.985672 0.766171
0.618708 0.987533 0.767422
0.706447 0.989899 0.768994
0.800275 0.992752 0.770901
0.898512 0.996109 0.773144
1 1 0.775753
0 0 0.832273
0.101045 7.62951e-05 0.832746
0.215518 0.000518807 0.833341
0.329992 0.00216678 0.834195
0.444465 0.00663767 0.83534
0.558953 0.0167697 0.836789
0.673426 0.0370336 0.838529
0.7879 0.0640116 0.840604
0.902373 0.0910048 0.842985
0.00419623 0.120699 0.834287
0.124987 0.124987 0.83476
0.231312 0.13022 0.83534
0.341527 0.137652 0.83621
0.453437 0.147204 0.837339
0.566232 0.158755 0.838788
0.679515 0.172137 0.840528
0.793103 0.187167 0.842588
0.906905 0.203662 0.844968
0.0292515 0.243809 0.836774
0.151766 0.246571 0.837247
0.249989 0.249989 0.837842
0.355474 0.254887 0.838697
0.464408 0.261311 0.839841
0.575174 0.269261 0.841276
0.687022 0.278676 0.843015
0.799542 0.289494 0.84506
0.91252 0.301656 0.84744
0.0860761 0.366934 0.840406
0.186343 0.368933 0.840879
0.275441 0.371405 0.841459
0.37499 0.37499 0.842313
0.479957 0.379721 0.843442
0.587976 0.385611 0.844877
0.69781 0.39266 0.846616
0.808835 0.40087 0.848661
0.920638 0.410208 0.851026
0.143496 0.490043 0.845212
0.226719 0.4916 0.845685
0.306752 0.493523 0.846265
0.39971 0.4963 0.847105
0.499992 0.499992 0.848234
0.604608 0.504616 0.849653
0.71194 0.51017 0.851377
0.821027 0.51667 0.853407
0.931334 0.524117 0.855772
0.200916 0.613169 0.85124
0.271244 0.61442 0.851698
0.342916 0.615976 0.852277
0.429099 0.618235 0.853117
0.524239 0.621225 0.854246
0.624994 0.624994 0.85565
0.729366 0.629541 0.857359
0.836149 0.634867 0.859373
0.94464 0.641001 0.861708
0.258335 0.736278 0.858503
0.318746 0.737331 0.858961
0.382986 0.738628 0.859525
0.462562 0.74052 0.860365
0.552377 0.743023 0.861479
0.64892 0.746181 0.862867
0.749996 0.749996 0.864561
0.85417 0.754482 0.866575
0.96054 0.759655 0.868879
0.31577 0.859403 0.867002
0.368399 0.860288 0.86746
0.426154 0.861402 0.868025
0.499519 0.86302 0.868864
0.583993 0.865171 0.869947
0.676173 0.867872 0.871336
0.773693 0.871138 0.873014
0.874998 0.874998 0.874998
0.979019 0.879438 0.877287
0.37319 0.982513 0.876768
0.419608 0.983291 0.877211
0.471763 0.984268 0.877775
0.539422 0.985672 0.878599
0.618708 0.987533 0.879683
0.706447 0.989899 0.881056
0.800275 0.992752 0.882704
0.898512 0.996109 0.884672
1 1 0.886931
0 0 0.952102
0.101045 7.62951e-05 0.952529
0.215518 0.000518807 0.953033
0.329992 0.00216678 0.95378
0.444465 0.00663767 0.954787
0.558953 0.0167697 0.956039
0.673426 0.0370336 0.957565
0.7879 0.0640116 0.959365
0.902373 0.0910048 0.96144
0.00419623 0.120699 0.953857
0.124987 0.124987 0.954269
0.231312 0.13022 0.954787
0.341527 0.137652 0.955535
0.453437 0.147204 0.956527
0.566232 0.158755 0.957778
0.679515 0.172137 0.959304
0.793103 0.187167 0.961105
0.906905 0.203662 0.96318
0.0292515 0.243809 0.956039
0.151766 0.246571 0.956451
0.249989 0.249989 0.956954
0.355474 0.254887 0.957702
0.464408 0.261311 0.958694
0.575174 0.269261 0.959945
0.687022 0.278676 0.961471
0.799542 0.289494 0.963256
0.91252 0.301656 0.965331
0.0860761 0.366934 0.959197
0.186343 0.368933 0.959609
0.275441 0.371405 0.960113
0.37499 0.37499 0.960861
0.479957 0.379721 0.961852
0.587976 0.385611 0.963088
0.69781 0.39266 0.964614
0.808835 0.40087 0.9664
0.920638 0.410208 0.96846
0.143496 0.490043 0.963394
0.226719 0.4916 0.96379
0.306752 0.493523 0.964309
0.39971 0.4963 0.965042
0.499992 0.499992 0.966033
0.604608 0.504616 0.967269
0.71194 0.51017 0.96878
0.821027 0.51667 0.97055
0.931334 0.524117 0.97261
0.200916 0.613169 0.968643
0.271244 0.61442 0.969055
0.342916 0.615976 0.969558
0.429099 0.618235 0.970291
0.524239 0.621225 0.971283
0.624994 0.624994 0.972503
0.729366 0.629541 0.973999
0.836149 0.634867 0.975769
0.94464 0.641001 0.977813
0.258335 0.736278 0.975006
0.318746 0.737331 0.975402
0.382986 0.738628 0.975906
0.462562 0.74052 0.976638
0.552377 0.743023 0.977615
0.64892 0.746181 0.978836
0.749996 0.749996 0.980331
0.85417 0.754482 0.982086
0.96054 0.759655 0.984115
0.31577 0.859403 0.982467
0.368399 0.860288 0.982864
0.426154 0.861402 0.983368
0.499519 0.86302 0.984085
0.583993 0.865171 0.985061
0.676173 0.867872 0.986267
0.773693 0.871138 0.987747
0.874998 0.874998 0.989487
0.979019 0.879438 0.991501
0.37319 0.982513 0.991043
0.419608 0.983291 0.99144
0.471763 0.984268 0.991928
0.539422 0.985672 0.99266
0.618708 0.987533 0.993606
0.706447 0.989899 0.994812
0.800275 0.992752 0.996277
0.898512 0.996109 0.998001
1 1 1
