proprietary/odm/etc/camera/filters_lut/bt709_srgb_to_bt2020_hlg_3dlut_light.cube
TITLE "Generated by Resolve"
LUT_3D_SIZE 9
#LUT data points
0 0 0
0.14815 0.0491646 0.0239414
0.22208 0.0737011 0.0358892
0.298589 0.0990921 0.0482643
0.377127 0.125154 0.0609598
0.457343 0.151781 0.07393
0.536538 0.178882 0.087129
0.601602 0.206394 0.100526
0.655741 0.234287 0.114107
0.107332 0.179355 0.0554971
0.18294 0.185977 0.060441
0.246647 0.193912 0.0660868
0.317281 0.204913 0.0735332
0.392096 0.218708 0.0824292
0.46978 0.234958 0.0924392
0.545678 0.253315 0.103288
0.608011 0.273442 0.114824
0.660502 0.295064 0.126894
0.160876 0.268849 0.0831769
0.218708 0.273304 0.0865492
0.27422 0.278767 0.0905928
0.339162 0.286534 0.0961624
0.41001 0.296544 0.10312
0.484825 0.308736 0.111284
0.556481 0.322911 0.120455
0.615686 0.338933 0.13048
0.666255 0.356603 0.141207
0.216312 0.361471 0.111833
0.262181 0.364797 0.114366
0.310002 0.368902 0.117449
0.368704 0.374807 0.121798
0.43476 0.382528 0.127367
0.505852 0.39205 0.134051
0.571115 0.403311 0.141756
0.626322 0.416251 0.150378
0.674327 0.430762 0.159777
0.273213 0.45655 0.141253
0.310796 0.45919 0.143267
0.352071 0.46247 0.145739
0.404715 0.467185 0.149264
0.46569 0.473396 0.153841
0.530968 0.481117 0.159426
0.588907 0.490349 0.165957
0.639567 0.501045 0.173373
0.684535 0.512856 0.181582
0.331334 0.549142 0.171298
0.362936 0.550973 0.172961
0.398871 0.553216 0.175021
0.446021 0.556451 0.177966
0.501991 0.560662 0.181811
0.558312 0.565835 0.186572
0.609094 0.571939 0.192172
0.654978 0.578897 0.198611
0.696635 0.586633 0.205829
0.390494 0.622446 0.201877
0.417655 0.623652 0.203296
0.44921 0.625162 0.205051
0.491554 0.627329 0.207568
0.539895 0.630167 0.21088
0.586755 0.633692 0.214984
0.630915 0.637888 0.219883
0.672084 0.642725 0.225528
0.710323 0.648173 0.231907
0.450568 0.682338 0.232944
0.474296 0.683207 0.234165
0.502312 0.684291 0.235691
0.53785 0.685847 0.237888
0.576349 0.687892 0.240787
0.615427 0.690455 0.244388
0.653696 0.693523 0.248692
0.69041 0.697078 0.253712
0.725261 0.701122 0.259388
0.511223 0.733333 0.264424
0.530724 0.733989 0.265507
0.552407 0.734798 0.26685
0.579904 0.735973 0.268788
0.610986 0.73753 0.271351
0.643778 0.739467 0.274556
0.676921 0.741802 0.278401
0.709545 0.744533 0.282887
0.741161 0.747631 0.287984
0.0389258 0.0199435 0.177005
0.153185 0.0530556 0.178622
0.225452 0.0763409 0.180606
0.301106 0.101076 0.183474
0.379126 0.126726 0.187213
0.459007 0.153079 0.191821
0.537758 0.17998 0.197284
0.602457 0.207355 0.203555
0.656382 0.235126 0.210605
0.114168 0.180468 0.185504
0.187045 0.187045 0.187045
0.249699 0.194934 0.188937
0.319661 0.205875 0.191684
0.394034 0.219608 0.195254
0.471382 0.235798 0.199695
0.546853 0.254093 0.204944
0.608835 0.274159 0.210986
0.661112 0.295735 0.217792
0.16553 0.269581 0.195575
0.222141 0.274037 0.19704
0.276967 0.279484 0.19884
0.34139 0.287221 0.20145
0.411856 0.297215 0.204852
0.486381 0.309377 0.209079
0.55758 0.323537 0.214099
0.61648 0.339529 0.219898
0.666865 0.357168 0.226429
0.219791 0.36202 0.209369
0.265049 0.365347 0.210742
0.312444 0.369451 0.212436
0.370748 0.375341 0.214862
0.4365 0.383047 0.218067
0.507317 0.392554 0.222049
0.572122 0.4038 0.22678
0.62707 0.416724 0.232258
0.674907 0.43122 0.238453
0.275975 0.456992 0.226459
0.313222 0.459632 0.227726
0.354223 0.462898 0.229282
0.406577 0.467613 0.23154
0.467308 0.473823 0.234516
0.532235 0.481544 0.238224
0.589822 0.490761 0.242634
0.640253 0.501442 0.247761
0.685084 0.513237 0.25359
0.333608 0.549447 0.246326
0.365026 0.551263 0.247486
0.400763 0.553521 0.24892
0.447715 0.556741 0.251011
0.503487 0.560952 0.253758
0.559396 0.56611 0.257176
0.609918 0.572198 0.26128
0.655619 0.579141 0.266041
0.697139 0.586877 0.271473
0.392416 0.622644 0.268498
0.419455 0.62385 0.269551
0.450904 0.62536 0.270878
0.493095 0.627512 0.272801
0.541115 0.630365 0.275319
0.587686 0.633875 0.278477
0.631632 0.638071 0.282277
0.672663 0.642908 0.286687
0.710796 0.648341 0.291737
0.452247 0.682475 0.292561
0.475883 0.683345 0.293538
0.503792 0.684428 0.294759
0.539071 0.685985 0.296513
0.577325 0.688045 0.298848
0.61622 0.690593 0.301762
0.654337 0.69366 0.305257
0.690929 0.697215 0.309346
0.725704 0.701244 0.314031
0.512642 0.73344 0.318196
0.532006 0.734096 0.319097
0.553536 0.734905 0.320211
0.580865 0.73608 0.321828
0.611795 0.737636 0.32398
0.64445 0.739574 0.326665
0.677485 0.741909 0.329915
0.710018 0.744625 0.3337
0.741558 0.747738 0.338033
0.0583505 0.0298924 0.265324
0.159228 0.0575418 0.266407
0.229603 0.07953 0.267735
0.304234 0.103502 0.269673
0.381613 0.128664 0.272236
0.461051 0.154696 0.275425
0.539284 0.181353 0.279255
0.603525 0.208545 0.283726
0.65716 0.236179 0.288823
0.122164 0.181827 0.271061
0.19202 0.188357 0.272114
0.253452 0.196201 0.273426
0.322606 0.20708 0.275334
0.396414 0.220737 0.277836
0.473381 0.236851 0.280964
0.548302 0.25507 0.284718
0.609857 0.275059 0.289097
0.661891 0.296574 0.294102
0.17113 0.270497 0.27805
0.226352 0.274937 0.279088
0.280369 0.280369 0.280369
0.344152 0.288075 0.282216
0.41413 0.298054 0.284657
0.488319 0.31017 0.287709
0.558938 0.3243 0.291386
0.617472 0.340246 0.295674
0.667597 0.357855 0.300557
0.224033 0.362707 0.287922
0.268589 0.366018 0.28893
0.31545 0.370123 0.29015
0.373297 0.375998 0.291951
0.438651 0.383688 0.294316
0.509117 0.393179 0.297261
0.573373 0.40441 0.300816
0.627985 0.417319 0.304967
0.675608 0.4318 0.309712
0.279377 0.457542 0.300572
0.316228 0.460166 0.301534
0.356878 0.463432 0.302708
0.408896 0.468147 0.304433
0.469322 0.474342 0.306691
0.533806 0.482048 0.309529
0.590967 0.491264 0.312947
0.641108 0.50193 0.316945
0.685756 0.513695 0.321508
0.336431 0.549828 0.315816
0.367605 0.551644 0.316716
0.403113 0.553887 0.317845
0.449821 0.557107 0.319478
0.505318 0.561303 0.321645
0.560754 0.566461 0.324346
0.610941 0.572534 0.327611
0.656397 0.579461 0.331426
0.697765 0.587182 0.335805
0.394827 0.622889 0.333394
0.421698 0.624094 0.334249
0.452995 0.625605 0.335317
0.495018 0.627756 0.336873
0.542611 0.630594 0.338918
0.58883 0.634119 0.341497
0.632532 0.6383 0.344594
0.673381 0.643122 0.348226
0.711376 0.648569 0.352377
0.454322 0.682658 0.353063
0.477867 0.683528 0.353887
0.505638 0.684596 0.354894
0.540581 0.686152 0.356359
0.578546 0.688212 0.358297
0.617197 0.690761 0.360723
0.655131 0.693828 0.363653
0.691585 0.697368 0.367102
0.726238 0.701411 0.371054
0.514397 0.733577 0.374578
0.533578 0.734218 0.375357
0.554925 0.735042 0.376303
0.582071 0.736217 0.377676
0.612802 0.737758 0.379507
0.645289 0.739712 0.381811
0.678187 0.742031 0.384588
0.710597 0.744747 0.387839
0.742046 0.74786 0.391577
0.0784466 0.040177 0.356741
0.167636 0.0634928 0.357534
0.235523 0.0839399 0.358541
0.308721 0.10692 0.359991
0.385199 0.131441 0.361898
0.464027 0.157 0.364309
0.541482 0.183337 0.367224
0.605051 0.210269 0.370626
0.658305 0.237705 0.374548
0.132952 0.18381 0.361028
0.199054 0.190265 0.361822
0.258824 0.198032 0.362799
0.326848 0.208804 0.364233
0.399878 0.22237 0.36614
0.47628 0.238376 0.368521
0.550393 0.256474 0.371389
0.611337 0.276371 0.374762
0.662989 0.29778 0.378622
0.178988 0.271839 0.366308
0.232349 0.276249 0.367086
0.285222 0.281651 0.368063
0.348119 0.289326 0.369467
0.417441 0.29926 0.371344
0.491127 0.31133 0.373693
0.560906 0.325414 0.376516
0.618891 0.341314 0.379843
0.668681 0.358862 0.383673
0.230091 0.363699 0.373846
0.273671 0.36701 0.374624
0.319783 0.371084 0.37557
0.376959 0.376959 0.376959
0.441779 0.384634 0.37879
0.511711 0.394095 0.381094
0.575189 0.40531 0.383871
0.629328 0.418189 0.387137
0.676631 0.432624 0.390875
0.284245 0.45832 0.383688
0.320546 0.460945 0.384421
0.360708 0.46421 0.385351
0.412253 0.46891 0.386709
0.472251 0.475105 0.388495
0.536065 0.482795 0.390738
0.592615 0.491997 0.393454
0.642359 0.502632 0.396628
0.686717 0.514351 0.40029
0.34049 0.550362 0.395727
0.371328 0.552178 0.39646
0.4065 0.554421 0.39736
0.452857 0.557626 0.398657
0.507973 0.561807 0.400397
0.562707 0.566949 0.402579
0.612406 0.573007 0.405203
0.657542 0.579919 0.408301
0.69868 0.587625 0.411856
0.398291 0.623255 0.409903
0.424949 0.62446 0.41059
0.456016 0.625956 0.41146
0.49778 0.628107 0.412726
0.544762 0.630945 0.414405
0.590494 0.634455 0.41651
0.633844 0.638636 0.419059
0.674418 0.643458 0.422049
0.712215 0.648875 0.425483
0.457343 0.682918 0.426047
0.480735 0.683787 0.426719
0.508278 0.684855 0.427558
0.542763 0.686412 0.428779
0.580316 0.688457 0.430396
0.618631 0.69102 0.43241
0.656275 0.694072 0.434867
0.692515 0.697612 0.437751
0.727001 0.70164 0.441062
0.516915 0.733761 0.444053
0.535836 0.734417 0.444694
0.556939 0.735225 0.445487
0.583795 0.7364 0.446662
0.614267 0.737957 0.448203
0.64651 0.739895 0.450156
0.679194 0.742229 0.452506
0.711452 0.74493 0.455283
0.742748 0.748028 0.458473
0.0990921 0.0507515 0.450568
0.178241 0.0706645 0.451209
0.243183 0.0894789 0.452003
0.314595 0.11133 0.453147
0.389929 0.135058 0.454673
0.467964 0.160037 0.456596
0.544366 0.185931 0.458915
0.60708 0.212543 0.461646
0.6598 0.239719 0.464805
0.146075 0.186404 0.453971
0.208057 0.192782 0.454612
0.265812 0.200443 0.45539
0.332403 0.211093 0.456535
0.404425 0.224521 0.458045
0.48011 0.240375 0.459953
0.55314 0.25835 0.462257
0.613291 0.278111 0.464973
0.664454 0.299397 0.468101
0.188952 0.273594 0.458183
0.240101 0.277974 0.458808
0.291585 0.283345 0.459586
0.353338 0.29099 0.460716
0.421805 0.300862 0.462226
0.494835 0.312871 0.464118
0.5635 0.326879 0.466392
0.620768 0.342718 0.469078
0.6701 0.360204 0.472175
0.237919 0.365011 0.46424
0.280278 0.368307 0.464866
0.32546 0.372381 0.465629
0.381781 0.378225 0.466743
0.445899 0.38587 0.468223
0.515114 0.395315 0.4701
0.577585 0.406485 0.472343
0.631098 0.419333 0.474998
0.677989 0.433738 0.478065
0.290623 0.459373 0.47219
0.326207 0.461997 0.472801
0.365759 0.465248 0.473564
0.416663 0.469932 0.474647
0.476112 0.476112 0.476112
0.53904 0.483787 0.477943
0.594781 0.492973 0.480171
0.644007 0.503578 0.48278
0.687999 0.515236 0.485786
0.34583 0.551095 0.482033
0.376226 0.552895 0.482628
0.410986 0.555123 0.483375
0.456886 0.558328 0.484443
0.511437 0.562493 0.485878
0.565255 0.56762 0.487678
0.614343 0.573648 0.489845
0.659052 0.580545 0.492409
0.699886 0.588205 0.495354
0.402869 0.623728 0.493736
0.429236 0.624933 0.494316
0.460014 0.626429 0.495033
0.501442 0.62858 0.496086
0.547585 0.631403 0.497475
0.592691 0.634913 0.499229
0.635569 0.639078 0.50135
0.675792 0.643885 0.503838
0.713329 0.649302 0.506661
0.461326 0.683268 0.507134
0.484535 0.684123 0.507683
0.511742 0.685206 0.50837
0.545632 0.686748 0.509361
0.582635 0.688792 0.510674
0.620508 0.691341 0.512306
0.657801 0.694392 0.514275
0.693767 0.697932 0.516594
0.728038 0.701946 0.519234
0.520211 0.73402 0.521584
0.538811 0.734676 0.522087
0.559579 0.735485 0.522713
0.586069 0.73666 0.523629
0.61619 0.738216 0.524834
0.648112 0.740139 0.52636
0.680537 0.742473 0.528176
0.712566 0.745174 0.530312
0.743694 0.748272 0.532769
0.120165 0.0615396 0.542977
0.190753 0.0787671 0.54342
0.252506 0.0960098 0.543984
0.321859 0.11664 0.544793
0.395804 0.139467 0.545876
0.472877 0.163775 0.547219
0.547936 0.189166 0.548852
0.609598 0.215381 0.550744
0.661692 0.242237 0.552926
0.16112 0.189624 0.545373
0.218875 0.195895 0.54583
0.274357 0.203449 0.54638
0.339284 0.213947 0.547173
0.410101 0.227207 0.548241
0.484901 0.242893 0.549569
0.556527 0.260685 0.551171
0.615732 0.280278 0.553048
0.666285 0.301411 0.5552
0.200809 0.275807 0.548333
0.249546 0.280156 0.548775
0.299397 0.285481 0.54931
0.359823 0.293065 0.550103
0.427253 0.302876 0.551141
0.499489 0.314809 0.552453
0.566705 0.328725 0.55404
0.623102 0.344472 0.555886
0.67187 0.361883 0.558007
0.24744 0.366674 0.552544
0.288411 0.369955 0.552972
0.332479 0.374014 0.553506
0.387793 0.379828 0.554269
0.451057 0.387442 0.555291
0.51931 0.396841 0.556573
0.58056 0.40798 0.558114
0.63331 0.420768 0.55993
0.679698 0.435126 0.562005
0.298466 0.460685 0.558007
0.333211 0.46331 0.558419
0.372015 0.466545 0.558938
0.422171 0.471229 0.559686
0.480949 0.477378 0.560678
0.542718 0.485039 0.561913
0.597482 0.494194 0.563424
0.646052 0.504768 0.565179
0.689616 0.51635 0.567193
0.352438 0.551995 0.564675
0.382315 0.553796 0.565072
0.416571 0.556008 0.565576
0.461921 0.559197 0.566293
0.515724 0.563348 0.567239
0.568444 0.568444 0.568444
0.61677 0.574456 0.569879
0.660945 0.581308 0.571572
0.701381 0.588952 0.573526
0.40856 0.624338 0.572457
0.434592 0.625544 0.572839
0.465019 0.627024 0.573312
0.505974 0.629175 0.573999
0.551095 0.631983 0.574914
0.595422 0.635477 0.576059
0.63772 0.639628 0.577447
0.677516 0.644419 0.579065
0.714717 0.649821 0.580926
0.466316 0.683696 0.581247
0.489281 0.684565 0.581598
0.516014 0.685634 0.582055
0.549172 0.687175 0.582712
0.585519 0.689219 0.583581
0.622843 0.691768 0.58468
0.659709 0.694804 0.585992
0.695323 0.698329 0.587549
0.72932 0.702342 0.589319
0.524285 0.734356 0.590921
0.542489 0.735012 0.591257
0.562875 0.735821 0.591684
0.588907 0.73698 0.592309
0.618585 0.738537 0.593133
0.650126 0.740459 0.594171
0.682216 0.742779 0.595422
0.71397 0.745495 0.596887
0.744869 0.748577 0.598581
0.141619 0.0725414 0.616754
0.204959 0.0876326 0.61706
0.263386 0.10341 0.617426
0.330465 0.122805 0.61796
0.402838 0.144656 0.618677
0.478767 0.168215 0.619577
0.552178 0.193027 0.620661
0.612619 0.218769 0.621942
0.663951 0.245258 0.623407
0.177691 0.193469 0.618357
0.231357 0.199619 0.618647
0.284413 0.207034 0.619013
0.347463 0.217365 0.619547
0.416892 0.230426 0.620264
0.490654 0.245899 0.621149
0.560586 0.263493 0.622232
0.618647 0.282902 0.623499
0.668498 0.303838 0.624949
0.214328 0.278462 0.620325
0.260548 0.282765 0.620615
0.308629 0.288045 0.620981
0.367544 0.295567 0.621515
0.433783 0.305287 0.622217
0.505028 0.317143 0.623087
0.570535 0.330968 0.624155
0.625895 0.346609 0.625406
0.674006 0.363912 0.626841
0.258549 0.368673 0.623148
0.297993 0.371939 0.623438
0.340825 0.375967 0.623804
0.394965 0.381765 0.624323
0.457237 0.389349 0.62501
0.524285 0.398703 0.625879
0.5841 0.409781 0.626932
0.63595 0.422522 0.628153
0.681743 0.43682 0.629572
0.307729 0.462287 0.626856
0.341543 0.464897 0.627131
0.379492 0.468116 0.627482
0.428779 0.472786 0.628
0.486748 0.47892 0.628672
0.547082 0.486564 0.629526
0.600702 0.495689 0.630549
0.648524 0.506203 0.631754
0.691554 0.517693 0.633143
0.360327 0.553094 0.631418
0.389593 0.554879 0.631693
0.423255 0.557092 0.632029
0.467964 0.56025 0.632532
0.520806 0.56437 0.633188
0.572229 0.569451 0.634012
0.619669 0.575418 0.635019
0.663218 0.582238 0.636194
0.703197 0.589837 0.637552
0.415381 0.625071 0.636805
0.441001 0.626276 0.637079
0.471015 0.627756 0.6374
0.511315 0.629892 0.637888
0.555261 0.632685 0.638529
0.598688 0.636164 0.639338
0.640299 0.640299 0.640299
0.679591 0.645075 0.641443
0.716411 0.650462 0.642771
0.472297 0.68423 0.642985
0.494987 0.685084 0.643244
0.52108 0.686152 0.643565
0.553384 0.687694 0.644022
0.588968 0.689723 0.644648
0.62565 0.692271 0.645426
0.661997 0.695293 0.646357
0.6972 0.698817 0.647471
0.730877 0.702815 0.648737
0.529137 0.734752 0.649882
0.546868 0.735409 0.650141
0.566781 0.736202 0.650446
0.592294 0.737377 0.650889
0.621454 0.738918 0.651484
0.652537 0.740841 0.652232
0.68423 0.74316 0.653132
0.715663 0.745861 0.6542
0.746288 0.748943 0.655436
0.163409 0.0836957 0.676936
0.220569 0.0970626 0.67715
0.275715 0.111513 0.677409
0.340368 0.129702 0.677791
0.411002 0.150561 0.678309
0.485664 0.173327 0.67895
0.557076 0.197482 0.679728
0.616129 0.222721 0.680644
0.66659 0.248783 0.681712
0.195499 0.197925 0.678065
0.245304 0.203937 0.678279
0.295872 0.2112 0.678553
0.356893 0.221347 0.678935
0.424781 0.23418 0.679438
0.497383 0.249424 0.680079
0.565255 0.266773 0.680858
0.622034 0.285954 0.681773
0.671061 0.306706 0.682826
0.229313 0.281575 0.679484
0.273014 0.285832 0.679698
0.319219 0.291066 0.679957
0.376486 0.298497 0.680339
0.441367 0.308141 0.680842
0.511376 0.319875 0.681483
0.57496 0.333593 0.682246
0.62916 0.349111 0.683146
0.676509 0.366293 0.684199
0.271092 0.371038 0.681514
0.308934 0.374273 0.681727
0.350439 0.378286 0.681987
0.403296 0.384039 0.682368
0.464454 0.391577 0.682857
0.529992 0.400885 0.683497
0.588205 0.411902 0.684245
0.639033 0.424582 0.685145
0.684123 0.438819 0.686183
0.318349 0.464164 0.684199
0.351141 0.466758 0.684398
0.388159 0.469978 0.684657
0.436454 0.474617 0.685023
0.493523 0.480735 0.685527
0.552117 0.48835 0.686137
0.604456 0.497444 0.686885
0.651392 0.507866 0.68777
0.693812 0.519265 0.688792
0.369436 0.554391 0.687526
0.398032 0.556161 0.687724
0.431037 0.558343 0.687968
0.475013 0.561486 0.688334
0.526619 0.565591 0.688823
0.576623 0.570626 0.689418
0.623041 0.576562 0.690166
0.665858 0.583337 0.69102
0.705318 0.59089 0.692027
0.423301 0.62594 0.691478
0.448478 0.627131 0.691676
0.478019 0.628595 0.69192
0.517449 0.630732 0.692271
0.560082 0.633524 0.692744
0.602472 0.636988 0.693339
0.643305 0.641093 0.694057
0.682002 0.645853 0.694911
0.718379 0.651209 0.695888
0.479286 0.68484 0.69604
0.501656 0.68571 0.696239
0.526894 0.686763 0.696483
0.558251 0.688304 0.696818
0.592966 0.690333 0.697276
0.628916 0.692851 0.697856
0.664652 0.695872 0.698558
0.699397 0.699397 0.699397
0.732692 0.70338 0.700343
0.534691 0.735225 0.701198
0.551919 0.735866 0.701381
0.571298 0.736675 0.701625
0.596216 0.737835 0.701961
0.624796 0.739376 0.702403
0.655344 0.741299 0.702968
0.68658 0.743603 0.703655
0.717632 0.746303 0.704448
0.747967 0.749371 0.705379
0.185489 0.0950027 0.728099
0.2374 0.106981 0.728252
0.289357 0.120241 0.72845
0.351507 0.13727 0.72874
0.420279 0.157122 0.729137
0.493538 0.179065 0.72961
0.562585 0.202548 0.730205
0.620096 0.227207 0.730892
0.669596 0.252811 0.731701
0.214313 0.20296 0.728954
0.260533 0.208835 0.729107
0.308614 0.21593 0.729305
0.367529 0.225864 0.729595
0.433768 0.238453 0.729976
0.505028 0.253437 0.730465
0.57052 0.270542 0.731044
0.625895 0.289479 0.731746
0.674006 0.309972 0.73254
0.245548 0.285145 0.730022
0.286778 0.289342 0.730175
0.331075 0.294514 0.730373
0.386572 0.301869 0.730663
0.450019 0.311391 0.731044
0.518471 0.323018 0.731517
0.57995 0.336599 0.732097
0.632853 0.351995 0.732784
0.679347 0.369039 0.733577
0.284947 0.373754 0.731548
0.321157 0.376974 0.731716
0.361273 0.380941 0.731914
0.412726 0.386664 0.732189
0.472679 0.394141 0.73257
0.5364 0.403388 0.733043
0.592844 0.414343 0.733623
0.642542 0.426947 0.734295
0.686854 0.441108 0.735088
0.33022 0.466331 0.733577
0.361944 0.468925 0.73373
0.397955 0.472129 0.733928
0.445197 0.476753 0.734218
0.501274 0.482841 0.734585
0.557794 0.49041 0.735058
0.608698 0.499474 0.735622
0.654673 0.509804 0.736294
0.696391 0.521065 0.737072
0.379721 0.555871 0.73611
0.407599 0.557626 0.736263
0.439887 0.559808 0.736446
0.483055 0.562921 0.736736
0.533135 0.566979 0.737102
0.581567 0.571984 0.73756
0.626871 0.577874 0.738125
0.668879 0.584604 0.738781
0.707744 0.592096 0.739559
0.432303 0.626932 0.739132
0.456992 0.628122 0.739284
0.486015 0.629587 0.739467
0.524315 0.631693 0.739742
0.565499 0.63447 0.740108
0.606775 0.637919 0.740566
0.646738 0.642008 0.741115
0.684764 0.646738 0.741772
0.720638 0.652079 0.742519
0.487251 0.685557 0.742641
0.509133 0.686412 0.742794
0.53341 0.68748 0.742977
0.563729 0.689006 0.743236
0.597498 0.691035 0.743603
0.632624 0.693538 0.744045
0.667704 0.696559 0.744579
0.7019 0.700053 0.74522
0.734768 0.704021 0.745968
0.540932 0.735759 0.746624
0.55758 0.7364 0.746777
0.576394 0.737209 0.74696
0.600656 0.738369 0.747219
0.62858 0.73991 0.747555
0.658549 0.741817 0.747997
0.689281 0.744121 0.748531
0.719905 0.746807 0.749157
0.749874 0.749874 0.749874
