proprietary/odm/etc/camera/filters_lut/bt709_srgb_to_p3_srgb_3dlut_light.cube
TITLE "Generated by Resolve"
LUT_3D_SIZE 17
#LUT data points
0 0 0
0.0437934 1.5259e-05 0
0.101045 7.62951e-05 1.5259e-05
0.158282 0.000213626 4.57771e-05
0.215518 0.000518807 0.000106813
0.272755 0.00111391 0.000228885
0.329992 0.00216678 0.000442512
0.387228 0.00390631 0.000793469
0.444465 0.00663767 0.00134279
0.501701 0.0107729 0.00218204
0.558953 0.0167697 0.00340276
0.61619 0.0252384 0.00512703
0.673426 0.0370336 0.00749218
0.730663 0.0505074 0.0106813
0.7879 0.0640116 0.0148928
0.845136 0.0775006 0.0203555
0.902373 0.0910048 0.0273594
0.00111391 0.059144 0.000122072
0.0624857 0.0624857 0.000213626
0.115145 0.0649119 0.000289921
0.169467 0.06804 0.000427253
0.22472 0.0718547 0.00062562
0.280522 0.0763714 0.000915541
0.336675 0.081529 0.00135805
0.393088 0.0873426 0.00199893
0.449653 0.0937362 0.00289921
0.506355 0.100694 0.00416571
0.563149 0.108171 0.00588998
0.62002 0.116121 0.00819409
0.676936 0.124529 0.0112459
0.733898 0.133333 0.0152285
0.790906 0.142504 0.020325
0.847929 0.15201 0.0268101
0.904997 0.161822 0.0351568
0.00419623 0.120699 0.000488289
0.0750896 0.123186 0.000656138
0.124987 0.124987 0.000808728
0.177417 0.127337 0.00103761
0.231312 0.13022 0.00135805
0.286122 0.133669 0.00180056
0.341527 0.137652 0.00244144
0.397345 0.142168 0.00332647
0.453437 0.147204 0.00451667
0.509758 0.152743 0.00611887
0.566232 0.158755 0.00823987
0.622812 0.165225 0.0110018
0.679515 0.172137 0.0145876
0.736278 0.179461 0.0191806
0.793103 0.187167 0.024979
0.849989 0.195239 0.0324712
0.906905 0.203662 0.0411536
0.0121004 0.182254 0.00140383
0.0904402 0.184207 0.00172427
0.13727 0.185626 0.00196841
0.187488 0.187488 0.00233463
0.239765 0.189792 0.00283818
0.293339 0.192523 0.00352483
0.347799 0.195727 0.00444038
0.402853 0.199359 0.0056611
0.458351 0.203449 0.00726329
0.514168 0.207965 0.00933852
0.57023 0.212924 0.0120241
0.626474 0.21828 0.0154421
0.682857 0.224048 0.0197604
0.739376 0.230198 0.0251774
0.795972 0.236728 0.0321508
0.852659 0.24361 0.0402228
0.909407 0.250828 0.0488594
0.0292515 0.243809 0.00340276
0.108095 0.245411 0.00390631
0.151766 0.246571 0.0043183
0.199557 0.248096 0.00488289
0.249989 0.249989 0.00564584
0.302144 0.252247 0.00665293
0.355474 0.254887 0.00796521
0.409644 0.257908 0.00965896
0.464408 0.261311 0.0118105
0.519615 0.265095 0.0145418
0.575174 0.269261 0.0179599
0.630991 0.273777 0.0222171
0.687022 0.278676 0.027512
0.743221 0.283909 0.034226
0.799542 0.289494 0.041825
0.855985 0.295415 0.0498207
0.91252 0.301656 0.0579995
0.0573587 0.305379 0.00724804
0.127642 0.306722 0.0080415
0.168215 0.307698 0.00865187
0.213489 0.30898 0.00949111
0.261921 0.310582 0.0106203
0.31249 0.31249 0.0120546
0.364553 0.314733 0.0138857
0.417685 0.317296 0.0161898
0.471611 0.320195 0.0190738
0.526131 0.323415 0.0226291
0.581094 0.32697 0.0270085
0.636408 0.330861 0.0326085
0.691997 0.335058 0.0389563
0.747814 0.33959 0.0459602
0.80383 0.344427 0.0532235
0.859983 0.349584 0.0607156
0.916259 0.355032 0.0684215
0.0860761 0.366934 0.0140688
0.14873 0.368078 0.0152285
0.186343 0.368933 0.0161135
0.229099 0.370031 0.017319
0.275441 0.371405 0.0188907
0.324315 0.373053 0.0208896
0.37499 0.37499 0.0234073
0.426993 0.377203 0.0265049
0.479957 0.379721 0.0303044
0.533684 0.382513 0.035111
0.587976 0.385611 0.0404822
0.64271 0.388998 0.0463264
0.69781 0.39266 0.0525063
0.753201 0.396628 0.0589914
0.808835 0.40087 0.0657359
0.864652 0.405402 0.0727398
0.920638 0.410208 0.0799725
0.114778 0.428489 0.025391
0.171038 0.429496 0.0270085
0.205921 0.430243 0.0282444
0.246204 0.431205 0.0299077
0.290425 0.43241 0.0322881
0.33753 0.433845 0.0349584
0.386725 0.435538 0.0382086
0.437491 0.437491 0.0420233
0.489433 0.439689 0.0462501
0.542275 0.442161 0.0508888
0.595819 0.444877 0.0558938
0.649912 0.447868 0.0612497
0.704463 0.451118 0.0669261
0.759365 0.454612 0.0729229
0.814557 0.458381 0.0791943
0.870008 0.462409 0.0857404
0.925658 0.466682 0.0925154
0.143496 0.490043 0.0428779
0.194369 0.490944 0.0447852
0.226719 0.4916 0.0461585
0.264622 0.492454 0.0479591
0.306752 0.493523 0.0501717
0.352041 0.494804 0.0527962
0.39971 0.4963 0.0558328
0.449165 0.498039 0.0592813
0.499992 0.499992 0.0631113
0.551888 0.50219 0.0673228
0.604608 0.504616 0.0719005
0.658 0.507271 0.0768139
0.71194 0.51017 0.082063
0.766308 0.513298 0.0876173
0.821027 0.51667 0.0934462
0.876051 0.520287 0.0995499
0.931334 0.524117 0.105898
0.172213 0.551614 0.0620584
0.218494 0.552407 0.0637522
0.248539 0.552987 0.0650034
0.284215 0.553765 0.0666209
0.324285 0.554711 0.0686046
0.367773 0.555871 0.070985
0.413855 0.557214 0.0737316
0.461952 0.55877 0.0768597
0.511604 0.560525 0.080354
0.562493 0.562493 0.0842145
0.614343 0.564675 0.0884108
0.666972 0.567071 0.0929427
0.720241 0.56968 0.0977798
0.774014 0.572503 0.102922
0.828229 0.575555 0.108354
0.882795 0.578805 0.114061
0.937652 0.582284 0.120012
0.200916 0.613169 0.081239
0.243275 0.613886 0.0827649
0.271244 0.61442 0.0838941
0.304814 0.615106 0.085359
0.342916 0.615976 0.0871748
0.384604 0.617014 0.0893263
0.429099 0.618235 0.0918441
0.475807 0.619638 0.0946975
0.524239 0.621225 0.0979019
0.57406 0.623011 0.101442
0.624994 0.624994 0.105303
0.676814 0.627161 0.109483
0.729366 0.629541 0.113985
0.782513 0.632105 0.118761
0.836149 0.634867 0.123827
0.890211 0.637827 0.129152
0.94464 0.641001 0.134737
0.229633 0.674723 0.100404
0.268589 0.67538 0.101808
0.294682 0.675868 0.102831
0.326314 0.676493 0.104173
0.362509 0.677287 0.105821
0.402441 0.678233 0.107805
0.445365 0.679347 0.110109
0.490654 0.680629 0.112734
0.53785 0.682078 0.115679
0.586572 0.683711 0.118944
0.63653 0.685512 0.122515
0.687495 0.687495 0.126406
0.739284 0.689662 0.130571
0.79176 0.692012 0.135027
0.8448 0.694545 0.139757
0.898329 0.697246 0.144747
0.95227 0.700145 0.149996
0.258335 0.736278 0.119585
0.294347 0.736889 0.120867
0.318746 0.737331 0.121813
0.348562 0.737911 0.123033
0.382986 0.738628 0.124559
0.42121 0.739498 0.126375
0.462562 0.74052 0.128496
0.506447 0.741695 0.130922
0.552377 0.743023 0.133654
0.59997 0.744518 0.136675
0.64892 0.746181 0.140002
0.699001 0.748012 0.143603
0.749996 0.749996 0.147494
0.801755 0.752148 0.151659
0.85417 0.754482 0.156085
0.907134 0.756985 0.160769
0.96054 0.759655 0.165698
0.287053 0.797848 0.138766
0.32047 0.798398 0.13994
0.343343 0.79881 0.14081
0.371496 0.799344 0.141955
0.404227 0.8 0.143359
0.440818 0.800809 0.145037
0.480644 0.801755 0.147005
0.52311 0.802838 0.149248
0.567773 0.804059 0.151781
0.614221 0.805447 0.154604
0.66215 0.806973 0.157687
0.711299 0.808667 0.161059
0.761471 0.810498 0.164691
0.812497 0.812497 0.168582
0.86424 0.814649 0.172747
0.916594 0.816968 0.177142
0.969467 0.81944 0.181781
0.31577 0.859403 0.157931
0.346899 0.859922 0.15903
0.368399 0.860288 0.159838
0.39501 0.860792 0.160891
0.426154 0.861402 0.162203
0.461189 0.86215 0.16376
0.499519 0.86302 0.165591
0.540612 0.864027 0.167681
0.583993 0.865171 0.170047
0.629282 0.866453 0.172671
0.676173 0.867872 0.175555
0.724376 0.869429 0.178714
0.773693 0.871138 0.182116
0.823941 0.872999 0.185779
0.874998 0.874998 0.189685
0.926726 0.87715 0.193835
0.979019 0.879438 0.198215
0.344472 0.920958 0.177111
0.373602 0.921447 0.178134
0.393835 0.921798 0.178882
0.419028 0.922255 0.179873
0.448692 0.92282 0.181079
0.482231 0.923522 0.182544
0.519127 0.924331 0.184253
0.558862 0.925261 0.186206
0.600992 0.926329 0.188418
0.645121 0.92752 0.190875
0.690944 0.928847 0.193576
0.738186 0.930312 0.196536
0.786633 0.931899 0.199741
0.836103 0.933623 0.203189
0.886427 0.9355 0.206867
0.937499 0.937499 0.210773
0.989212 0.939651 0.214923
0.37319 0.982513 0.196292
0.400504 0.982971 0.197253
0.419608 0.983291 0.197955
0.443503 0.983734 0.198871
0.471763 0.984268 0.2
0.503899 0.984909 0.201373
0.539422 0.985672 0.202976
0.577829 0.986542 0.204807
0.618708 0.987533 0.206882
0.661692 0.988663 0.209186
0.706447 0.989899 0.211734
0.752728 0.991257 0.214511
0.800275 0.992752 0.217533
0.84892 0.994369 0.220783
0.898512 0.996109 0.224247
0.948913 0.997986 0.227955
1 1 0.231876
0 0 0.053315
0.0437934 1.5259e-05 0.0551003
0.101045 7.62951e-05 0.0564126
0.158282 0.000213626 0.0581064
0.215518 0.000518807 0.0601816
0.272755 0.00111391 0.0626688
0.329992 0.00216678 0.0655528
0.387228 0.00390631 0.0688182
0.444465 0.00663767 0.0724651
0.501701 0.0107729 0.0764782
0.558953 0.0167697 0.080827
0.61619 0.0252384 0.0855268
0.673426 0.0370336 0.090547
0.730663 0.0505074 0.0958724
0.7879 0.0640116 0.101488
0.845136 0.0775006 0.107362
0.902373 0.0910048 0.113497
0.00111391 0.059144 0.0607767
0.0624857 0.0624857 0.0624857
0.115145 0.0649119 0.0637369
0.169467 0.06804 0.0653544
0.22472 0.0718547 0.0673686
0.280522 0.0763714 0.069749
0.336675 0.081529 0.0725261
0.393088 0.0873426 0.0756695
0.449653 0.0937362 0.0791943
0.506355 0.100694 0.0830701
0.563149 0.108171 0.0872969
0.62002 0.116121 0.0918441
0.676936 0.124529 0.0967117
0.733898 0.133333 0.101884
0.790906 0.142504 0.107347
0.847929 0.15201 0.113069
0.904997 0.161822 0.119051
0.00419623 0.120699 0.0660563
0.0750896 0.123186 0.0677348
0.124987 0.124987 0.0689403
0.177417 0.127337 0.0705272
0.231312 0.13022 0.0724804
0.286122 0.133669 0.0747997
0.341527 0.137652 0.0775006
0.397345 0.142168 0.0805676
0.453437 0.147204 0.0840009
0.509758 0.152743 0.0877852
0.566232 0.158755 0.0919051
0.622812 0.165225 0.0963607
0.679515 0.172137 0.101137
0.736278 0.179461 0.106203
0.793103 0.187167 0.111543
0.849989 0.195239 0.117174
0.906905 0.203662 0.123049
0.0121004 0.182254 0.0727703
0.0904402 0.184207 0.0743725
0.13727 0.185626 0.0755474
0.187488 0.187488 0.0770733
0.239765 0.189792 0.0789654
0.293339 0.192523 0.0812085
0.347799 0.195727 0.0838331
0.402853 0.199359 0.0867933
0.458351 0.203449 0.0901198
0.514168 0.207965 0.0937972
0.57023 0.212924 0.0978103
0.626474 0.21828 0.102144
0.682857 0.224048 0.106783
0.739376 0.230198 0.111711
0.795972 0.236728 0.116945
0.852659 0.24361 0.122423
0.909407 0.250828 0.128176
0.0292515 0.243809 0.0808118
0.108095 0.245411 0.0823529
0.151766 0.246571 0.0834821
0.199557 0.248096 0.084947
0.249989 0.249989 0.0867628
0.302144 0.252247 0.0889296
0.355474 0.254887 0.0914473
0.409644 0.257908 0.0943008
0.464408 0.261311 0.0975204
0.519615 0.265095 0.101061
0.575174 0.269261 0.104936
0.630991 0.273777 0.109117
0.687022 0.278676 0.113619
0.743221 0.283909 0.11841
0.799542 0.289494 0.123476
0.855985 0.295415 0.128817
0.91252 0.301656 0.134417
0.0573587 0.305379 0.0900893
0.127642 0.306722 0.0915694
0.168215 0.307698 0.0926375
0.213489 0.30898 0.0940414
0.261921 0.310582 0.0957809
0.31249 0.31249 0.0978561
0.364553 0.314733 0.100267
0.417685 0.317296 0.103014
0.471611 0.320195 0.106096
0.526131 0.323415 0.109499
0.581094 0.32697 0.113222
0.636408 0.330861 0.117266
0.691997 0.335058 0.121599
0.747814 0.33959 0.126238
0.80383 0.344427 0.131136
0.859983 0.349584 0.136309
0.916259 0.355032 0.141726
0.0860761 0.366934 0.100496
0.14873 0.368078 0.1019
0.186343 0.368933 0.102922
0.229099 0.370031 0.10425
0.275441 0.371405 0.105913
0.324315 0.373053 0.107881
0.37499 0.37499 0.110185
0.426993 0.377203 0.11281
0.479957 0.379721 0.115755
0.533684 0.382513 0.11902
0.587976 0.385611 0.122591
0.64271 0.388998 0.126482
0.69781 0.39266 0.130648
0.753201 0.396628 0.135103
0.808835 0.40087 0.139834
0.864652 0.405402 0.144823
0.920638 0.410208 0.150057
0.114778 0.428489 0.111894
0.171038 0.429496 0.113222
0.205921 0.430243 0.114199
0.246204 0.431205 0.115465
0.290425 0.43241 0.117037
0.33753 0.433845 0.118914
0.386725 0.435538 0.121111
0.437491 0.437491 0.123613
0.489433 0.439689 0.126421
0.542275 0.442161 0.129549
0.595819 0.444877 0.132967
0.649912 0.447868 0.136675
0.704463 0.451118 0.140673
0.759365 0.454612 0.144945
0.814557 0.458381 0.149493
0.870008 0.462409 0.154299
0.925658 0.466682 0.15935
0.143496 0.490043 0.124178
0.194369 0.490944 0.125444
0.226719 0.4916 0.12636
0.264622 0.492454 0.127565
0.306752 0.493523 0.129061
0.352041 0.494804 0.130846
0.39971 0.4963 0.132921
0.449165 0.498039 0.135302
0.499992 0.499992 0.137987
0.551888 0.50219 0.140948
0.604608 0.504616 0.144213
0.658 0.507271 0.147768
0.71194 0.51017 0.151583
0.766308 0.513298 0.155688
0.821027 0.51667 0.160052
0.876051 0.520287 0.16466
0.931334 0.524117 0.169512
0.172213 0.551614 0.13724
0.218494 0.552407 0.13843
0.248539 0.552987 0.139315
0.284215 0.553765 0.140444
0.324285 0.554711 0.141863
0.367773 0.555871 0.143557
0.413855 0.557214 0.145525
0.461952 0.55877 0.147799
0.511604 0.560525 0.150347
0.562493 0.562493 0.15317
0.614343 0.564675 0.156283
0.666972 0.567071 0.15967
0.720241 0.56968 0.163317
0.774014 0.572503 0.167239
0.828229 0.575555 0.171405
0.882795 0.578805 0.17583
0.937652 0.582284 0.180499
0.200916 0.613169 0.150973
0.243275 0.613886 0.152117
0.271244 0.61442 0.152941
0.304814 0.615106 0.154025
0.342916 0.615976 0.155352
0.384604 0.617014 0.15697
0.429099 0.618235 0.158846
0.475807 0.619638 0.160983
0.524239 0.621225 0.163409
0.57406 0.623011 0.166094
0.624994 0.624994 0.169055
0.676814 0.627161 0.17229
0.729366 0.629541 0.175769
0.782513 0.632105 0.179507
0.836149 0.634867 0.183505
0.890211 0.637827 0.187747
0.94464 0.641001 0.192218
0.229633 0.674723 0.165316
0.268589 0.67538 0.166384
0.294682 0.675868 0.167163
0.326314 0.676493 0.168185
0.362509 0.677287 0.169451
0.402441 0.678233 0.170977
0.445365 0.679347 0.172763
0.490654 0.680629 0.174792
0.53785 0.682078 0.177096
0.586572 0.683711 0.17966
0.63653 0.685512 0.182483
0.687495 0.687495 0.18555
0.739284 0.689662 0.188876
0.79176 0.692012 0.192447
0.8448 0.694545 0.196262
0.898329 0.697246 0.20032
0.95227 0.700145 0.204608
0.258335 0.736278 0.180163
0.294347 0.736889 0.18117
0.318746 0.737331 0.181918
0.348562 0.737911 0.182879
0.382986 0.738628 0.184085
0.42121 0.739498 0.185534
0.462562 0.74052 0.187228
0.506447 0.741695 0.189151
0.552377 0.743023 0.191348
0.59997 0.744518 0.193774
0.64892 0.746181 0.19646
0.699001 0.748012 0.19939
0.749996 0.749996 0.202564
0.801755 0.752148 0.205966
0.85417 0.754482 0.209613
0.907134 0.756985 0.213489
0.96054 0.759655 0.217594
0.287053 0.797848 0.195453
0.32047 0.798398 0.196414
0.343343 0.79881 0.197116
0.371496 0.799344 0.198047
0.404227 0.8 0.199176
0.440818 0.800809 0.200549
0.480644 0.801755 0.202152
0.52311 0.802838 0.203998
0.567773 0.804059 0.206073
0.614221 0.805447 0.208392
0.66215 0.806973 0.210941
0.711299 0.808667 0.213733
0.761471 0.810498 0.216754
0.812497 0.812497 0.220005
0.86424 0.814649 0.223499
0.916594 0.816968 0.227207
0.969467 0.81944 0.231128
0.31577 0.859403 0.211139
0.346899 0.859922 0.212055
0.368399 0.860288 0.212726
0.39501 0.860792 0.213596
0.426154 0.861402 0.214679
0.461189 0.86215 0.215976
0.499519 0.86302 0.217502
0.540612 0.864027 0.219257
0.583993 0.865171 0.221225
0.629282 0.866453 0.223438
0.676173 0.867872 0.225864
0.724376 0.869429 0.228519
0.773693 0.871138 0.231403
0.823941 0.872999 0.234516
0.874998 0.874998 0.237842
0.926726 0.87715 0.241398
0.979019 0.879438 0.245151
0.344472 0.920958 0.227176
0.373602 0.921447 0.228046
0.393835 0.921798 0.228672
0.419028 0.922255 0.229511
0.448692 0.92282 0.230533
0.482231 0.923522 0.231769
0.519127 0.924331 0.233219
0.558862 0.925261 0.234882
0.600992 0.926329 0.236759
0.645121 0.92752 0.238865
0.690944 0.928847 0.241184
0.738186 0.930312 0.243717
0.786633 0.931899 0.246479
0.836103 0.933623 0.249439
0.886427 0.9355 0.252628
0.937499 0.937499 0.256016
0.989212 0.939651 0.259617
0.37319 0.982513 0.243503
0.400504 0.982971 0.244327
0.419608 0.983291 0.244938
0.443503 0.983734 0.245716
0.471763 0.984268 0.246693
0.503899 0.984909 0.247883
0.539422 0.985672 0.249256
0.577829 0.986542 0.250843
0.618708 0.987533 0.252628
0.661692 0.988663 0.254643
0.706447 0.989899 0.25684
0.752728 0.991257 0.259266
0.800275 0.992752 0.261891
0.84892 0.994369 0.264729
0.898512 0.996109 0.267781
0.948913 0.997986 0.271031
1 1 0.274479
0 0 0.113237
0.0437934 1.5259e-05 0.114565
0.101045 7.62951e-05 0.115526
0.158282 0.000213626 0.116793
0.215518 0.000518807 0.118349
0.272755 0.00111391 0.120226
0.329992 0.00216678 0.122393
0.387228 0.00390631 0.124895
0.444465 0.00663767 0.127687
0.501701 0.0107729 0.130785
0.558953 0.0167697 0.134188
0.61619 0.0252384 0.137881
0.673426 0.0370336 0.141863
0.730663 0.0505074 0.14612
0.7879 0.0640116 0.150637
0.845136 0.0775006 0.155428
0.902373 0.0910048 0.160449
0.00111391 0.059144 0.118791
0.0624857 0.0624857 0.120073
0.115145 0.0649119 0.121019
0.169467 0.06804 0.122255
0.22472 0.0718547 0.123781
0.280522 0.0763714 0.125612
0.336675 0.081529 0.127733
0.393088 0.0873426 0.130175
0.449653 0.0937362 0.132906
0.506355 0.100694 0.135943
0.563149 0.108171 0.139269
0.62002 0.116121 0.142885
0.676936 0.124529 0.146792
0.733898 0.133333 0.150958
0.790906 0.142504 0.155398
0.847929 0.15201 0.160098
0.904997 0.161822 0.165042
0.00419623 0.120699 0.122789
0.0750896 0.123186 0.124056
0.124987 0.124987 0.124987
0.177417 0.127337 0.126192
0.231312 0.13022 0.127703
0.286122 0.133669 0.129488
0.341527 0.137652 0.131594
0.397345 0.142168 0.133974
0.453437 0.147204 0.136675
0.509758 0.152743 0.139666
0.566232 0.158755 0.142947
0.622812 0.165225 0.146502
0.679515 0.172137 0.150347
0.736278 0.179461 0.154467
0.793103 0.187167 0.158846
0.849989 0.195239 0.163485
0.906905 0.203662 0.168368
0.0121004 0.182254 0.127916
0.0904402 0.184207 0.129168
0.13727 0.185626 0.130068
0.187488 0.187488 0.131258
0.239765 0.189792 0.132723
0.293339 0.192523 0.134478
0.347799 0.195727 0.136538
0.402853 0.199359 0.138888
0.458351 0.203449 0.141512
0.514168 0.207965 0.144457
0.57023 0.212924 0.147662
0.626474 0.21828 0.151171
0.682857 0.224048 0.15494
0.739376 0.230198 0.158984
0.795972 0.236728 0.163287
0.852659 0.24361 0.167849
0.909407 0.250828 0.172656
0.0292515 0.243809 0.134173
0.108095 0.245411 0.135378
0.151766 0.246571 0.136263
0.199557 0.248096 0.137423
0.249989 0.249989 0.138857
0.302144 0.252247 0.140566
0.355474 0.254887 0.142565
0.409644 0.257908 0.144854
0.464408 0.261311 0.147433
0.519615 0.265095 0.150301
0.575174 0.269261 0.153445
0.630991 0.273777 0.156863
0.687022 0.278676 0.160555
0.743221 0.283909 0.164508
0.799542 0.289494 0.168734
0.855985 0.295415 0.17319
0.91252 0.301656 0.177905
0.0573587 0.305379 0.141497
0.127642 0.306722 0.142672
0.168215 0.307698 0.143526
0.213489 0.30898 0.14464
0.261921 0.310582 0.146044
0.31249 0.31249 0.147707
0.364553 0.314733 0.149645
0.417685 0.317296 0.151873
0.471611 0.320195 0.154376
0.526131 0.323415 0.157168
0.581094 0.32697 0.16022
0.636408 0.330861 0.163561
0.691997 0.335058 0.167163
0.747814 0.33959 0.171023
0.80383 0.344427 0.175143
0.859983 0.349584 0.179507
0.916259 0.355032 0.184115
0.0860761 0.366934 0.149828
0.14873 0.368078 0.150973
0.186343 0.368933 0.151797
0.229099 0.370031 0.15288
0.275441 0.371405 0.154238
0.324315 0.373053 0.15584
0.37499 0.37499 0.157733
0.426993 0.377203 0.159884
0.479957 0.379721 0.16231
0.533684 0.382513 0.165011
0.587976 0.385611 0.167987
0.64271 0.388998 0.171221
0.69781 0.39266 0.174731
0.753201 0.396628 0.178485
0.808835 0.40087 0.182498
0.864652 0.405402 0.18674
0.920638 0.410208 0.191241
0.114778 0.428489 0.159136
0.171038 0.429496 0.16022
0.205921 0.430243 0.161028
0.246204 0.431205 0.162081
0.290425 0.43241 0.163378
0.33753 0.433845 0.164935
0.386725 0.435538 0.166751
0.437491 0.437491 0.168841
0.489433 0.439689 0.171191
0.542275 0.442161 0.1738
0.595819 0.444877 0.176684
0.649912 0.447868 0.179812
0.704463 0.451118 0.183215
0.759365 0.454612 0.186847
0.814557 0.458381 0.190738
0.870008 0.462409 0.194873
0.925658 0.466682 0.199237
0.143496 0.490043 0.169314
0.194369 0.490944 0.170367
0.226719 0.4916 0.17113
0.264622 0.492454 0.172137
0.306752 0.493523 0.173388
0.352041 0.494804 0.174899
0.39971 0.4963 0.176654
0.449165 0.498039 0.178653
0.499992 0.499992 0.180926
0.551888 0.50219 0.183444
0.604608 0.504616 0.186236
0.658 0.507271 0.189258
0.71194 0.51017 0.192538
0.766308 0.513298 0.196078
0.821027 0.51667 0.199847
0.876051 0.520287 0.203845
0.931334 0.524117 0.208087
0.172213 0.551614 0.180301
0.218494 0.552407 0.181308
0.248539 0.552987 0.182055
0.284215 0.553765 0.183017
0.324285 0.554711 0.184222
0.367773 0.555871 0.185672
0.413855 0.557214 0.18735
0.461952 0.55877 0.189288
0.511604 0.560525 0.19147
0.562493 0.562493 0.193912
0.614343 0.564675 0.196582
0.666972 0.567071 0.199512
0.720241 0.56968 0.202686
0.774014 0.572503 0.206088
0.828229 0.575555 0.209735
0.882795 0.578805 0.213611
0.937652 0.582284 0.217716
0.200916 0.613169 0.19202
0.243275 0.613886 0.192996
0.271244 0.61442 0.193698
0.304814 0.615106 0.194629
0.342916 0.615976 0.195789
0.384604 0.617014 0.197177
0.429099 0.618235 0.198795
0.475807 0.619638 0.200656
0.524239 0.621225 0.202762
0.57406 0.623011 0.205097
0.624994 0.624994 0.207675
0.676814 0.627161 0.210498
0.729366 0.629541 0.21355
0.782513 0.632105 0.216846
0.836149 0.634867 0.220371
0.890211 0.637827 0.224109
0.94464 0.641001 0.228077
0.229633 0.674723 0.20441
0.268589 0.67538 0.205341
0.294682 0.675868 0.206027
0.326314 0.676493 0.206928
0.362509 0.677287 0.208026
0.402441 0.678233 0.209354
0.445365 0.679347 0.210925
0.490654 0.680629 0.212711
0.53785 0.682078 0.214725
0.586572 0.683711 0.216968
0.63653 0.685512 0.219455
0.687495 0.687495 0.222171
0.739284 0.689662 0.225116
0.79176 0.692012 0.22829
0.8448 0.694545 0.231678
0.898329 0.697246 0.235294
0.95227 0.700145 0.239124
0.258335 0.736278 0.217411
0.294347 0.736889 0.218311
0.318746 0.737331 0.218967
0.348562 0.737911 0.219821
0.382986 0.738628 0.220874
0.42121 0.739498 0.222156
0.462562 0.74052 0.223651
0.506447 0.741695 0.22536
0.552377 0.743023 0.227298
0.59997 0.744518 0.229465
0.64892 0.746181 0.231846
0.699001 0.748012 0.234455
0.749996 0.749996 0.237293
0.801755 0.752148 0.240345
0.85417 0.754482 0.24361
0.907134 0.756985 0.247105
0.96054 0.759655 0.250797
0.287053 0.797848 0.230961
0.32047 0.798398 0.231815
0.343343 0.79881 0.232441
0.371496 0.799344 0.233265
0.404227 0.8 0.234272
0.440818 0.800809 0.235508
0.480644 0.801755 0.236927
0.52311 0.802838 0.238575
0.567773 0.804059 0.240436
0.614221 0.805447 0.242512
0.66215 0.806973 0.2448
0.711299 0.808667 0.247318
0.761471 0.810498 0.250034
0.812497 0.812497 0.252979
0.86424 0.814649 0.256123
0.916594 0.816968 0.25948
0.969467 0.81944 0.26305
0.31577 0.859403 0.244999
0.346899 0.859922 0.245808
0.368399 0.860288 0.246403
0.39501 0.860792 0.247196
0.426154 0.861402 0.248173
0.461189 0.86215 0.249348
0.499519 0.86302 0.250721
0.540612 0.864027 0.252293
0.583993 0.865171 0.254078
0.629282 0.866453 0.256077
0.676173 0.867872 0.258274
0.724376 0.869429 0.260685
0.773693 0.871138 0.26331
0.823941 0.872999 0.266133
0.874998 0.874998 0.269169
0.926726 0.87715 0.272404
0.979019 0.879438 0.275837
0.344472 0.920958 0.259464
0.373602 0.921447 0.260243
0.393835 0.921798 0.260822
0.419028 0.922255 0.26157
0.448692 0.92282 0.262516
0.482231 0.923522 0.26363
0.519127 0.924331 0.264958
0.558862 0.925261 0.266468
0.600992 0.926329 0.268177
0.645121 0.92752 0.270085
0.690944 0.928847 0.272206
0.738186 0.930312 0.274525
0.786633 0.931899 0.277043
0.836103 0.933623 0.279759
0.886427 0.9355 0.282673
0.937499 0.937499 0.285801
0.989212 0.939651 0.289113
0.37319 0.982513 0.274327
0.400504 0.982971 0.275074
0.419608 0.983291 0.275624
0.443503 0.983734 0.276356
0.471763 0.984268 0.277241
0.503899 0.984909 0.278325
0.539422 0.985672 0.279591
0.577829 0.986542 0.281041
0.618708 0.987533 0.282689
0.661692 0.988663 0.28452
0.706447 0.989899 0.286549
0.752728 0.991257 0.288777
0.800275 0.992752 0.291203
0.84892 0.994369 0.293812
0.898512 0.996109 0.29662
0.948913 0.997986 0.299626
1 1 0.302815
0 0 0.173159
0.0437934 1.5259e-05 0.174197
0.101045 7.62951e-05 0.17496
0.158282 0.000213626 0.175952
0.215518 0.000518807 0.177188
0.272755 0.00111391 0.178668
0.329992 0.00216678 0.180392
0.387228 0.00390631 0.182376
0.444465 0.00663767 0.184619
0.501701 0.0107729 0.187106
0.558953 0.0167697 0.189853
0.61619 0.0252384 0.192844
0.673426 0.0370336 0.196094
0.730663 0.0505074 0.199573
0.7879 0.0640116 0.203296
0.845136 0.0775006 0.207263
0.902373 0.0910048 0.211444
0.00111391 0.059144 0.177539
