proprietary/odm/etc/camera/filters_lut/bt709_srgb_to_bt2020_hlg_3dlut_light.cube
TITLE "Generated by Resolve"
LUT_3D_SIZE 17
#LUT data points
0 0 0
0.112459 0.0373236 0.0181735
0.14815 0.0491646 0.0239414
0.184741 0.0613107 0.0298619
0.22208 0.0737011 0.0358892
0.260044 0.086305 0.0420386
0.298589 0.0990921 0.0482643
0.337621 0.112047 0.0545663
0.377127 0.125154 0.0609598
0.417044 0.138399 0.0674144
0.457343 0.151781 0.07393
0.498009 0.16527 0.0804913
0.536538 0.178882 0.087129
0.570733 0.192584 0.0937972
0.601602 0.206394 0.100526
0.62977 0.220295 0.107301
0.655741 0.234287 0.114107
0.0814679 0.136141 0.0421149
0.138857 0.141161 0.0458686
0.16907 0.144747 0.0484474
0.201907 0.14931 0.0516365
0.236545 0.154803 0.0553445
0.272511 0.161196 0.0595102
0.309499 0.168383 0.0640574
0.347311 0.176318 0.0689403
0.385824 0.184924 0.0740978
0.424918 0.194141 0.0794842
0.464546 0.203891 0.0850843
0.504585 0.21413 0.0908522
0.541863 0.224796 0.0967727
0.575158 0.235843 0.102815
0.605325 0.247257 0.108995
0.632959 0.258976 0.115267
0.658503 0.27097 0.12163
0.107332 0.179355 0.0554971
0.155459 0.1832 0.0583963
0.18294 0.185977 0.060441
0.213657 0.189548 0.0630198
0.246647 0.193912 0.0660868
0.281331 0.199039 0.0696117
0.317281 0.204913 0.0735332
0.354269 0.211475 0.077821
0.392096 0.218708 0.0824292
0.430625 0.226551 0.0873121
0.46978 0.234958 0.0924392
0.509285 0.2439 0.0977646
0.545678 0.253315 0.103288
0.578332 0.263172 0.10898
0.608011 0.273442 0.114824
0.635264 0.284077 0.12079
0.660502 0.295064 0.126894
0.133837 0.223651 0.0691997
0.174807 0.226749 0.0715343
0.199649 0.228992 0.0732128
0.228122 0.231907 0.0753643
0.259281 0.235477 0.0779431
0.29247 0.239719 0.0809644
0.327199 0.244617 0.0843671
0.36318 0.250156 0.0881208
0.400168 0.256291 0.0922103
0.437995 0.263005 0.0966049
0.476524 0.270283 0.101259
0.515251 0.278096 0.106142
0.550576 0.286381 0.111254
0.582406 0.29514 0.116564
0.611475 0.304341 0.122042
0.638239 0.313924 0.127672
0.663081 0.323903 0.133455
0.160876 0.268849 0.0831769
0.196292 0.271427 0.0851453
0.218708 0.273304 0.0865492
0.244968 0.275746 0.0883803
0.27422 0.278767 0.0905928
0.305791 0.282353 0.0931868
0.339162 0.286534 0.0961624
0.373999 0.291264 0.0994736
0.41001 0.296544 0.10312
0.446998 0.302373 0.107057
0.484825 0.308736 0.111284
0.522423 0.315587 0.115755
0.556481 0.322911 0.120455
0.587366 0.330709 0.125368
0.615686 0.338933 0.13048
0.641886 0.34757 0.13576
0.666255 0.356603 0.141207
0.188388 0.314824 0.0973983
0.219394 0.317021 0.0990768
0.239673 0.318639 0.100298
0.263859 0.320729 0.101869
0.291218 0.323323 0.103807
0.321111 0.326436 0.106081
0.353048 0.330037 0.108705
0.386633 0.334157 0.11165
0.421561 0.338781 0.1149
0.457618 0.343893 0.118456
0.494621 0.349493 0.122271
0.530709 0.355566 0.12636
0.563348 0.362081 0.130678
0.593164 0.369055 0.135225
0.620661 0.37644 0.139971
0.646174 0.384237 0.144915
0.670008 0.392432 0.150027
0.216312 0.361471 0.111833
0.243793 0.363394 0.113298
0.262181 0.364797 0.114366
0.284459 0.366629 0.115755
0.310002 0.368902 0.117449
0.338247 0.371633 0.119463
0.368704 0.374807 0.121798
0.400977 0.378439 0.124437
0.43476 0.382528 0.127367
0.469795 0.38706 0.130571
0.505852 0.39205 0.134051
0.539986 0.397467 0.137789
0.571115 0.403311 0.141756
0.599756 0.409583 0.145968
0.626322 0.416251 0.150378
0.651102 0.423316 0.154986
0.674327 0.430762 0.159777
0.244587 0.408743 0.126452
0.2692 0.410437 0.127749
0.285969 0.411688 0.128695
0.306523 0.413306 0.129931
0.330373 0.415335 0.131456
0.357 0.417746 0.133257
0.385977 0.420584 0.135348
0.416907 0.423819 0.137728
0.4495 0.427466 0.140383
0.483482 0.43154 0.143297
0.518044 0.436011 0.146471
0.550118 0.440879 0.149905
0.57966 0.446159 0.153567
0.607065 0.451835 0.157443
0.632639 0.457893 0.161547
0.656611 0.464332 0.165835
0.679179 0.471122 0.170321
0.273213 0.45655 0.141253
0.295445 0.458076 0.142412
0.310796 0.45919 0.143267
0.329809 0.460655 0.144366
0.352071 0.46247 0.145739
0.377188 0.464637 0.147372
0.404715 0.467185 0.149264
0.434318 0.4701 0.151431
0.46569 0.473396 0.153841
0.498558 0.477073 0.156512
0.530968 0.481117 0.159426
0.560967 0.485557 0.16257
0.588907 0.490349 0.165957
0.61503 0.495521 0.169558
0.639567 0.501045 0.173373
0.662684 0.506844 0.177386
0.684535 0.512856 0.181582
0.302129 0.504845 0.156207
0.322377 0.506188 0.157259
0.336492 0.507179 0.158022
0.354131 0.508461 0.15903
0.37496 0.510048 0.160266
0.398627 0.51194 0.161761
0.424781 0.514153 0.163485
0.453071 0.516655 0.165454
0.483223 0.519478 0.167666
0.514595 0.522576 0.170123
0.544442 0.525963 0.172808
0.572427 0.529625 0.175723
0.598749 0.533547 0.178851
0.623575 0.537728 0.182193
0.647028 0.542138 0.185748
0.669261 0.546761 0.189502
0.690379 0.551583 0.193439
0.331334 0.549142 0.171298
0.349889 0.550195 0.172259
0.362936 0.550973 0.172961
0.379355 0.55198 0.173877
0.398871 0.553216 0.175021
0.421195 0.554711 0.176379
0.446021 0.556451 0.177966
0.473045 0.558434 0.179782
0.501991 0.560662 0.181811
0.530877 0.563134 0.184085
0.558312 0.565835 0.186572
0.58436 0.56878 0.189273
0.609094 0.571939 0.192172
0.632609 0.575311 0.1953
0.654978 0.578897 0.198611
0.676295 0.582666 0.202121
0.696635 0.586633 0.205829
0.360784 0.587884 0.186526
0.377905 0.588739 0.187411
0.390021 0.589349 0.188052
0.405341 0.590173 0.188907
0.423651 0.59118 0.189944
0.444739 0.592386 0.191196
0.468315 0.59379 0.192676
0.494118 0.595407 0.194339
0.521096 0.597223 0.196231
0.547265 0.599237 0.198337
0.572457 0.60145 0.200641
0.596643 0.603861 0.203159
0.619837 0.606455 0.205875
0.642069 0.609247 0.208789
0.663355 0.612207 0.211887
0.683742 0.615351 0.215183
0.703304 0.618662 0.218662
0.390494 0.622446 0.201877
0.406363 0.623133 0.202701
0.417655 0.623652 0.203296
0.431983 0.624323 0.204074
0.44921 0.625162 0.205051
0.469154 0.626154 0.20621
0.491554 0.627329 0.207568
0.515755 0.628656 0.209125
0.539895 0.630167 0.21088
0.563622 0.631846 0.212833
0.586755 0.633692 0.214984
0.609201 0.635706 0.217334
0.630915 0.637888 0.219883
0.651865 0.640223 0.222614
0.672084 0.642725 0.225528
0.691554 0.64538 0.228626
0.710323 0.648173 0.231907
0.420417 0.653712 0.21735
0.435203 0.654307 0.218112
0.445762 0.654734 0.218677
0.45922 0.655299 0.219394
0.475471 0.656001 0.220295
0.494347 0.65684 0.221378
0.515236 0.657816 0.222644
0.536706 0.658946 0.224094
0.558328 0.660227 0.225742
0.579858 0.661646 0.227573
0.601099 0.663203 0.229587
0.621912 0.664912 0.231785
0.642222 0.666773 0.234165
0.661967 0.668772 0.236728
0.681117 0.670893 0.239475
0.699687 0.673167 0.24239
0.717662 0.675563 0.245487
0.450568 0.682338 0.232944
0.464378 0.682841 0.233646
0.474296 0.683207 0.234165
0.486961 0.68368 0.234852
0.502312 0.684291 0.235691
0.519524 0.685008 0.236698
0.53785 0.685847 0.237888
0.556909 0.686809 0.239246
0.576349 0.687892 0.240787
0.595911 0.689113 0.242496
0.615427 0.690455 0.244388
0.634714 0.69192 0.246448
0.653696 0.693523 0.248692
0.672267 0.695247 0.251118
0.69041 0.697078 0.253712
0.70808 0.699031 0.256458
0.725261 0.701122 0.259388
0.480903 0.708766 0.248631
0.493889 0.709194 0.249287
0.503197 0.709514 0.249775
0.514778 0.709926 0.250416
0.528237 0.710445 0.251209
0.543221 0.71107 0.252155
0.55938 0.711788 0.253269
0.576364 0.712627 0.254551
0.593896 0.713573 0.255985
0.611734 0.714626 0.257603
0.629664 0.715785 0.259388
0.647562 0.717067 0.261341
0.665278 0.718456 0.263447
0.68275 0.719951 0.265736
0.699901 0.721553 0.268177
0.716701 0.723262 0.270787
0.73312 0.725078 0.273564
0.511223 0.733333 0.264424
0.522713 0.733715 0.265049
0.530724 0.733989 0.265507
0.540703 0.73434 0.266102
0.552407 0.734798 0.26685
0.565576 0.735332 0.267735
0.579904 0.735973 0.268788
0.595117 0.736706 0.269993
0.610986 0.73753 0.271351
0.627268 0.738445 0.272877
0.643778 0.739467 0.274556
0.660365 0.740597 0.276402
0.676921 0.741802 0.278401
0.693339 0.743114 0.280568
0.709545 0.744533 0.282887
0.725505 0.746029 0.285359
0.741161 0.747631 0.287984
0.0295415 0.0151369 0.134356
0.116274 0.0402686 0.135576
0.151064 0.0514382 0.136477
0.187091 0.0631418 0.137636
0.224033 0.0752422 0.139071
0.261723 0.0876173 0.14078
0.300038 0.100237 0.142763
0.338918 0.113069 0.145022
0.378286 0.12607 0.147539
0.418082 0.139223 0.150317
0.458305 0.152529 0.153353
0.498878 0.165957 0.156619
0.53724 0.179522 0.160128
0.571328 0.193179 0.163867
0.60209 0.206943 0.167803
0.630198 0.220813 0.171939
0.656107 0.234775 0.176272
0.086656 0.13698 0.14081
0.14197 0.14197 0.14197
0.171633 0.145541 0.142824
0.204059 0.150072 0.143938
0.238376 0.15555 0.145312
0.274098 0.161898 0.146944
0.310903 0.169055 0.148852
0.348562 0.176974 0.151003
0.386954 0.18555 0.153429
0.425956 0.19472 0.156115
0.465492 0.204456 0.15903
0.50544 0.214664 0.162188
0.54255 0.225299 0.165576
0.575723 0.236332 0.169192
0.605798 0.247715 0.173007
0.633371 0.259403 0.17702
0.658854 0.271397 0.181231
0.11133 0.179995 0.145357
0.158236 0.183825 0.146502
0.185321 0.186587 0.147326
0.215686 0.190158 0.148394
0.248417 0.194491 0.149737
0.282872 0.199619 0.151324
0.318654 0.205463 0.15317
0.355505 0.212024 0.155276
0.39321 0.219226 0.157626
0.431647 0.227054 0.160235
0.470695 0.235447 0.163088
0.510109 0.244358 0.166171
0.546365 0.253758 0.169467
0.578897 0.2636 0.173007
0.608484 0.273854 0.176745
0.635676 0.284474 0.180682
0.660853 0.295445 0.184802
0.137057 0.22417 0.151125
0.177295 0.227253 0.152209
0.201831 0.229496 0.153017
0.23003 0.232395 0.154055
0.26096 0.235966 0.155337
0.29395 0.240208 0.156863
0.328542 0.24509 0.158648
0.364385 0.250614 0.160678
0.401251 0.256733 0.162951
0.438987 0.263447 0.165484
0.47744 0.27071 0.168231
0.51606 0.278508 0.171221
0.551232 0.286793 0.174441
0.582956 0.295537 0.177874
0.611933 0.304707 0.181506
0.638636 0.31429 0.185336
0.663432 0.324254 0.189364
0.163577 0.269276 0.158022
0.198505 0.271839 0.15906
0.220691 0.273732 0.159823
0.246754 0.276158 0.160815
0.275807 0.279179 0.162051
0.30721 0.282765 0.163516
0.340444 0.286931 0.165225
0.375158 0.291661 0.167178
0.411063 0.296941 0.169375
0.447974 0.302754 0.171801
0.485725 0.309102 0.174456
0.523201 0.315953 0.17734
0.557107 0.323278 0.180438
0.5879 0.33106 0.183764
0.616144 0.339269 0.187289
0.642283 0.347906 0.190997
0.666606 0.356924 0.194919
0.190692 0.315175 0.165942
0.221378 0.317388 0.166934
0.241474 0.31899 0.167666
0.265507 0.321096 0.168612
0.292714 0.32369 0.169787
0.322469 0.326787 0.171191
0.354284 0.330388 0.172824
0.387762 0.334508 0.174685
0.422599 0.339117 0.176791
0.458564 0.344228 0.17911
0.495506 0.349828 0.181659
0.531441 0.355886 0.184436
0.563958 0.362402 0.187427
0.593683 0.36936 0.190616
0.621103 0.376745 0.194018
0.646555 0.384543 0.19762
0.670344 0.392721 0.201389
0.218311 0.361791 0.174807
0.245579 0.363714 0.175753
0.263844 0.365118 0.17644
0.286 0.366949 0.17734
0.311421 0.369223 0.178454
0.339544 0.371939 0.179797
0.369879 0.375113 0.181353
0.40206 0.378744 0.183124
0.435752 0.382818 0.185138
0.470726 0.38735 0.18735
0.506706 0.39234 0.189792
0.540673 0.397757 0.192447
0.571694 0.403601 0.195315
0.600259 0.409857 0.198383
0.626749 0.416526 0.201648
0.651469 0.423575 0.205112
0.674662 0.431022 0.208759
0.246372 0.409018 0.184512
0.270817 0.410712 0.185397
0.28748 0.411963 0.186053
0.307942 0.413581 0.186908
0.331685 0.41561 0.187961
0.358221 0.418021 0.189227
0.387106 0.420844 0.190707
0.41796 0.424094 0.192401
0.450462 0.427741 0.194308
0.484382 0.4318 0.196429
0.518837 0.436271 0.198764
0.550774 0.441154 0.201297
0.580224 0.446418 0.204044
0.607553 0.452094 0.206973
0.633051 0.458137 0.210117
0.656977 0.464576 0.213443
0.6795 0.471366 0.216938
0.2748 0.456809 0.194949
0.296925 0.458335 0.195789
0.3122 0.459449 0.196414
0.331121 0.460899 0.197223
0.353323 0.462715 0.198215
0.378332 0.464881 0.19942
0.405798 0.46743 0.200824
0.435325 0.470344 0.202441
0.466621 0.47364 0.204257
0.499443 0.477317 0.206271
0.531701 0.481361 0.208484
0.561593 0.485786 0.21091
0.589441 0.490578 0.213519
0.615488 0.49575 0.216342
0.639963 0.501274 0.219333
0.663035 0.507057 0.222522
0.684855 0.513069 0.225879
0.303563 0.505058 0.206027
0.323735 0.506416 0.206836
0.337789 0.507393 0.207416
0.355367 0.508675 0.208194
0.37612 0.510262 0.20914
0.399725 0.512154 0.210285
0.425803 0.514366 0.211612
0.454032 0.516869 0.213138
0.484123 0.519677 0.214862
0.515389 0.522774 0.216785
0.545113 0.526162 0.218891
0.573007 0.529824 0.221195
0.599252 0.533745 0.223697
0.624002 0.537911 0.226383
0.64741 0.542306 0.229252
0.669596 0.546929 0.232303
0.690669 0.551766 0.235523
0.332647 0.549325 0.2177
0.351141 0.550378 0.218463
0.364141 0.551141 0.219013
0.380499 0.552148 0.219745
0.399954 0.553399 0.220645
0.422232 0.554879 0.221729
0.446998 0.556619 0.22298
0.47396 0.558602 0.22443
0.502846 0.56083 0.226078
0.531609 0.563302 0.227893
0.558938 0.566003 0.229908
0.584909 0.568933 0.232105
0.609567 0.572091 0.234485
0.633021 0.575463 0.237049
0.655344 0.579034 0.239796
0.676616 0.582803 0.24271
0.696925 0.58677 0.245792
0.36199 0.588022 0.229877
0.379065 0.588876 0.230594
0.391135 0.589502 0.231128
0.406409 0.590311 0.231815
0.424689 0.591318 0.23267
0.445716 0.592523 0.233692
0.469245 0.593927 0.234882
0.495003 0.595544 0.236271
0.521874 0.597345 0.237827
0.547921 0.599359 0.239551
0.573037 0.601572 0.241474
0.597162 0.603983 0.243565
0.620295 0.606592 0.245838
0.642451 0.609369 0.24828
0.663691 0.612329 0.250889
0.684062 0.615473 0.253681
0.703578 0.618769 0.256641
0.391608 0.622553 0.242496
0.407431 0.623255 0.243183
0.418692 0.623774 0.243687
0.43299 0.624445 0.244327
0.450187 0.625269 0.245151
0.470085 0.626276 0.246113
0.492454 0.627436 0.247257
0.516548 0.628779 0.248569
0.540597 0.630274 0.25005
0.564233 0.631952 0.251698
0.587289 0.633799 0.253513
0.609674 0.635813 0.255512
0.631327 0.637995 0.257679
0.652247 0.64033 0.260014
0.672419 0.642832 0.262516
0.691859 0.645472 0.265187
0.710597 0.64828 0.268009
0.421454 0.653819 0.255528
0.436194 0.654398 0.256168
0.446738 0.654826 0.256641
0.460166 0.65539 0.257267
0.476387 0.656092 0.25803
0.495216 0.656931 0.258961
0.51603 0.657923 0.260044
0.537408 0.659052 0.261295
0.558968 0.660319 0.262699
0.580423 0.661738 0.264271
0.601587 0.663294 0.266011
0.622354 0.665003 0.267903
0.642603 0.666865 0.269978
0.662318 0.668849 0.272206
0.681437 0.670985 0.274586
0.699977 0.673243 0.277134
0.717922 0.675654 0.27985
0.45153 0.682414 0.26891
0.465324 0.682918 0.26952
0.475212 0.683284 0.269978
0.487861 0.683772 0.270558
0.503166 0.684367 0.27129
0.520302 0.685084 0.272175
0.538552 0.685924 0.273213
0.557534 0.686885 0.274388
0.576913 0.687984 0.275731
0.596429 0.689189 0.277226
0.615885 0.690532 0.278889
0.635126 0.692012 0.280705
0.654063 0.693599 0.282673
0.672602 0.695323 0.284794
0.690715 0.697154 0.287083
0.708354 0.699107 0.289525
0.725521 0.701198 0.292119
0.481819 0.708827 0.282612
0.494759 0.70927 0.283192
0.504051 0.709575 0.283619
0.515572 0.710002 0.284184
0.528984 0.710521 0.284886
0.543908 0.711131 0.285725
0.560006 0.711864 0.286702
0.576928 0.712688 0.287831
0.594415 0.713634 0.289113
0.612192 0.714687 0.290532
0.630091 0.715862 0.292119
0.647944 0.717128 0.293843
0.665629 0.718517 0.295735
0.683055 0.720012 0.297765
0.700191 0.721614 0.299962
0.71696 0.723323 0.302296
0.733349 0.725139 0.304784
0.512032 0.733394 0.29659
0.523491 0.733776 0.297154
0.531472 0.734051 0.297566
0.541405 0.734401 0.2981
0.553063 0.734859 0.298756
0.566171 0.735393 0.299565
0.580453 0.736034 0.300496
0.595636 0.736767 0.301579
0.611444 0.737591 0.3028
0.627695 0.738506 0.304158
0.64416 0.739528 0.305669
0.660716 0.740642 0.307332
0.677241 0.741863 0.309133
0.693629 0.743175 0.31107
0.709819 0.744579 0.313161
0.72575 0.74609 0.315404
0.74139 0.747692 0.317784
0.0389258 0.0199435 0.177005
0.119005 0.0423133 0.177935
0.153185 0.0530556 0.178622
0.1888 0.0644694 0.179507
0.225452 0.0763409 0.180606
0.262943 0.0885786 0.181933
0.301106 0.101076 0.183474
0.339864 0.113802 0.185229
0.379126 0.126726 0.187213
0.41886 0.139834 0.18941
0.459007 0.153079 0.191821
0.499535 0.166476 0.194446
0.537758 0.17998 0.197284
0.571756 0.193622 0.20032
0.602457 0.207355 0.203555
0.630503 0.221195 0.206989
0.656382 0.235126 0.210605
0.0902876 0.137591 0.181949
0.144213 0.142565 0.182849
0.173495 0.14612 0.18352
0.205631 0.150637 0.18439
0.239719 0.156085 0.185458
0.275273 0.162417 0.18674
0.31194 0.169558 0.188235
0.349493 0.177447 0.18996
0.387778 0.185992 0.191882
0.426703 0.195163 0.194034
0.466178 0.204868 0.196399
0.506065 0.215045 0.198962
0.543053 0.225681 0.20174
0.57615 0.236683 0.2047
0.606165 0.248051 0.207874
0.633677 0.259739 0.211231
0.659129 0.271702 0.214771
0.114168 0.180468 0.185504
0.16025 0.184283 0.186389
0.187045 0.187045 0.187045
0.217166 0.1906 0.187884
0.249699 0.194934 0.188937
0.284001 0.200031 0.190204
0.319661 0.205875 0.191684
0.356405 0.212421 0.193362
0.394034 0.219608 0.195254
0.432395 0.22742 0.197375
0.471382 0.235798 0.199695
0.510719 0.244709 0.202213
0.546853 0.254093 0.204944
0.579309 0.26392 0.207874
0.608835 0.274159 0.210986
0.635981 0.284779 0.214298
0.661112 0.295735 0.217792
0.139376 0.224537 0.190051
0.179095 0.227619 0.190921
0.203418 0.229862 0.191546
0.231418 0.232761 0.192386
0.262196 0.236332 0.193408
0.295048 0.240558 0.194644
0.329519 0.245426 0.196078
0.36527 0.25095 0.197726
0.40206 0.257069 0.199588
0.439719 0.263767 0.201648
0.478111 0.271031 0.203922
0.51664 0.278813 0.206394
0.551705 0.287083 0.209064
0.583368 0.295811 0.211933
0.612284 0.304982 0.215
0.638941 0.314565 0.21825
0.663691 0.324514 0.221683
0.16553 0.269581 0.195575
0.200107 0.27216 0.196414
0.222141 0.274037 0.19704
0.248051 0.276463 0.197848
0.276967 0.279484 0.19884
0.308263 0.283055 0.200046
0.34139 0.287221 0.20145
0.376013 0.291936 0.203052
0.411856 0.297215 0.204852
0.448692 0.303044 0.206867
0.486381 0.309377 0.209079
0.523766 0.316213 0.21149
0.55758 0.323537 0.214099
0.588296 0.331304 0.216907
0.61648 0.339529 0.219898
0.642573 0.34815 0.223072
0.666865 0.357168 0.226429
0.19237 0.31545 0.202029
0.222827 0.317647 0.202853
0.242802 0.319265 0.203449
0.266712 0.321355 0.204227
0.293812 0.323949 0.205203
0.323461 0.327047 0.206363
0.355184 0.330648 0.207721
0.388586 0.334752 0.209277
0.423346 0.339376 0.211032
0.459266 0.344472 0.212985
0.496162 0.350057 0.215137
0.531975 0.356115 0.217487
0.564416 0.362631 0.22002
0.594064 0.369589 0.222751
0.621424 0.376974 0.225666
0.646845 0.384756 0.228763
0.670604 0.392935 0.232029
0.219791 0.36202 0.209369
0.246876 0.363943 0.210163
0.265049 0.365347 0.210742
0.287114 0.367178 0.21149
0.312444 0.369451 0.212436
0.340475 0.372168 0.21355
0.370748 0.375341 0.214862
0.402853 0.378958 0.216373
0.4365 0.383047 0.218067
0.471412 0.387579 0.219959
0.507317 0.392554 0.222049
0.541192 0.397955 0.224323
0.572122 0.4038 0.22678
0.600626 0.410056 0.229419
0.62707 0.416724 0.232258
0.651743 0.423774 0.235264
0.674907 0.43122 0.238453
0.247669 0.409216 0.217533
0.272007 0.410925 0.218296
0.288594 0.412161 0.218845
0.30898 0.413794 0.219577
0.332647 0.415808 0.220478
0.359121 0.418219 0.221561
0.38793 0.421042 0.222827
0.418723 0.424292 0.224277
0.451179 0.427939 0.22591
0.485039 0.431998 0.227741
0.519417 0.436469 0.229755
0.551263 0.441337 0.231952
0.580621 0.446616 0.234333
0.607904 0.452277 0.236896
0.633356 0.45832 0.239643
0.657237 0.464759 0.242557
0.679728 0.47155 0.245655
0.275975 0.456992 0.226459
0.297993 0.458518 0.227192
0.313222 0.459632 0.227726
0.332097 0.461082 0.228412
0.354223 0.462898 0.229282
0.379187 0.465064 0.23032
0.406577 0.467613 0.23154
0.436057 0.470527 0.232944
0.467308 0.473823 0.234516
0.500084 0.477485 0.236271
0.532235 0.481544 0.238224
0.562051 0.485954 0.240345
0.589822 0.490761 0.242634
0.615824 0.495918 0.245121
0.640253 0.501442 0.247761
0.663294 0.507225 0.250584
0.685084 0.513237 0.25359
0.304631 0.505226 0.236072
0.324712 0.506569 0.236774
0.338735 0.507561 0.237278
0.356268 0.508843 0.237949
0.376974 0.51043 0.238788
0.400519 0.512322 0.23978
0.426551 0.514519 0.240955
0.454734 0.517021 0.242298
0.484794 0.519829 0.243809
0.515984 0.522927 0.245502
0.545617 0.526314 0.247379
0.573434 0.529961 0.249424
0.599619 0.533883 0.251637
0.624323 0.538048 0.254032
0.647684 0.542443 0.25658
0.669841 0.547066 0.259312
0.690898 0.551888 0.262211
0.333608 0.549447 0.246326
0.352056 0.5505 0.246998
0.365026 0.551263 0.247486
0.381338 0.55227 0.248127
0.400763 0.553521 0.24892
0.42298 0.555001 0.249882
0.447715 0.556741 0.251011
0.474632 0.558724 0.252293
0.503487 0.560952 0.253758
0.532143 0.563409 0.255375
0.559396 0.56611 0.257176
0.585306 0.569039 0.259144
0.609918 0.572198 0.26128
0.633326 0.57557 0.263569
0.655619 0.579141 0.266041
0.67686 0.58291 0.268681
0.697139 0.586877 0.271473
0.362875 0.588129 0.257145
0.379904 0.588983 0.257786
0.391959 0.589593 0.258259
0.407202 0.590402 0.258869
0.425437 0.591409 0.259632
0.446433 0.592615 0.260563
0.469932 0.594034 0.261631
0.495659 0.595636 0.262867
0.522438 0.597452 0.264271
0.548424 0.599466 0.265827
0.573465 0.601678 0.267567
0.597528 0.604074 0.269444
0.620615 0.606683 0.271504
0.642741 0.609461 0.273716
0.663951 0.612421 0.276097
0.684291 0.615564 0.27863
0.703792 0.61886 0.281331
0.392416 0.622644 0.268498
0.408225 0.623346 0.269108
0.419455 0.62385 0.269551
0.433738 0.624521 0.270146
0.450904 0.62536 0.270878
0.470771 0.626352 0.271763
0.493095 0.627512 0.272801
0.517143 0.628855 0.273976
0.541115 0.630365 0.275319
0.564675 0.632044 0.276829
0.587686 0.633875 0.278477
0.61001 0.635889 0.280293
0.631632 0.638071 0.282277
0.652522 0.640406 0.284413
0.672663 0.642908 0.286687
0.692073 0.645548 0.289143
0.710796 0.648341 0.291737
0.422217 0.65388 0.280308
0.436927 0.654475 0.280903
0.447456 0.654902 0.281331
0.460868 0.655467 0.281895
0.477058 0.656168 0.282597
0.495872 0.657008 0.283452
0.516625 0.657984 0.284443
0.537926 0.659113 0.285573
0.559426 0.660395 0.28687
0.580835 0.661799 0.288304
0.601953 0.663371 0.289891
0.622675 0.66508 0.291646
0.642893 0.666926 0.293538
0.662577 0.668925 0.295583
0.681666 0.671046 0.297795
0.700175 0.67332 0.300145
0.718105 0.675715 0.302647
0.452247 0.682475 0.292561
0.466011 0.682979 0.293126
0.475883 0.683345 0.293538
0.488518 0.683833 0.294087
0.503792 0.684428 0.294759
0.520882 0.685145 0.295567
0.539071 0.685985 0.296513
0.558007 0.686946 0.297612
0.577325 0.688045 0.298848
0.596796 0.68925 0.300221
0.61622 0.690593 0.301762
0.635431 0.692058 0.303441
0.654337 0.69366 0.305257
0.672847 0.695369 0.307225
0.690929 0.697215 0.309346
0.708553 0.699168 0.31162
0.725704 0.701244 0.314031
0.482475 0.708888 0.305196
0.495415 0.709316 0.305745
0.504677 0.709636 0.306142
0.516167 0.710048 0.306661
0.529534 0.710567 0.307301
0.544411 0.711192 0.30808
0.560464 0.71191 0.308995
0.577356 0.712749 0.310048
0.594797 0.713695 0.311223
0.612543 0.714748 0.312551
0.630396 0.715908 0.314031
0.648219 0.717189 0.315633
0.665873 0.718563 0.317388
0.683299 0.720058 0.319295
0.700404 0.72166 0.321324
0.717159 0.723369 0.323507
0.733532 0.725185 0.325841
0.512642 0.73344 0.318196
0.524056 0.733822 0.318715
0.532006 0.734096 0.319097
0.541909 0.734447 0.3196
0.553536 0.734905 0.320211
0.566613 0.735439 0.320958
0.580865 0.73608 0.321828
0.596002 0.736812 0.322835
0.611795 0.737636 0.32398
0.628 0.738552 0.325261
0.64445 0.739574 0.326665
0.66099 0.740688 0.328222
0.677485 0.741909 0.329915
0.693843 0.743221 0.331731
0.710018 0.744625 0.3337
0.725933 0.746136 0.335805
0.741558 0.747738 0.338033
0.0485389 0.0248569 0.220722
0.122484 0.0448463 0.221469
0.155901 0.0551003 0.222019
0.191012 0.0661631 0.222736
0.227314 0.0777752 0.223621
0.26453 0.0898146 0.224689
0.302495 0.102159 0.22594
0.3411 0.114763 0.227375
0.38024 0.127596 0.228977
0.419852 0.140612 0.230793
0.459922 0.153796 0.232776
0.500374 0.167132 0.234943
0.538445 0.180591 0.237293
0.57232 0.194186 0.239826
0.60293 0.207889 0.242542
0.630915 0.221698 0.245426
0.656733 0.235599 0.248478
0.0948348 0.138399 0.224704
0.147097 0.143343 0.225437
0.175906 0.146868 0.225971
0.20766 0.151369 0.226673
0.241474 0.156786 0.227558
0.276799 0.163088 0.228595
0.313283 0.170214 0.229831
0.350683 0.178058 0.231235
0.388861 0.186587 0.232822
0.427695 0.195727 0.234592
0.467079 0.205402 0.236545
