proprietary/odm/etc/camera/filters_lut/dolby_preview_sdr_3dlut.cube
TITLE "2081160954640"
LUT_3D_SIZE 5
#LUT data points
DOMAIN_MIN 0.000000 0.000000 0.000000
DOMAIN_MAX 0.903226 0.903226 0.903226
0.0168440 0.0331637 0.0339698
0.3002561 0.0742724 0.0674021
0.5219804 0.1291618 0.0954471
0.7099899 0.1989663 0.1224369
0.8926717 0.3196077 0.1698982
0.1430786 0.3115745 0.0425957
0.3090591 0.3135153 0.0403671
0.5448343 0.3141300 0.0326620
0.7302197 0.3159162 0.1009223
0.9060408 0.3526915 0.1582357
0.2582701 0.5564073 0.0768891
0.3086193 0.5591803 0.0768542
0.5543848 0.5612682 0.0731919
0.7436104 0.5559236 0.0628394
0.9260184 0.5446603 0.1268376
0.4053641 0.7460883 0.1206802
0.4062144 0.7469129 0.1209333
0.5504461 0.7478825 0.1195902
0.7393629 0.7448509 0.1132944
0.9363483 0.7282489 0.0885015
0.6294676 0.9331630 0.1974828
0.6295135 0.9332028 0.1975040
0.6302263 0.9338217 0.1978344
0.7201160 0.9335845 0.1959985
0.9209394 0.9261859 0.1825178
0.0736899 0.0728766 0.3072783
0.3051367 0.0812756 0.3128279
0.5333803 0.1354460 0.3110991
0.7202495 0.2060076 0.3078033
0.9016168 0.3283175 0.3074027
0.1577985 0.3124509 0.3101898
0.3115277 0.3142529 0.3128857
0.5495535 0.3142936 0.3139057
0.7375489 0.3137596 0.3107071
0.9139697 0.3445009 0.3053851
0.2678392 0.5594319 0.3112256
0.3086753 0.5614233 0.3124949
0.5576013 0.5627753 0.3111122
0.7474004 0.5577603 0.3067178
0.9316873 0.5451314 0.2974290
0.4125023 0.7489457 0.2998432
0.4133350 0.7497505 0.3000676
0.5523950 0.7499410 0.2980153
0.7417062 0.7467897 0.2929165
0.9395296 0.7299961 0.2824544
0.6327639 0.9354149 0.2679142
0.6331243 0.9357407 0.2669562
0.6335623 0.9361497 0.2644677
0.7209181 0.9353075 0.2583655
0.9223720 0.9275342 0.2445079
0.1240461 0.1147086 0.5244921
0.3075433 0.0931048 0.5442623
0.5431972 0.1453342 0.5485646
0.7308575 0.2160872 0.5424681
0.9126731 0.3406647 0.5197258
0.1849061 0.3131732 0.5420705
0.3130426 0.3145063 0.5508830
0.5530436 0.3143280 0.5575828
0.7430248 0.3105686 0.5537596
0.9231830 0.3503195 0.5258567
0.2859606 0.5595283 0.5560678
0.3063805 0.5615271 0.5605842
0.5582705 0.5615889 0.5607486
0.7489959 0.5579604 0.5561107
0.9379484 0.5438602 0.5297698
0.4257183 0.7504575 0.5473812
0.4265266 0.7511617 0.5488473
0.5539763 0.7509212 0.5490313
0.7428058 0.7472068 0.5436278
0.9431864 0.7317410 0.5225908
0.6402210 0.9385545 0.5056424
0.6402370 0.9385803 0.5050486
0.6404561 0.9387771 0.5050462
0.7230659 0.9376742 0.5019744
0.9246299 0.9291223 0.4864127
0.1903964 0.1579524 0.7186778
0.3064148 0.1142240 0.7394836
0.5513409 0.1625135 0.7468138
0.7410615 0.2314514 0.7425637
0.9235636 0.3560505 0.7154294
0.2342829 0.3205308 0.7329131
0.3119779 0.3190817 0.7441446
0.5564852 0.3161922 0.7523779
0.7471637 0.3078390 0.7506139
0.9314775 0.3636691 0.7225807
0.3212200 0.5591177 0.7480326
0.3257921 0.5606447 0.7533516
0.5596500 0.5606627 0.7553524
0.7494494 0.5564920 0.7527720
0.9421831 0.5415138 0.7299628
0.4493541 0.7493711 0.7455376
0.4498058 0.7495122 0.7471193
0.5549599 0.7492592 0.7482161
0.7429123 0.7457456 0.7446220
0.9448762 0.7314394 0.7290185
0.6498557 0.9397662 0.7147186
0.6501650 0.9400124 0.7154461
0.6501202 0.9399652 0.7155271
0.7240308 0.9385435 0.7142506
0.9258325 0.9298142 0.7035297
0.3289461 0.2462352 0.9333877
0.3359366 0.2082090 0.9487590
0.5565236 0.2071261 0.9612625
0.7476359 0.2673370 0.9620887
0.9391649 0.3895424 0.9382338
0.3553742 0.3571608 0.9410333
0.3615911 0.3475772 0.9516305
0.5576998 0.3313715 0.9629732
0.7483310 0.3109245 0.9653050
0.9420341 0.3927960 0.9425965
0.4164540 0.5622115 0.9515022
0.4200182 0.5616693 0.9569257
0.5592117 0.5592453 0.9636348
0.7468803 0.5535075 0.9642519
0.9453574 0.5390069 0.9476105
0.5170044 0.7434654 0.9533284
0.5185135 0.7440133 0.9554270
0.5529225 0.7437611 0.9591068
0.7411308 0.7412249 0.9581917
0.9433765 0.7280556 0.9462777
0.6734970 0.9371729 0.9327707
0.6735931 0.9371748 0.9332551
0.6734619 0.9368220 0.9342361
0.7238947 0.9355327 0.9340709
0.9241843 0.9271797 0.9259505
