proprietary/odm/etc/camera/filters_lut/dolby_preview_sdr_3dlut.cube
TITLE "2081160954640"
LUT_3D_SIZE 8
#LUT data points
DOMAIN_MIN 0.000000 0.000000 0.000000
DOMAIN_MAX 0.903226 0.903226 0.903226
0.0168440 0.0331637 0.0339698
0.2059749 0.0510012 0.0516370
0.3315630 0.0819867 0.0709698
0.4594879 0.1135357 0.0879159
0.5759561 0.1449886 0.1029115
0.6826751 0.1860170 0.1180116
0.7900699 0.2438614 0.1389592
0.8926717 0.3196077 0.1698982
0.0971400 0.2115365 0.0289194
0.2077881 0.2117187 0.0272797
0.3375028 0.2113267 0.0233385
0.4702746 0.2080666 0.0599143
0.5875524 0.2051623 0.0896677
0.6931740 0.1974466 0.1099529
0.7976979 0.2486924 0.1331272
0.8975681 0.3237947 0.1656821
0.1590655 0.3463884 0.0473551
0.2010354 0.3478470 0.0471177
0.3441701 0.3495665 0.0450180
0.4816759 0.3499702 0.0414357
0.6014286 0.3496485 0.0358308
0.7072035 0.3493175 0.0730379
0.8111614 0.3548177 0.1188401
0.9089483 0.3806432 0.1553500
0.2247737 0.4894775 0.0669170
0.2255112 0.4910835 0.0671365
0.3469636 0.4939410 0.0660954
0.4883389 0.4954759 0.0637977
0.6079527 0.4948710 0.0601273
0.7148605 0.4914829 0.0529936
0.8220833 0.4856334 0.0698746
0.9209891 0.4885789 0.1380767
0.2921471 0.6114870 0.0869746
0.2928846 0.6125806 0.0871942
0.3451105 0.6138225 0.0869220
0.4890788 0.6146280 0.0851560
0.6082676 0.6141598 0.0824107
0.7162501 0.6116407 0.0771130
0.8268758 0.6043351 0.0653046
0.9302496 0.5944311 0.1106138
0.3784813 0.7188818 0.1126770
0.3787430 0.7191580 0.1127549
0.3796033 0.7200640 0.1130110
0.4871892 0.7205276 0.1119969
0.6044847 0.7204051 0.1100283
0.7128766 0.7183455 0.1059672
0.8264503 0.7122590 0.0969027
0.9358529 0.7003568 0.0778745
0.5006663 0.8276983 0.1490527
0.5006663 0.8276983 0.1490527
0.5014438 0.8282908 0.1492850
0.5039860 0.8288147 0.1494733
0.5985858 0.8287982 0.1482782
0.7043438 0.8278924 0.1455414
0.8186305 0.8243126 0.1391503
0.9339383 0.8142767 0.1246581
0.6294676 0.9331630 0.1974828
0.6295135 0.9332028 0.1975040
0.6296359 0.9333090 0.1975607
0.6300052 0.9336296 0.1977318
0.6304606 0.9340251 0.1979432
0.6932937 0.9338965 0.1967742
0.8039249 0.9321309 0.1925726
0.9209394 0.9261859 0.1825178
0.0496615 0.0290006 0.2238384
0.2071633 0.0553433 0.2167102
0.3350994 0.0852415 0.2148934
0.4645062 0.1163421 0.2121908
0.5816278 0.1479444 0.2110295
0.6880312 0.1892704 0.2124659
0.7950751 0.2475774 0.2159008
0.8965292 0.3232618 0.2272555
0.1066807 0.2110665 0.2104813
0.2099180 0.2115744 0.2114458
0.3393945 0.2111360 0.2115157
0.4741360 0.2070932 0.2108953
0.5920977 0.2016477 0.2108191
0.6975326 0.1993991 0.2113929
0.8020404 0.2520529 0.2138105
0.9013141 0.3274006 0.2249883
0.1650765 0.3466357 0.2099811
0.1995148 0.3476832 0.2105184
0.3455077 0.3496144 0.2094922
0.4844308 0.3503092 0.2082240
0.6041867 0.3502681 0.2075536
0.7104104 0.3492432 0.2071279
0.8146324 0.3535063 0.2090559
0.9122669 0.3770992 0.2187536
0.2291961 0.4908738 0.2052314
0.2299511 0.4924894 0.2059225
0.3489007 0.4946710 0.2052535
0.4897376 0.4958420 0.2044032
0.6096379 0.4957438 0.2028751
0.7168803 0.4926825 0.2018462
0.8244984 0.4864379 0.2024833
0.9237128 0.4882489 0.2105553
0.2960626 0.6135754 0.1998891
0.2964896 0.6142375 0.1993476
0.3458423 0.6156311 0.1995208
0.4909025 0.6157659 0.1977451
0.6094630 0.6152845 0.1961617
0.7179352 0.6124717 0.1942861
0.8286572 0.6052894 0.1938034
0.9322257 0.5950714 0.2003872
0.3813347 0.7204332 0.1891795
0.3816080 0.7207374 0.1885484
0.3823339 0.7215202 0.1878756
0.4878381 0.7218314 0.1863193
0.6059099 0.7216717 0.1837777
0.7139712 0.7193264 0.1816783
0.8277044 0.7134768 0.1792054
0.9372114 0.7006826 0.1842772
0.5023704 0.8288864 0.1599665
0.5023821 0.8289029 0.1592878
0.5031002 0.8294735 0.1574993
0.5054719 0.8299443 0.1574483
0.5987537 0.8298592 0.1560674
0.7050811 0.8287660 0.1531327
0.8192672 0.8249318 0.1469047
0.9348408 0.8149325 0.1409150
0.6304818 0.9340435 0.1979530
0.6305216 0.9340781 0.1979715
0.6307184 0.9342490 0.1980629
0.6309940 0.9344885 0.1981911
0.6314108 0.9348506 0.1983850
0.6932656 0.9345181 0.1971196
0.8043954 0.9326312 0.1928348
0.9213967 0.9266597 0.1827525
0.0806471 0.0789652 0.3371463
0.2070014 0.0612517 0.3435484
0.3382089 0.0900460 0.3457027
0.4707574 0.1208715 0.3446965
0.5880866 0.1524244 0.3433784
0.6947370 0.1941900 0.3418764
0.8018312 0.2532581 0.3394314
0.9034154 0.3301708 0.3366650
0.1207429 0.2111059 0.3379483
0.2102601 0.2114674 0.3403255
0.3417352 0.2105773 0.3457095
0.4775535 0.2058441 0.3477285
0.5969339 0.1960868 0.3477944
0.7031561 0.2018953 0.3460541
0.8081302 0.2573894 0.3402356
0.9079574 0.3341781 0.3362973
0.1754330 0.3471794 0.3457285
0.1978216 0.3477167 0.3482831
0.3467986 0.3495083 0.3484376
0.4863072 0.3504332 0.3494596
0.6068045 0.3500958 0.3495769
0.7139763 0.3490496 0.3470812
0.8199134 0.3503453 0.3407691
0.9184106 0.3677414 0.3356876
0.2373763 0.4920769 0.3467048
0.2381959 0.4936785 0.3485366
0.3497401 0.4951154 0.3498858
0.4913278 0.4962875 0.3493134
0.6108853 0.4965573 0.3485705
0.7195100 0.4937448 0.3459396
0.8281707 0.4868485 0.3399397
0.9286647 0.4865983 0.3318945
0.3027832 0.6145842 0.3453283
0.3034345 0.6155223 0.3459581
0.3456159 0.6165173 0.3470486
0.4923925 0.6163912 0.3460918
0.6110589 0.6161573 0.3448001
0.7195337 0.6133588 0.3414042
0.8313201 0.6066652 0.3355805
0.9361841 0.5956537 0.3270142
0.3876954 0.7222220 0.3383628
0.3880663 0.7225994 0.3387746
0.3887871 0.7233593 0.3389274
0.4894034 0.7232087 0.3382950
0.6076837 0.7227192 0.3365087
0.7155423 0.7206242 0.3335628
0.8295542 0.7145736 0.3272187
0.9402270 0.7022748 0.3194170
0.5087549 0.8311156 0.3238390
0.5087549 0.8311156 0.3238390
0.5092795 0.8315270 0.3238601
0.5109448 0.8316681 0.3238490
0.6001290 0.8315231 0.3220065
0.7065038 0.8301495 0.3187927
0.8208613 0.8260646 0.3139154
0.9366654 0.8161310 0.3047521
0.6340023 0.9361126 0.3037188
0.6340150 0.9361266 0.3034689
0.6340346 0.9361524 0.3027277
0.6342954 0.9363931 0.3017287
0.6344623 0.9365558 0.3003352
0.6941462 0.9361621 0.2971753
0.8055313 0.9339834 0.2911275
0.9227584 0.9278653 0.2824451
0.1096843 0.1050814 0.4609959
0.2047046 0.0689300 0.4758333
0.3408130 0.0964531 0.4806696
0.4760101 0.1265894 0.4826647
0.5946135 0.1581195 0.4812102
0.7008975 0.1998178 0.4778695
0.8079157 0.2592364 0.4702017
0.9095860 0.3370275 0.4577566
0.1399384 0.2141465 0.4666552
0.2075941 0.2135622 0.4740205
0.3432063 0.2116044 0.4814593
0.4809101 0.2046077 0.4869841
0.6013121 0.1841508 0.4893721
0.7078157 0.2045675 0.4843669
0.8136564 0.2630838 0.4733009
0.9137313 0.3407614 0.4595853
0.1895961 0.3474994 0.4812895
0.1966516 0.3482413 0.4861177
0.3482800 0.3496073 0.4889136
0.4879662 0.3507470 0.4926113
0.6087952 0.3500928 0.4931636
0.7163629 0.3482627 0.4903230
0.8234994 0.3477288 0.4795008
0.9233542 0.3585316 0.4632818
0.2484055 0.4917800 0.4886626
0.2492608 0.4932164 0.4915311
0.3509267 0.4948922 0.4937948
0.4925041 0.4960373 0.4952087
0.6122305 0.4958801 0.4946718
0.7204384 0.4935941 0.4911599
0.8306901 0.4869041 0.4813638
0.9327702 0.4846899 0.4634028
0.3121785 0.6152107 0.4901137
0.3124279 0.6155108 0.4909084
0.3410162 0.6162426 0.4933854
0.4931653 0.6165362 0.4927877
0.6117148 0.6158745 0.4914715
0.7199521 0.6133994 0.4876617
0.8332923 0.6066684 0.4785616
0.9394226 0.5958785 0.4620532
0.3955207 0.7231818 0.4829941
0.3955593 0.7232061 0.4832818
0.3963380 0.7239470 0.4849420
0.4900213 0.7238286 0.4842099
0.6083858 0.7230034 0.4826873
0.7160906 0.7205685 0.4790170
0.8306380 0.7151365 0.4714017
0.9424786 0.7031512 0.4563286
0.5152220 0.8324629 0.4654233
0.5153164 0.8325394 0.4654167
0.5155578 0.8327043 0.4663744
0.5168352 0.8329648 0.4668654
0.6012068 0.8324640 0.4652310
0.7071996 0.8310147 0.4619029
0.8222549 0.8267459 0.4553627
0.9382241 0.8171680 0.4430951
0.6380328 0.9377856 0.4386802
0.6380327 0.9377856 0.4386734
0.6384301 0.9381528 0.4378763
0.6384252 0.9381529 0.4376045
0.6384198 0.9381530 0.4373053
0.6950792 0.9375565 0.4348905
0.8066256 0.9352066 0.4292490
0.9240480 0.9288614 0.4194990
0.1388276 0.1257097 0.5788671
0.1977917 0.0777509 0.5956193
0.3423231 0.1042606 0.6007610
0.4800130 0.1333783 0.6034777
0.6000741 0.1646844 0.6035731
0.7065662 0.2061968 0.5998390
0.8134433 0.2655986 0.5906268
0.9153559 0.3440897 0.5744033
0.1626006 0.2186071 0.5850673
0.1971719 0.2163112 0.5931141
0.3442246 0.2129090 0.6013712
0.4836258 0.2050881 0.6074261
0.6048314 0.1806823 0.6111165
0.7114642 0.2089418 0.6063043
0.8179401 0.2687003 0.5944355
0.9189582 0.3473969 0.5766555
0.2074109 0.3486033 0.5993632
0.2110457 0.3493743 0.6042425
0.3489805 0.3504520 0.6085497
0.4892892 0.3511094 0.6123200
0.6101563 0.3501120 0.6141777
0.7182025 0.3475961 0.6119277
0.8264977 0.3451359 0.6016206
0.9275602 0.3607782 0.5828036
0.2630177 0.4925562 0.6082789
0.2637245 0.4932281 0.6110424
0.3511201 0.4949134 0.6142079
0.4936505 0.4957451 0.6158184
0.6122704 0.4956249 0.6158893
0.7212260 0.4927052 0.6139005
0.8324212 0.4858361 0.6048000
0.9358291 0.4826931 0.5855193
0.3237241 0.6148314 0.6111901
0.3241005 0.6151695 0.6124643
0.3422024 0.6158845 0.6153446
0.4941153 0.6159556 0.6151245
0.6119346 0.6152242 0.6141751
0.7203709 0.6128514 0.6117290
0.8339926 0.6065444 0.6038973
0.9416208 0.5954520 0.5864737
0.4046024 0.7229527 0.6067153
0.4046320 0.7229520 0.6070108
0.4055057 0.7237164 0.6087828
0.4907594 0.7235793 0.6090177
0.6085571 0.7225848 0.6075118
0.7161575 0.7203176 0.6051732
0.8312564 0.7151650 0.5982622
0.9440681 0.7035335 0.5835408
0.5220532 0.8328410 0.5926377
0.5220642 0.8328493 0.5926551
0.5227331 0.8333925 0.5929581
0.5227979 0.8333912 0.5939355
0.6024198 0.8327425 0.5928795
0.7079637 0.8311935 0.5906564
0.8227545 0.8268047 0.5850378
0.9391917 0.8176446 0.5725934
0.6424204 0.9391473 0.5661942
0.6424204 0.9391473 0.5661942
0.6424204 0.9391473 0.5661942
0.6426289 0.9393359 0.5662062
0.6424018 0.9391377 0.5659285
0.6961498 0.9383999 0.5644795
0.8071713 0.9361653 0.5592794
0.9250858 0.9295254 0.5498200
0.1776812 0.1498732 0.6896594
0.1844268 0.1148687 0.7044448
0.3425124 0.1162519 0.7117964
0.4839439 0.1440750 0.7163924
0.6049929 0.1744268 0.7175457
0.7125023 0.2154613 0.7146437
0.8197891 0.2745118 0.7036617
0.9217864 0.3531827 0.6858271
0.1959741 0.2271541 0.6950031
0.2013686 0.2232770 0.7040493
0.3452058 0.2174641 0.7121333
0.4865108 0.2068562 0.7192750
0.6081216 0.1838156 0.7230197
0.7159858 0.2174315 0.7192837
0.8232896 0.2770388 0.7072681
0.9248364 0.3560682 0.6884157
0.2353187 0.3518658 0.7077964
0.2367785 0.3518785 0.7124412
0.3493893 0.3520276 0.7186764
0.4913878 0.3522843 0.7227318
0.6113588 0.3502976 0.7251318
0.7197134 0.3472512 0.7235906
0.8294767 0.3423580 0.7140761
0.9319292 0.3634590 0.6948860
0.2860112 0.4928998 0.7171689
0.2869801 0.4934521 0.7200099
0.3507608 0.4953411 0.7241049
0.4944477 0.4955216 0.7260494
0.6127811 0.4947799 0.7266968
0.7214967 0.4922528 0.7250423
0.8335560 0.4849926 0.7173068
0.9388642 0.4806636 0.6987905
0.3425438 0.6139534 0.7209067
0.3430026 0.6142864 0.7220619
0.3513527 0.6153581 0.7250034
0.4947975 0.6152025 0.7257401
0.6121116 0.6142781 0.7253441
0.7204335 0.6118709 0.7234481
0.8344573 0.6057379 0.7172179
0.9436996 0.5950660 0.7011769
0.4193241 0.7220014 0.7180732
0.4196068 0.7221365 0.7189694
0.4202948 0.7225863 0.7205718
0.4902913 0.7224853 0.7212880
0.6089686 0.7216018 0.7203223
0.7164083 0.7194400 0.7181441
0.8314959 0.7143875 0.7128381
0.9452402 0.7034516 0.6996813
0.5323772 0.8326331 0.7071235
0.5324394 0.8326884 0.7071243
0.5329672 0.8331040 0.7076185
0.5327633 0.8328084 0.7086738
0.6018086 0.8323550 0.7083193
0.7082079 0.8305526 0.7063007
0.8227438 0.8264846 0.7016090
0.9397673 0.8178341 0.6914765
0.6480515 0.9398073 0.6842714
0.6480803 0.9398067 0.6847971
0.6480834 0.9398066 0.6848534
0.6483362 0.9400420 0.6848557
0.6480851 0.9398066 0.6848843
0.6970119 0.9388202 0.6841806
0.8080622 0.9362118 0.6803207
0.9257959 0.9297108 0.6723395
0.2378480 0.1868083 0.8089665
0.2402915 0.1698204 0.8182141
0.3420589 0.1374653 0.8310043
0.4874345 0.1630336 0.8367722
0.6096279 0.1914695 0.8390119
0.7176639 0.2306250 0.8375164
0.8272381 0.2890945 0.8278204
0.9300161 0.3673832 0.8079018
0.2514292 0.2464959 0.8136231
0.2539860 0.2414560 0.8203475
0.3443872 0.2293993 0.8316495
0.4892384 0.2139704 0.8390759
0.6107413 0.1982494 0.8430182
0.7191604 0.2317319 0.8406529
0.8290340 0.2905608 0.8305396
0.9322761 0.3696418 0.8103771
0.2838158 0.3609712 0.8236774
0.2857987 0.3598141 0.8282900
0.3480092 0.3581531 0.8364270
0.4933946 0.3556340 0.8412430
0.6123511 0.3526322 0.8435789
0.7208473 0.3475810 0.8431825
0.8326234 0.3387570 0.8353062
0.9374283 0.3748474 0.8160268
0.3275618 0.4954527 0.8326067
0.3287172 0.4956508 0.8350330
0.3431920 0.4956005 0.8409284
0.4953779 0.4956759 0.8433896
0.6129707 0.4940419 0.8444431
0.7211258 0.4906646 0.8436871
0.8342452 0.4838879 0.8373476
0.9424462 0.4774806 0.8202892
0.3772416 0.6125212 0.8365108
0.3778981 0.6126856 0.8379417
0.3795512 0.6131501 0.8414410
0.4951396 0.6134010 0.8433466
0.6122769 0.6126429 0.8436198
0.7196608 0.6101941 0.8422877
0.8339313 0.6042465 0.8372093
0.9452542 0.5935833 0.8223891
0.4471000 0.7198106 0.8353901
0.4473962 0.7198686 0.8361373
0.4485457 0.7204747 0.8381102
0.4886325 0.7203247 0.8398186
0.6092996 0.7195541 0.8395435
0.7156561 0.7174550 0.8379158
0.8302969 0.7125742 0.8336755
0.9455210 0.7022860 0.8222719
0.5504853 0.8311466 0.8269587
0.5506737 0.8312420 0.8273883
0.5508681 0.8312672 0.8281741
0.5510746 0.8312632 0.8291489
0.6029534 0.8306175 0.8294067
0.7079625 0.8291251 0.8278802
0.8218334 0.8249117 0.8238189
0.9395913 0.8166028 0.8152108
0.6575275 0.9395622 0.8081169
0.6576152 0.9396446 0.8081541
0.6576460 0.9396749 0.8081532
0.6574917 0.9394510 0.8088435
0.6572377 0.9391955 0.8088963
0.6962922 0.9383353 0.8084027
0.8080272 0.9355462 0.8052971
0.9250536 0.9293085 0.7987166
0.3289461 0.2462352 0.9333877
0.3315688 0.2340842 0.9390339
0.3428561 0.1912349 0.9524221
0.4894267 0.1948236 0.9591111
0.6114603 0.2200965 0.9627096
0.7198274 0.2555547 0.9627240
0.8320654 0.3112366 0.9561230
0.9391649 0.3895424 0.9382338
0.3380066 0.2885036 0.9358833
0.3409520 0.2824993 0.9410103
0.3496773 0.2624123 0.9524641
0.4898886 0.2403495 0.9602156
0.6107068 0.2241127 0.9646920
0.7200252 0.2560751 0.9644525
0.8327198 0.3120094 0.9579293
0.9400561 0.3905780 0.9397829
0.3626970 0.3847009 0.9428218
0.3646772 0.3817907 0.9462992
0.3702055 0.3742944 0.9549649
0.4930923 0.3670430 0.9611168
0.6119174 0.3613507 0.9645699
0.7199571 0.3528290 0.9655948
0.8337502 0.3309027 0.9610861
0.9426068 0.3934819 0.9436891
0.3967372 0.5046287 0.9490462
0.3984368 0.5044869 0.9514849
0.4019486 0.5015378 0.9574155
0.4953824 0.4985288 0.9623909
0.6121901 0.4961587 0.9648271
0.7194142 0.4914279 0.9649990
0.8335215 0.4839493 0.9608326
0.9448209 0.4757093 0.9466215
0.4375971 0.6123238 0.9529962
0.4386212 0.6123342 0.9545419
0.4411715 0.6122944 0.9583927
0.4940248 0.6113431 0.9623521
0.6113815 0.6100475 0.9640256
0.7180613 0.6077136 0.9638479
0.8322913 0.6017046 0.9600721
0.9456424 0.5919336 0.9480040
0.4974633 0.7162850 0.9538365
0.4980329 0.7162811 0.9548193
0.4997595 0.7169638 0.9569420
0.5041246 0.7163193 0.9599570
0.6090907 0.7160507 0.9607723
0.7144809 0.7143603 0.9604732
0.8283296 0.7093896 0.9569102
0.9443395 0.6997514 0.9470569
0.5811437 0.8273061 0.9483975
0.5812883 0.8273038 0.9488083
0.5816853 0.8272975 0.9499334
0.5822601 0.8273595 0.9513910
0.5980941 0.8271866 0.9524208
0.7074804 0.8258831 0.9517152
0.8204439 0.8221718 0.9486133
0.9379117 0.8141141 0.9409033
0.6734970 0.9371729 0.9327707
0.6735771 0.9371751 0.9331713
0.6735931 0.9371748 0.9332551
0.6737207 0.9372084 0.9337504
0.6734536 0.9367984 0.9343039
0.6955259 0.9357266 0.9345650
0.8074600 0.9332714 0.9319761
0.9241843 0.9271797 0.9259505
