proprietary/odm/etc/camera/filters_lut/dolby_preview_3dlut.cube
#Created by : Dolby Laboratories
#Copyright: (C) Copyright 2022 Dolby Laboratories
#is_rgb_input 1
#is_rgb_output 1
#input_offset 0.000000
#shape_order 1.000000
#format 6
# MaxLuma:1000.00 MinLuma:0.00010 Eotf=Gamma
#LUT Size
LUT_3D_SIZE 5
#data domain
DOMAIN_MIN 0 0 0
DOMAIN_MAX 1.0 1.0 1.0
#LUT data points
0.0000000000 0.0009775171 0.0009775171
0.1456500441 0.0000000000 0.0087976540
0.2991202474 0.0000000000 0.0234604105
0.5278592110 0.0000000000 0.0518084057
0.9237536788 0.0000000000 0.1075268835
0.0000000000 0.1505376399 0.0000000000
0.1534701884 0.1524926722 0.0000000000
0.3245356679 0.1476050764 0.0000000000
0.5630498528 0.1221896410 0.0381231681
0.9560117126 0.0547409579 0.1016617790
0.0000000000 0.3206256032 0.0000000000
0.0957966745 0.3225806355 0.0000000000
0.3255131841 0.3235581517 0.0000000000
0.5933528543 0.3088954091 0.0000000000
1.0000000000 0.2512218952 0.0811339170
0.0000000000 0.5738025308 0.0000000000
0.0000000000 0.5747800469 0.0000000000
0.2414467186 0.5767350793 0.0000000000
0.5718474984 0.5689149499 0.0000000000
1.0000000000 0.5141739845 0.0000000000
0.0000000000 1.0000000000 0.0000000000
0.0000000000 1.0000000000 0.0000000000
0.0000000000 1.0000000000 0.0000000000
0.3421309888 1.0000000000 0.0000000000
0.9990224838 0.9941349030 0.0000000000
0.0000000000 0.0068426197 0.1133919880
0.1485826075 0.0000000000 0.1348973662
0.3079178929 0.0000000000 0.1505376399
0.5444770455 0.0000000000 0.1671554297
0.9472140670 0.0000000000 0.1886608005
0.0000000000 0.1515151560 0.1466275603
0.1505376399 0.1524926722 0.1515151560
0.3274682164 0.1476050764 0.1612903178
0.5757575631 0.1153470203 0.1710654944
0.9775171280 0.0000000000 0.1876832843
0.0000000000 0.3235581517 0.1622678339
0.0850439891 0.3255131841 0.1642228812
0.3255131841 0.3255131841 0.1671554297
0.6001955271 0.3108504415 0.1720430106
1.0000000000 0.2453567982 0.1837732196
0.0000000000 0.5796676278 0.1564027369
0.0000000000 0.5806451440 0.1564027369
0.2385141701 0.5806451440 0.1564027369
0.5747800469 0.5728250146 0.1564027369
1.0000000000 0.5161290169 0.1642228812
0.0000000000 1.0000000000 0.0576735102
0.0000000000 1.0000000000 0.0557184741
0.0000000000 1.0000000000 0.0488758571
0.3391984403 1.0000000000 0.0195503421
1.0000000000 0.9980449677 0.0000000000
0.0000000000 0.0205278601 0.2365591377
0.1466275603 0.0000000000 0.2619745731
0.3157380223 0.0000000000 0.2864125073
0.5620723367 0.0000000000 0.3059628606
0.9794721603 0.0000000000 0.3157380223
0.0000000000 0.1524926722 0.2776148617
0.1417399794 0.1534701884 0.2883675396
0.3274682164 0.1456500441 0.3049853444
0.5845552087 0.1055718511 0.3176930547
1.0000000000 0.0000000000 0.3206256032
0.0000000000 0.3245356679 0.3137829900
0.0508308895 0.3255131841 0.3176930547
0.3216031194 0.3245356679 0.3235581517
0.6031280756 0.3098729253 0.3304007947
1.0000000000 0.2355816215 0.3264907002
0.0000000000 0.5826001763 0.3274682164
0.0000000000 0.5835776925 0.3284457624
0.2297165245 0.5826001763 0.3294232786
0.5747800469 0.5738025308 0.3304007947
1.0000000000 0.5171065331 0.3255131841
0.0000000000 1.0000000000 0.2922776043
0.0000000000 1.0000000000 0.2922776043
0.0000000000 1.0000000000 0.2913000882
0.3343108594 1.0000000000 0.2893450558
1.0000000000 1.0000000000 0.2844574749
0.0000000000 0.0449657887 0.4379276633
0.1202346012 0.0000000000 0.4672531784
0.3167155385 0.0000000000 0.5034213066
0.5806451440 0.0000000000 0.5268816948
1.0000000000 0.0000000000 0.5210165977
0.0000000000 0.1593352854 0.4789833724
0.1006842628 0.1564027369 0.4975562096
0.3186705709 0.1436950117 0.5219941139
0.5913978219 0.0879765376 0.5415444970
1.0000000000 0.0000000000 0.5298142433
0.0000000000 0.3235581517 0.5307917595
0.0000000000 0.3245356679 0.5376344323
0.3059628606 0.3225806355 0.5493646264
0.5972629786 0.3069403768 0.5601173043
1.0000000000 0.2209188640 0.5474095941
0.0000000000 0.5806451440 0.5620723367
0.0000000000 0.5816226602 0.5640273690
0.2023460418 0.5806451440 0.5669599175
0.5659824014 0.5708699822 0.5689149499
1.0000000000 0.5171065331 0.5601173043
0.0000000000 1.0000000000 0.5415444970
0.0000000000 1.0000000000 0.5415444970
0.0000000000 1.0000000000 0.5415444970
0.3167155385 1.0000000000 0.5405669808
1.0000000000 1.0000000000 0.5327468514
0.0000000000 0.1124144644 0.8748778105
0.0000000000 0.0791788846 0.9032257795
0.2570869923 0.0000000000 0.9501466155
0.5698924661 0.0000000000 0.9912023544
1.0000000000 0.0000000000 0.9726295471
0.0000000000 0.1886608005 0.9002932310
0.0000000000 0.1769305915 0.9237536788
0.2492668629 0.1476050764 0.9638318419
0.5689149499 0.0332355835 0.9990224838
1.0000000000 0.0000000000 0.9814271927
0.0000000000 0.3274682164 0.9511241317
0.0000000000 0.3255131841 0.9638318419
0.2150537670 0.3196480870 0.9902248383
0.5620723367 0.2971652150 1.0000000000
1.0000000000 0.1906158328 1.0000000000
0.0000000000 0.5689149499 1.0000000000
0.0000000000 0.5689149499 1.0000000000
0.0000000000 0.5679374337 1.0000000000
0.5219941139 0.5601173043 1.0000000000
1.0000000000 0.5063538551 1.0000000000
0.0000000000 1.0000000000 1.0000000000
0.0000000000 1.0000000000 1.0000000000
0.0000000000 1.0000000000 1.0000000000
0.2336265892 1.0000000000 1.0000000000
0.9882698059 0.9970674515 0.9941349030
