proprietary/odm/etc/camera/filters_lut/dolby_preview_3dlut.cube
#Created by : Dolby Laboratories
#Copyright: (C) Copyright 2022 Dolby Laboratories
#is_rgb_input 1
#is_rgb_output 1
#input_offset 0.000000
#shape_order 1.000000
#format 6
# MaxLuma:1000.00 MinLuma:0.00010 Eotf=Gamma
#LUT Size
LUT_3D_SIZE 33
#data domain
DOMAIN_MIN 0 0 0
DOMAIN_MAX 1.0 1.0 1.0
#LUT data points
0.0000000000 0.0009775171 0.0009775171
0.0166177917 0.0000000000 0.0000000000
0.0332355835 0.0000000000 0.0009775171
0.0518084057 0.0000000000 0.0019550342
0.0703812316 0.0000000000 0.0039100684
0.0889540538 0.0000000000 0.0048875855
0.1075268835 0.0000000000 0.0058651026
0.1270772219 0.0000000000 0.0078201368
0.1456500441 0.0000000000 0.0087976540
0.1652003974 0.0000000000 0.0107526882
0.1847507358 0.0000000000 0.0127077224
0.2033235580 0.0000000000 0.0146627566
0.2228738964 0.0000000000 0.0156402737
0.2414467186 0.0000000000 0.0175953079
0.2609970570 0.0000000000 0.0195503421
0.2795698941 0.0000000000 0.0215053763
0.2991202474 0.0000000000 0.0234604105
0.3186705709 0.0000000000 0.0263929628
0.3411534727 0.0000000000 0.0283479970
0.3655914068 0.0000000000 0.0312805474
0.3929618895 0.0000000000 0.0342130996
0.4232649207 0.0000000000 0.0381231681
0.4555229843 0.0000000000 0.0420332365
0.4897360802 0.0000000000 0.0469208211
0.5278592110 0.0000000000 0.0518084057
0.5669599175 0.0000000000 0.0566959940
0.6099706888 0.0000000000 0.0625610948
0.6549364328 0.0000000000 0.0694037154
0.7028347850 0.0000000000 0.0762463361
0.7536656857 0.0000000000 0.0830889568
0.8074291348 0.0000000000 0.0909090936
0.8631476164 0.0000000000 0.0987292305
0.9237536788 0.0000000000 0.1075268835
0.0000000000 0.0156402737 0.0000000000
0.0156402737 0.0156402737 0.0000000000
0.0342130996 0.0156402737 0.0000000000
0.0518084057 0.0136852395 0.0000000000
0.0713587478 0.0087976540 0.0019550342
0.0899315774 0.0000000000 0.0039100684
0.1085043997 0.0000000000 0.0058651026
0.1280547380 0.0000000000 0.0068426197
0.1466275603 0.0000000000 0.0087976540
0.1661779135 0.0000000000 0.0107526882
0.1847507358 0.0000000000 0.0117302053
0.2043010741 0.0000000000 0.0136852395
0.2238514125 0.0000000000 0.0156402737
0.2424242496 0.0000000000 0.0175953079
0.2619745731 0.0000000000 0.0195503421
0.2805474102 0.0000000000 0.0215053763
0.3000977635 0.0000000000 0.0234604105
0.3196480870 0.0000000000 0.0254154447
0.3421309888 0.0000000000 0.0283479970
0.3665689230 0.0000000000 0.0312805474
0.3939394057 0.0000000000 0.0342130996
0.4242424369 0.0000000000 0.0381231681
0.4565005004 0.0000000000 0.0420332365
0.4907135963 0.0000000000 0.0459433049
0.5288367271 0.0000000000 0.0508308895
0.5679374337 0.0000000000 0.0566959940
0.6109482050 0.0000000000 0.0625610948
0.6559139490 0.0000000000 0.0694037154
0.7038123012 0.0000000000 0.0752688199
0.7546432018 0.0000000000 0.0830889568
0.8074291348 0.0000000000 0.0909090936
0.8641251326 0.0000000000 0.0987292305
0.9237536788 0.0000000000 0.1075268835
0.0000000000 0.0332355835 0.0000000000
0.0097751711 0.0332355835 0.0000000000
0.0332355835 0.0332355835 0.0000000000
0.0527859256 0.0332355835 0.0000000000
0.0723362640 0.0322580636 0.0000000000
0.0909090936 0.0312805474 0.0000000000
0.1104594320 0.0283479970 0.0009775171
0.1290322542 0.0254154447 0.0039100684
0.1485826075 0.0195503421 0.0068426197
0.1681329459 0.0097751711 0.0087976540
0.1867057681 0.0000000000 0.0107526882
0.2062561065 0.0000000000 0.0127077224
0.2258064449 0.0000000000 0.0146627566
0.2443792820 0.0000000000 0.0166177917
0.2639296055 0.0000000000 0.0185728259
0.2825024426 0.0000000000 0.0205278601
0.3020527959 0.0000000000 0.0224828944
0.3225806355 0.0000000000 0.0244379286
0.3440860212 0.0000000000 0.0273704790
0.3695014715 0.0000000000 0.0303030312
0.3968719542 0.0000000000 0.0332355835
0.4261974692 0.0000000000 0.0371456519
0.4584555328 0.0000000000 0.0410557203
0.4936461449 0.0000000000 0.0459433049
0.5307917595 0.0000000000 0.0508308895
0.5708699822 0.0000000000 0.0557184741
0.6129032373 0.0000000000 0.0615835786
0.6578690410 0.0000000000 0.0684261993
0.7057673335 0.0000000000 0.0752688199
0.7565982342 0.0000000000 0.0821114406
0.8093841672 0.0000000000 0.0899315774
0.8660801649 0.0000000000 0.0987292305
0.9257087111 0.0000000000 0.1075268835
0.0000000000 0.0518084057 0.0000000000
0.0000000000 0.0518084057 0.0000000000
0.0303030312 0.0518084057 0.0000000000
0.0518084057 0.0518084057 0.0000000000
0.0723362640 0.0518084057 0.0000000000
0.0918866098 0.0508308895 0.0000000000
0.1114369482 0.0508308895 0.0000000000
0.1309872866 0.0488758571 0.0000000000
0.1505376399 0.0469208211 0.0000000000
0.1700879782 0.0449657887 0.0039100684
0.1896383166 0.0420332365 0.0068426197
0.2091886550 0.0381231681 0.0097751711
0.2287390083 0.0332355835 0.0117302053
0.2473118305 0.0263929628 0.0146627566
0.2668621838 0.0146627566 0.0166177917
0.2864125073 0.0000000000 0.0185728259
0.3049853444 0.0000000000 0.0205278601
0.3255131841 0.0000000000 0.0234604105
0.3479960859 0.0000000000 0.0263929628
0.3734115362 0.0000000000 0.0293255132
0.4007820189 0.0000000000 0.0322580636
0.4301075339 0.0000000000 0.0361681320
0.4623655975 0.0000000000 0.0400782004
0.4975562096 0.0000000000 0.0449657887
0.5347018838 0.0000000000 0.0498533733
0.5738025308 0.0000000000 0.0547409579
0.6158357859 0.0000000000 0.0606060624
0.6617791057 0.0000000000 0.0674486831
0.7086998820 0.0000000000 0.0742913038
0.7595307827 0.0000000000 0.0821114406
0.8123167157 0.0000000000 0.0899315774
0.8690127134 0.0000000000 0.0977517143
0.9286412597 0.0000000000 0.1065493673
0.0000000000 0.0713587478 0.0000000000
0.0000000000 0.0713587478 0.0000000000
0.0205278601 0.0713587478 0.0000000000
0.0488758571 0.0713587478 0.0000000000
0.0713587478 0.0713587478 0.0000000000
0.0918866098 0.0713587478 0.0000000000
0.1124144644 0.0713587478 0.0000000000
0.1319648027 0.0703812316 0.0000000000
0.1524926722 0.0694037154 0.0000000000
0.1720430106 0.0684261993 0.0000000000
0.1925708652 0.0664711669 0.0000000000
0.2121212184 0.0645161271 0.0000000000
0.2316715568 0.0615835786 0.0068426197
0.2512218952 0.0586510263 0.0107526882
0.2707722485 0.0557184741 0.0127077224
0.2903225720 0.0518084057 0.0156402737
0.3098729253 0.0469208211 0.0185728259
0.3294232786 0.0420332365 0.0205278601
0.3528836668 0.0332355835 0.0234604105
0.3773216009 0.0195503421 0.0273704790
0.4046920836 0.0000000000 0.0303030312
0.4349951148 0.0000000000 0.0342130996
0.4672531784 0.0000000000 0.0391006842
0.5014662743 0.0000000000 0.0430107526
0.5386119485 0.0000000000 0.0488758571
0.5786901116 0.0000000000 0.0537634417
0.6207233667 0.0000000000 0.0596285425
0.6656891704 0.0000000000 0.0664711669
0.7135874629 0.0000000000 0.0733137801
0.7634408474 0.0000000000 0.0811339170
0.8172042966 0.0000000000 0.0889540538
0.8729227781 0.0000000000 0.0967741907
0.9315738082 0.0000000000 0.1065493673
0.0000000000 0.0899315774 0.0000000000
0.0000000000 0.0899315774 0.0000000000
0.0000000000 0.0909090936 0.0000000000
0.0439882688 0.0909090936 0.0000000000
0.0694037154 0.0909090936 0.0000000000
0.0918866098 0.0909090936 0.0000000000
0.1124144644 0.0909090936 0.0000000000
0.1329423338 0.0909090936 0.0000000000
0.1534701884 0.0899315774 0.0000000000
0.1739980429 0.0899315774 0.0000000000
0.1945258975 0.0889540538 0.0000000000
0.2140762508 0.0869990215 0.0000000000
0.2346041054 0.0860215053 0.0000000000
0.2541544437 0.0840664729 0.0000000000
0.2746823132 0.0821114406 0.0058651026
0.2942326367 0.0791788846 0.0107526882
0.3137829900 0.0772238523 0.0136852395
0.3343108594 0.0733137801 0.0175953079
0.3577712476 0.0694037154 0.0205278601
0.3822091818 0.0645161271 0.0244379286
0.4105571806 0.0586510263 0.0283479970
0.4398826957 0.0498533733 0.0322580636
0.4721407592 0.0391006842 0.0371456519
0.5073313713 0.0175953079 0.0410557203
0.5444770455 0.0000000000 0.0469208211
0.5845552087 0.0000000000 0.0527859256
0.6265884638 0.0000000000 0.0586510263
0.6715542674 0.0000000000 0.0654936433
0.7184750438 0.0000000000 0.0723362640
0.7693059444 0.0000000000 0.0801564008
0.8220918775 0.0000000000 0.0879765376
0.8778103590 0.0000000000 0.0967741907
0.9364613891 0.0000000000 0.1055718511
0.0000000000 0.1094819158 0.0000000000
0.0000000000 0.1104594320 0.0000000000
0.0000000000 0.1104594320 0.0000000000
0.0332355835 0.1104594320 0.0000000000
0.0645161271 0.1104594320 0.0000000000
0.0889540538 0.1104594320 0.0000000000
0.1114369482 0.1114369482 0.0000000000
0.1329423338 0.1104594320 0.0000000000
0.1544477046 0.1104594320 0.0000000000
0.1749755591 0.1104594320 0.0000000000
0.1955034286 0.1094819158 0.0000000000
0.2160312831 0.1094819158 0.0000000000
0.2365591377 0.1075268835 0.0000000000
0.2570869923 0.1065493673 0.0000000000
0.2776148617 0.1055718511 0.0000000000
0.2981427312 0.1036168113 0.0000000000
0.3176930547 0.1016617790 0.0048875855
0.3391984403 0.0997067466 0.0107526882
0.3616813421 0.0967741907 0.0156402737
0.3870967627 0.0928641260 0.0205278601
0.4154447615 0.0889540538 0.0244379286
0.4457477927 0.0840664729 0.0293255132
0.4780058563 0.0782013685 0.0342130996
0.5131964684 0.0703812316 0.0391006842
0.5503421426 0.0606060624 0.0449657887
0.5904203057 0.0469208211 0.0508308895
0.6324535608 0.0283479970 0.0566959940
0.6774193645 0.0000000000 0.0635386109
0.7253177166 0.0000000000 0.0713587478
0.7751710415 0.0000000000 0.0782013685
0.8279569745 0.0000000000 0.0869990215
0.8836754560 0.0000000000 0.0957966745
0.9423264861 0.0000000000 0.1045943275
0.0000000000 0.1300097704 0.0000000000
0.0000000000 0.1300097704 0.0000000000
0.0000000000 0.1300097704 0.0000000000
0.0000000000 0.1309872866 0.0000000000
0.0566959940 0.1309872866 0.0000000000
0.0850439891 0.1309872866 0.0000000000
0.1094819158 0.1309872866 0.0000000000
0.1319648027 0.1309872866 0.0000000000
0.1544477046 0.1309872866 0.0000000000
0.1759530753 0.1309872866 0.0000000000
0.1964809448 0.1309872866 0.0000000000
0.2179863155 0.1300097704 0.0000000000
0.2385141701 0.1300097704 0.0000000000
0.2600195408 0.1290322542 0.0000000000
0.2805474102 0.1280547380 0.0000000000
0.3010752797 0.1260997057 0.0000000000
0.3216031194 0.1251221895 0.0000000000
0.3431085050 0.1231671572 0.0000000000
0.3665689230 0.1212121248 0.0058651026
0.3919843733 0.1182795689 0.0136852395
0.4203323424 0.1153470203 0.0195503421
0.4506353736 0.1114369482 0.0254154447
0.4838709533 0.1065493673 0.0303030312
0.5190615654 0.1006842628 0.0361681320
0.5571847558 0.0938416421 0.0420332365
0.5972629786 0.0860215053 0.0478983372
0.6392961740 0.0782013685 0.0547409579
0.6842619777 0.0674486831 0.0615835786
0.7321603298 0.0547409579 0.0694037154
0.7820137143 0.0361681320 0.0772238523
0.8347995877 0.0000000000 0.0850439891
0.8905180693 0.0000000000 0.0938416421
0.9481915832 0.0000000000 0.1026392952
0.0000000000 0.1505376399 0.0000000000
0.0000000000 0.1505376399 0.0000000000
0.0000000000 0.1505376399 0.0000000000
0.0000000000 0.1505376399 0.0000000000
0.0449657887 0.1515151560 0.0000000000
0.0791788846 0.1515151560 0.0000000000
0.1055718511 0.1515151560 0.0000000000
0.1300097704 0.1524926722 0.0000000000
0.1534701884 0.1524926722 0.0000000000
0.1749755591 0.1524926722 0.0000000000
0.1974584609 0.1524926722 0.0000000000
0.2189638317 0.1515151560 0.0000000000
0.2404692024 0.1515151560 0.0000000000
0.2609970570 0.1505376399 0.0000000000
0.2825024426 0.1495601237 0.0000000000
0.3040078282 0.1485826075 0.0000000000
0.3245356679 0.1476050764 0.0000000000
0.3460410535 0.1466275603 0.0000000000
0.3704789877 0.1446725279 0.0000000000
0.3968719542 0.1427174956 0.0000000000
0.4252199531 0.1397849470 0.0107526882
0.4565005004 0.1358748823 0.0185728259
0.4897360802 0.1319648027 0.0254154447
0.5249266624 0.1270772219 0.0322580636
0.5630498528 0.1221896410 0.0381231681
0.6031280756 0.1153470203 0.0449657887
0.6461387873 0.1085043997 0.0518084057
0.6911045909 0.1006842628 0.0596285425
0.7390029430 0.0909090936 0.0674486831
0.7888563275 0.0821114406 0.0752688199
0.8416422009 0.0733137801 0.0840664729
0.8973606825 0.0645161271 0.0918866098
0.9560117126 0.0547409579 0.1016617790
0.0000000000 0.1710654944 0.0000000000
0.0000000000 0.1710654944 0.0000000000
0.0000000000 0.1710654944 0.0000000000
0.0000000000 0.1720430106 0.0000000000
0.0175953079 0.1720430106 0.0000000000
0.0703812316 0.1720430106 0.0000000000
0.1006842628 0.1730205268 0.0000000000
0.1270772219 0.1730205268 0.0000000000
0.1505376399 0.1730205268 0.0000000000
0.1739980429 0.1730205268 0.0000000000
0.1964809448 0.1730205268 0.0000000000
0.2189638317 0.1730205268 0.0000000000
0.2404692024 0.1730205268 0.0000000000
0.2629520893 0.1720430106 0.0000000000
0.2844574749 0.1720430106 0.0000000000
0.3059628606 0.1710654944 0.0000000000
0.3264907002 0.1700879782 0.0000000000
0.3489736021 0.1691104621 0.0000000000
0.3734115362 0.1681329459 0.0000000000
0.3998045027 0.1661779135 0.0000000000
0.4291300178 0.1632453501 0.0000000000
0.4604105651 0.1603128016 0.0058651026
0.4946236610 0.1564027369 0.0185728259
0.5307917595 0.1524926722 0.0263929628
0.5689149499 0.1466275603 0.0342130996
0.6099706888 0.1417399794 0.0410557203
0.6529814005 0.1348973662 0.0488758571
0.6989247203 0.1270772219 0.0566959940
0.7468230724 0.1202346012 0.0645161271
0.7966764569 0.1124144644 0.0733137801
0.8494623899 0.1045943275 0.0811339170
0.9051808119 0.0967741907 0.0909090936
0.9628543258 0.0889540538 0.1006842628
0.0000000000 0.1915933490 0.0000000000
0.0000000000 0.1915933490 0.0000000000
0.0000000000 0.1925708652 0.0000000000
0.0000000000 0.1925708652 0.0000000000
0.0000000000 0.1925708652 0.0000000000
0.0566959940 0.1935483813 0.0000000000
0.0938416421 0.1935483813 0.0000000000
0.1221896410 0.1935483813 0.0000000000
0.1476050764 0.1945258975 0.0000000000
0.1720430106 0.1945258975 0.0000000000
0.1955034286 0.1945258975 0.0000000000
0.2189638317 0.1945258975 0.0000000000
0.2404692024 0.1945258975 0.0000000000
0.2629520893 0.1945258975 0.0000000000
0.2854349911 0.1935483813 0.0000000000
0.3069403768 0.1935483813 0.0000000000
0.3284457624 0.1925708652 0.0000000000
0.3509286344 0.1915933490 0.0000000000
0.3763440847 0.1906158328 0.0000000000
0.4027370512 0.1886608005 0.0000000000
0.4320625663 0.1867057681 0.0000000000
0.4643206298 0.1837732196 0.0000000000
0.4985337257 0.1798631549 0.0000000000
0.5356794000 0.1759530753 0.0195503421
0.5747800469 0.1720430106 0.0283479970
0.6158357859 0.1661779135 0.0371456519
0.6598240733 0.1603128016 0.0449657887
0.7057673335 0.1534701884 0.0527859256
0.7536656857 0.1466275603 0.0615835786
0.8044965863 0.1388074309 0.0703812316
0.8572825193 0.1309872866 0.0791788846
0.9130010009 0.1231671572 0.0889540538
0.9706745148 0.1163245365 0.0987292305
0.0000000000 0.2130987346 0.0000000000
0.0000000000 0.2130987346 0.0000000000
0.0000000000 0.2130987346 0.0000000000
0.0000000000 0.2140762508 0.0000000000
0.0000000000 0.2140762508 0.0000000000
0.0312805474 0.2140762508 0.0000000000
0.0840664729 0.2150537670 0.0000000000
0.1163245365 0.2150537670 0.0000000000
0.1436950117 0.2160312831 0.0000000000
0.1700879782 0.2160312831 0.0000000000
0.1935483813 0.2160312831 0.0000000000
0.2179863155 0.2160312831 0.0000000000
0.2404692024 0.2160312831 0.0000000000
0.2629520893 0.2160312831 0.0000000000
0.2854349911 0.2160312831 0.0000000000
0.3079178929 0.2150537670 0.0000000000
0.3294232786 0.2150537670 0.0000000000
0.3528836668 0.2140762508 0.0000000000
0.3773216009 0.2130987346 0.0000000000
0.4056695998 0.2111437023 0.0000000000
0.4349951148 0.2091886550 0.0000000000
0.4672531784 0.2072336227 0.0000000000
0.5024437904 0.2033235580 0.0000000000
0.5395894647 0.1994134933 0.0000000000
0.5796676278 0.1955034286 0.0195503421
0.6217008829 0.1896383166 0.0312805474
0.6656891704 0.1847507358 0.0400782004
0.7116324306 0.1779081076 0.0488758571
0.7605082989 0.1710654944 0.0576735102
0.8123167157 0.1632453501 0.0674486831
0.8651026487 0.1564027369 0.0762463361
0.9208211303 0.1485826075 0.0860215053
0.9794721603 0.1417399794 0.0957966745
0.0000000000 0.2346041054 0.0000000000
0.0000000000 0.2346041054 0.0000000000
0.0000000000 0.2346041054 0.0000000000
0.0000000000 0.2346041054 0.0000000000
0.0000000000 0.2355816215 0.0000000000
0.0000000000 0.2355816215 0.0000000000
0.0703812316 0.2365591377 0.0000000000
0.1085043997 0.2365591377 0.0000000000
0.1378299147 0.2375366539 0.0000000000
0.1652003974 0.2375366539 0.0000000000
0.1906158328 0.2375366539 0.0000000000
0.2150537670 0.2375366539 0.0000000000
0.2394916862 0.2385141701 0.0000000000
0.2629520893 0.2375366539 0.0000000000
0.2854349911 0.2375366539 0.0000000000
0.3079178929 0.2375366539 0.0000000000
0.3304007947 0.2365591377 0.0000000000
0.3538611829 0.2365591377 0.0000000000
0.3782991171 0.2355816215 0.0000000000
0.4066471159 0.2336265892 0.0000000000
0.4369501472 0.2316715568 0.0000000000
0.4701857269 0.2297165245 0.0000000000
0.5053763390 0.2267839760 0.0000000000
0.5434995294 0.2228738964 0.0000000000
0.5835776925 0.2189638317 0.0000000000
0.6265884638 0.2130987346 0.0224828944
0.6715542674 0.2072336227 0.0342130996
0.7184750438 0.2013685256 0.0439882688
0.7673509121 0.1945258975 0.0537634417
0.8191593289 0.1867057681 0.0635386109
0.8729227781 0.1779081076 0.0733137801
0.9286412597 0.1710654944 0.0840664729
0.9872922897 0.1642228812 0.0938416421
0.0000000000 0.2561094761 0.0000000000
0.0000000000 0.2561094761 0.0000000000
0.0000000000 0.2561094761 0.0000000000
0.0000000000 0.2561094761 0.0000000000
0.0000000000 0.2570869923 0.0000000000
0.0000000000 0.2570869923 0.0000000000
0.0478983372 0.2580645084 0.0000000000
0.0967741907 0.2580645084 0.0000000000
0.1309872866 0.2590420246 0.0000000000
0.1603128016 0.2590420246 0.0000000000
0.1876832843 0.2590420246 0.0000000000
0.2130987346 0.2600195408 0.0000000000
0.2375366539 0.2600195408 0.0000000000
0.2609970570 0.2600195408 0.0000000000
0.2844574749 0.2590420246 0.0000000000
0.3069403768 0.2590420246 0.0000000000
0.3304007947 0.2590420246 0.0000000000
0.3528836668 0.2580645084 0.0000000000
0.3792766333 0.2570869923 0.0000000000
0.4076246321 0.2561094761 0.0000000000
0.4379276633 0.2541544437 0.0000000000
0.4721407592 0.2521994114 0.0000000000
0.5073313713 0.2492668629 0.0000000000
0.5464320779 0.2453567982 0.0000000000
0.5874877572 0.2424242496 0.0000000000
0.6304985285 0.2365591377 0.0000000000
0.6764418483 0.2306940407 0.0263929628
0.7243402004 0.2248289287 0.0381231681
0.7741935253 0.2170087993 0.0488758571
0.8260019422 0.2091886550 0.0596285425
0.8807429075 0.2023460418 0.0703812316
0.9364613891 0.1945258975 0.0811339170
0.9951124191 0.1867057681 0.0909090936
0.0000000000 0.2776148617 0.0000000000
0.0000000000 0.2776148617 0.0000000000
0.0000000000 0.2776148617 0.0000000000
0.0000000000 0.2785923779 0.0000000000
0.0000000000 0.2785923779 0.0000000000
0.0000000000 0.2785923779 0.0000000000
0.0000000000 0.2795698941 0.0000000000
0.0821114406 0.2795698941 0.0000000000
0.1221896410 0.2805474102 0.0000000000
0.1544477046 0.2805474102 0.0000000000
0.1818181872 0.2805474102 0.0000000000
0.2082111388 0.2815249264 0.0000000000
0.2346041054 0.2815249264 0.0000000000
0.2590420246 0.2815249264 0.0000000000
0.2825024426 0.2815249264 0.0000000000
0.3059628606 0.2805474102 0.0000000000
0.3284457624 0.2805474102 0.0000000000
0.3528836668 0.2795698941 0.0000000000
0.3792766333 0.2795698941 0.0000000000
0.4076246321 0.2776148617 0.0000000000
0.4389051795 0.2766373456 0.0000000000
0.4731182754 0.2746823132 0.0000000000
0.5092864037 0.2717497647 0.0000000000
0.5483871102 0.2688172162 0.0000000000
0.5904203057 0.2649071217 0.0000000000
0.6344085932 0.2600195408 0.0000000000
0.6803519130 0.2541544437 0.0097751711
0.7292277813 0.2473118305 0.0303030312
0.7800586224 0.2404692024 0.0430107526
0.8328445554 0.2326490730 0.0547409579
0.8875855207 0.2248289287 0.0664711669
0.9442815185 0.2160312831 0.0772238523
1.0000000000 0.2082111388 0.0879765376
0.0000000000 0.2991202474 0.0000000000
0.0000000000 0.2991202474 0.0000000000
0.0000000000 0.2991202474 0.0000000000
0.0000000000 0.3000977635 0.0000000000
0.0000000000 0.3000977635 0.0000000000
0.0000000000 0.3000977635 0.0000000000
0.0000000000 0.3010752797 0.0000000000
0.0606060624 0.3010752797 0.0000000000
0.1104594320 0.3020527959 0.0000000000
0.1456500441 0.3020527959 0.0000000000
0.1769305915 0.3020527959 0.0000000000
0.2043010741 0.3030303121 0.0000000000
0.2297165245 0.3030303121 0.0000000000
0.2561094761 0.3030303121 0.0000000000
0.2805474102 0.3030303121 0.0000000000
0.3040078282 0.3030303121 0.0000000000
0.3274682164 0.3020527959 0.0000000000
0.3519061506 0.3010752797 0.0000000000
0.3782991171 0.3010752797 0.0000000000
0.4076246321 0.3000977635 0.0000000000
0.4389051795 0.2981427312 0.0000000000
0.4731182754 0.2961876690 0.0000000000
0.5102639198 0.2942326367 0.0000000000
0.5503421426 0.2913000882 0.0000000000
0.5923753381 0.2873900235 0.0000000000
0.6373411417 0.2825024426 0.0000000000
0.6842619777 0.2766373456 0.0000000000
0.7341153622 0.2697947323 0.0185728259
0.7859237790 0.2629520893 0.0361681320
0.8387096524 0.2551319599 0.0498533733
0.8944281340 0.2473118305 0.0615835786
0.9521016479 0.2385141701 0.0733137801
1.0000000000 0.2287390083 0.0850439891
0.0000000000 0.3206256032 0.0000000000
0.0000000000 0.3206256032 0.0000000000
0.0000000000 0.3206256032 0.0000000000
0.0000000000 0.3216031194 0.0000000000
0.0000000000 0.3216031194 0.0000000000
0.0000000000 0.3216031194 0.0000000000
0.0000000000 0.3225806355 0.0000000000
0.0000000000 0.3225806355 0.0000000000
0.0957966745 0.3225806355 0.0000000000
0.1358748823 0.3235581517 0.0000000000
0.1681329459 0.3235581517 0.0000000000
0.1984359771 0.3235581517 0.0000000000
0.2258064449 0.3235581517 0.0000000000
0.2512218952 0.3245356679 0.0000000000
0.2776148617 0.3235581517 0.0000000000
0.3010752797 0.3235581517 0.0000000000
0.3255131841 0.3235581517 0.0000000000
0.3499511182 0.3225806355 0.0000000000
0.3773216009 0.3225806355 0.0000000000
0.4066471159 0.3216031194 0.0000000000
0.4389051795 0.3196480870 0.0000000000
0.4731182754 0.3186705709 0.0000000000
0.5102639198 0.3157380223 0.0000000000
0.5513196588 0.3128054738 0.0000000000
0.5933528543 0.3088954091 0.0000000000
0.6392961740 0.3049853444 0.0000000000
0.6871945262 0.3000977635 0.0000000000
0.7380254269 0.2932551205 0.0000000000
0.7908113599 0.2854349911 0.0263929628
0.8445748091 0.2776148617 0.0430107526
0.9012707472 0.2688172162 0.0566959940
0.9599217772 0.2600195408 0.0694037154
1.0000000000 0.2512218952 0.0811339170
0.0000000000 0.3431085050 0.0000000000
0.0000000000 0.3431085050 0.0000000000
0.0000000000 0.3431085050 0.0000000000
0.0000000000 0.3440860212 0.0000000000
0.0000000000 0.3440860212 0.0000000000
0.0000000000 0.3440860212 0.0000000000
0.0000000000 0.3450635374 0.0000000000
0.0000000000 0.3450635374 0.0000000000
0.0723362640 0.3450635374 0.0000000000
0.1231671572 0.3460410535 0.0000000000
0.1593352854 0.3460410535 0.0000000000
0.1906158328 0.3460410535 0.0000000000
0.2199413478 0.3460410535 0.0000000000
0.2463343143 0.3460410535 0.0000000000
0.2727272809 0.3460410535 0.0000000000
0.2981427312 0.3460410535 0.0000000000
0.3216031194 0.3460410535 0.0000000000
0.3479960859 0.3450635374 0.0000000000
0.3753665686 0.3450635374 0.0000000000
0.4046920836 0.3440860212 0.0000000000
0.4369501472 0.3431085050 0.0000000000
0.4731182754 0.3411534727 0.0000000000
0.5102639198 0.3391984403 0.0000000000
0.5513196588 0.3362658918 0.0000000000
0.5953079462 0.3323558271 0.0000000000
0.6412512064 0.3284457624 0.0000000000
0.6901270747 0.3225806355 0.0000000000
0.7409579754 0.3167155385 0.0000000000
0.7947214246 0.3088954091 0.0000000000
0.8504399061 0.3010752797 0.0342130996
0.9071359038 0.2922776043 0.0498533733
0.9667643905 0.2825024426 0.0645161271
1.0000000000 0.2727272809 0.0772238523
0.0000000000 0.3685239553 0.0000000000
0.0000000000 0.3685239553 0.0000000000
0.0000000000 0.3685239553 0.0000000000
0.0000000000 0.3685239553 0.0000000000
0.0000000000 0.3685239553 0.0000000000
0.0000000000 0.3695014715 0.0000000000
0.0000000000 0.3695014715 0.0000000000
0.0000000000 0.3695014715 0.0000000000
0.0000000000 0.3704789877 0.0000000000
0.1026392952 0.3704789877 0.0000000000
0.1466275603 0.3704789877 0.0000000000
0.1808406711 0.3704789877 0.0000000000
0.2111437023 0.3714565039 0.0000000000
