proprietary/odm/etc/camera/filters_lut/dolby_preview_sdr_3dlut.cube
TITLE "2081160954640"
LUT_3D_SIZE 32
#LUT data points
0.0168440 0.0331637 0.0339698
0.1076075 0.0265128 0.0030300
0.1438702 0.0355524 0.0279543
0.1750644 0.0432998 0.0387561
0.2059749 0.0510012 0.0516370
0.2368758 0.0586207 0.0560634
0.2680821 0.0663190 0.0607717
0.3002561 0.0742724 0.0674021
0.3315630 0.0819867 0.0709698
0.3640920 0.0900208 0.0768024
0.3961121 0.0979242 0.0819196
0.4275717 0.1056778 0.0854788
0.4594879 0.1135357 0.0879159
0.4910497 0.1213186 0.0918534
0.5219804 0.1291618 0.0954471
0.5498582 0.1369660 0.0987691
0.5759561 0.1449886 0.1029115
0.6017711 0.1536450 0.1065521
0.6282219 0.1633118 0.1099282
0.6551450 0.1740437 0.1136801
0.6826751 0.1860170 0.1180116
0.7099899 0.1989663 0.1224369
0.7367122 0.2127467 0.1277972
0.7638244 0.2279291 0.1334385
0.7900699 0.2438614 0.1389592
0.8163854 0.2611503 0.1455417
0.8421522 0.2794481 0.1536516
0.8675667 0.2989094 0.1618764
0.8926717 0.3196077 0.1698982
0.9174170 0.3415508 0.1791997
0.9413836 0.3643570 0.1885140
0.9656898 0.3891580 0.1990844
0.0491940 0.1071271 0.0146454
0.1048224 0.1071124 0.0138077
0.1431605 0.1073411 0.0128535
0.1726461 0.1022180 0.0154738
0.2057347 0.0880332 0.0375977
0.2382704 0.0637851 0.0502713
0.2695688 0.0704170 0.0589841
0.3017565 0.0774134 0.0635745
0.3331572 0.0841171 0.0706369
0.3652807 0.0909312 0.0755485
0.3967188 0.0980468 0.0786151
0.4292469 0.1060732 0.0834168
0.4611648 0.1139463 0.0877475
0.4927267 0.1217294 0.0916919
0.5235269 0.1295727 0.0952918
0.5512621 0.1373770 0.0986191
0.5772603 0.1453984 0.1016669
0.6029656 0.1540556 0.1055048
0.6293220 0.1637304 0.1097912
0.6561664 0.1744677 0.1135467
0.6835935 0.1864330 0.1178842
0.7108244 0.1993779 0.1223134
0.7374970 0.2131607 0.1265756
0.7645373 0.2283351 0.1317731
0.7907391 0.2442809 0.1384886
0.8169935 0.2615646 0.1454207
0.8427124 0.2798600 0.1535313
0.8680864 0.2993141 0.1604201
0.8931549 0.3200189 0.1696304
0.9174715 0.3416005 0.1791404
0.9417905 0.3647568 0.1884465
0.9657135 0.3891830 0.1990803
0.0673395 0.1466416 0.0200475
0.0966858 0.1465475 0.0196980
0.1438111 0.1466237 0.0188942
0.1744731 0.1468062 0.0181917
0.2058003 0.1458328 0.0170993
0.2366887 0.1446848 0.0182551
0.2690641 0.1414002 0.0316193
0.3008380 0.1374006 0.0496898
0.3341862 0.1283226 0.0612490
0.3674553 0.1136608 0.0684215
0.3997660 0.1050857 0.0744953
0.4323539 0.1119103 0.0797869
0.4643296 0.1186093 0.0844590
0.4959583 0.1250239 0.0887204
0.5265974 0.1312498 0.0924851
0.5540916 0.1381954 0.0959579
0.5804076 0.1463991 0.0991795
0.6058261 0.1550476 0.1032218
0.6321019 0.1647833 0.1076315
0.6590914 0.1756789 0.1114758
0.6857481 0.1874038 0.1159742
0.7125367 0.2002169 0.1205275
0.7395674 0.2142724 0.1258326
0.7661561 0.2292804 0.1315094
0.7925096 0.2453936 0.1370052
0.8183051 0.2624524 0.1436308
0.8438582 0.2806964 0.1517521
0.8691279 0.3001402 0.1599824
0.8941190 0.3208360 0.1681001
0.9183699 0.3424171 0.1774731
0.9426281 0.3655806 0.1881627
0.9664954 0.3900071 0.1988430
0.0820095 0.1785876 0.0244149
0.0845949 0.1785777 0.0243890
0.1427088 0.1784531 0.0236073
0.1751179 0.1785657 0.0230108
0.2067855 0.1787062 0.0222912
0.2381329 0.1780670 0.0213025
0.2701598 0.1784433 0.0202782
0.3025454 0.1768195 0.0186712
0.3353057 0.1757667 0.0274684
0.3681765 0.1749237 0.0488593
0.4012245 0.1733584 0.0601063
0.4342392 0.1713443 0.0688384
0.4667791 0.1682905 0.0764799
0.4991776 0.1619003 0.0828951
0.5309267 0.1507502 0.0868772
0.5586210 0.1466580 0.0907718
0.5840287 0.1535213 0.0954008
0.6097616 0.1610634 0.1004771
0.6361746 0.1692560 0.1051152
0.6628493 0.1780564 0.1091463
0.6892766 0.1890142 0.1137628
0.7158105 0.2018425 0.1185450
0.7425325 0.2158715 0.1238027
0.7688734 0.2308695 0.1295562
0.7946268 0.2467319 0.1351393
0.8201595 0.2637176 0.1417806
0.8459445 0.2822343 0.1498587
0.8707772 0.3014477 0.1581296
0.8955646 0.3220749 0.1675989
0.9197514 0.3436882 0.1771106
0.9438817 0.3668106 0.1863756
0.9676294 0.3911991 0.1971686
0.0971400 0.2115365 0.0289194
0.0983974 0.2115383 0.0289078
0.1333760 0.2116223 0.0285280
0.1751126 0.2115908 0.0278901
0.2077881 0.2117187 0.0272797
0.2396050 0.2120269 0.0265931
0.2719223 0.2123051 0.0257603
0.3041060 0.2116765 0.0246375
0.3375028 0.2113267 0.0233385
0.3705477 0.2110722 0.0218559
0.4043276 0.2101505 0.0199388
0.4372158 0.2091922 0.0361951
0.4702746 0.2080666 0.0599143
0.5032750 0.2074375 0.0696593
0.5342028 0.2068848 0.0771305
0.5620497 0.2059102 0.0844339
0.5875524 0.2051623 0.0896677
0.6134468 0.2038504 0.0943001
0.6398209 0.2004587 0.1002194
0.6663788 0.1937210 0.1051575
0.6931740 0.1974466 0.1099529
0.7196514 0.2086651 0.1159385
0.7457369 0.2201292 0.1206858
0.7717276 0.2329901 0.1270650
0.7976979 0.2486924 0.1331272
0.8231202 0.2657577 0.1398053
0.8482970 0.2839811 0.1479341
0.8732190 0.3033995 0.1561734
0.8975681 0.3237947 0.1656821
0.9218904 0.3456596 0.1751541
0.9455561 0.3684640 0.1846707
0.9688539 0.3924975 0.1967524
0.1117233 0.2432938 0.0332609
0.1118622 0.2435963 0.0333023
0.1172173 0.2448816 0.0334326
0.1742699 0.2447210 0.0327120
0.2087343 0.2447345 0.0321491
0.2415221 0.2449204 0.0315333
0.2734201 0.2453868 0.0308735
0.3060850 0.2453902 0.0300112
0.3393754 0.2451366 0.0289593
0.3729512 0.2457338 0.0278912
0.4064357 0.2451763 0.0264616
0.4396877 0.2445309 0.0248202
0.4734659 0.2444436 0.0230134
0.5069863 0.2441484 0.0367586
0.5382679 0.2437255 0.0573517
0.5657865 0.2434810 0.0691359
0.5915597 0.2433105 0.0789085
0.6175232 0.2429485 0.0870729
0.6434744 0.2430277 0.0941250
0.6700780 0.2437049 0.1007639
0.6965780 0.2441837 0.1065910
0.7228556 0.2450706 0.1127261
0.7494185 0.2439187 0.1174936
0.7755379 0.2449356 0.1236232
0.8013026 0.2563933 0.1306568
0.8265009 0.2712583 0.1375984
0.8514790 0.2867787 0.1456626
0.8758888 0.3055506 0.1541550
0.9002996 0.3261576 0.1634327
0.9241272 0.3477348 0.1731671
0.9476238 0.3705242 0.1840351
0.9707877 0.3945512 0.1947869
0.1270917 0.2767607 0.0378362
0.1276864 0.2780558 0.0380133
0.1302507 0.2780661 0.0379906
0.1666763 0.2782309 0.0376170
0.2076573 0.2781553 0.0370358
0.2414424 0.2783974 0.0364985
0.2746455 0.2793812 0.0359884
0.3077344 0.2786490 0.0351256
0.3415230 0.2791456 0.0343259
0.3747101 0.2794741 0.0334041
0.4082281 0.2794260 0.0322876
0.4421898 0.2795601 0.0310448
0.4763245 0.2789105 0.0294919
0.5104878 0.2792055 0.0279074
0.5417477 0.2791861 0.0260402
0.5695538 0.2788215 0.0370374
0.5955624 0.2789517 0.0557035
0.6212039 0.2790361 0.0707290
0.6470378 0.2787893 0.0834392
0.6736595 0.2792933 0.0927255
0.7002971 0.2804720 0.1006860
0.7265950 0.2820863 0.1078789
0.7528500 0.2840857 0.1142059
0.7787816 0.2867455 0.1208100
0.8044995 0.2899437 0.1275693
0.8296558 0.2941981 0.1344483
0.8545983 0.2980219 0.1422385
0.8791885 0.3137009 0.1517449
0.9031155 0.3319898 0.1602624
0.9267622 0.3503880 0.1707702
0.9500887 0.3729889 0.1816990
0.9730245 0.3969410 0.1924639
0.1430786 0.3115745 0.0425957
0.1430786 0.3115745 0.0425957
0.1431154 0.3116547 0.0426066
0.1501338 0.3128283 0.0427053
0.2058290 0.3129809 0.0420780
0.2416223 0.3129410 0.0415407
0.2754550 0.3130616 0.0409699
0.3090591 0.3135153 0.0403671
0.3432812 0.3138226 0.0396392
0.3768009 0.3142860 0.0388573
0.4105983 0.3144315 0.0379183
0.4450440 0.3142554 0.0367950
0.4793629 0.3147676 0.0356656
0.5137931 0.3145711 0.0342603
0.5448343 0.3141300 0.0326620
0.5728399 0.3138933 0.0309165
0.5989291 0.3140701 0.0289970
0.6248116 0.3140838 0.0412880
0.6508725 0.3140996 0.0610607
0.6772425 0.3144498 0.0783271
0.7037107 0.3150247 0.0916449
0.7302197 0.3159162 0.1009223
0.7563880 0.3173054 0.1091826
0.7824430 0.3197396 0.1164302
0.8080145 0.3231881 0.1233340
0.8330037 0.3287154 0.1312392
0.8576975 0.3352359 0.1395669
0.8821885 0.3434437 0.1488606
0.9060408 0.3526915 0.1582357
0.9296293 0.3605442 0.1676913
0.9527918 0.3812736 0.1781629
0.9753615 0.4037759 0.1892736
0.1590655 0.3463884 0.0473551
0.1590655 0.3463884 0.0473551
0.1590778 0.3464152 0.0473588
0.1632751 0.3469030 0.0473879
0.2010354 0.3478470 0.0471177
0.2411359 0.3478163 0.0465882
0.2757614 0.3483750 0.0461334
0.3102175 0.3493983 0.0456729
0.3441701 0.3495665 0.0450180
0.3779195 0.3498587 0.0443050
0.4127079 0.3499325 0.0434464
0.4472221 0.3497637 0.0424611
0.4816759 0.3499702 0.0414357
0.5158585 0.3495628 0.0401930
0.5474749 0.3494888 0.0388536
0.5755592 0.3494254 0.0373992
0.6014286 0.3496485 0.0358308
0.6275489 0.3497769 0.0338814
0.6540441 0.3498304 0.0314156
0.6805304 0.3496621 0.0515987
0.7072035 0.3493175 0.0730379
0.7337642 0.3496154 0.0896537
0.7598430 0.3505155 0.1020126
0.7856926 0.3523424 0.1108860
0.8111614 0.3548177 0.1188401
0.8363286 0.3587313 0.1270848
0.8609986 0.3640753 0.1363070
0.8853058 0.3709786 0.1456622
0.9089483 0.3806432 0.1553500
0.9322918 0.3930650 0.1656868
0.9553519 0.4081329 0.1756257
0.9780071 0.4253138 0.1877180
0.1750524 0.3812023 0.0521145
0.1750593 0.3812173 0.0521166
0.1753003 0.3817421 0.0521883
0.1769394 0.3828039 0.0523227
0.1934359 0.3828020 0.0521602
0.2396250 0.3832435 0.0516884
0.2762662 0.3841306 0.0513065
0.3107774 0.3842330 0.0507705
0.3445001 0.3846682 0.0502272
0.3790650 0.3848443 0.0495577
0.4137370 0.3851403 0.0488270
0.4485825 0.3855758 0.0480329
0.4833085 0.3857308 0.0471132
0.5184205 0.3856422 0.0460320
0.5496533 0.3858466 0.0449110
0.5774579 0.3856513 0.0436336
0.6035734 0.3854799 0.0422019
0.6298906 0.3857342 0.0405508
0.6561997 0.3856421 0.0384757
0.6828104 0.3849576 0.0357700
0.7096058 0.3844870 0.0451845
0.7363936 0.3840317 0.0671838
0.7629175 0.3844060 0.0896114
0.7888740 0.3848654 0.1039249
0.8144925 0.3866902 0.1136482
0.8396609 0.3891717 0.1226703
0.8644690 0.3926809 0.1318185
0.8886078 0.3989140 0.1413980
0.9121743 0.4067848 0.1519880
0.9353492 0.4170939 0.1616428
0.9582417 0.4300320 0.1736399
0.9804732 0.4453609 0.1857632
0.1912773 0.4165342 0.0569448
0.1912934 0.4165693 0.0569496
0.1917922 0.4176556 0.0570981
0.1920147 0.4181402 0.0571644
0.1972809 0.4182607 0.0571316
0.2355178 0.4191558 0.0568554
0.2760155 0.4194783 0.0563938
0.3111318 0.4197911 0.0559294
0.3457327 0.4210442 0.0555458
0.3805517 0.4211323 0.0549234
0.4153194 0.4213147 0.0542471
0.4504787 0.4216112 0.0535078
0.4848313 0.4220240 0.0527317
0.5197063 0.4221462 0.0518010
0.5511041 0.4220319 0.0507458
0.5790858 0.4221378 0.0496487
0.6054046 0.4219082 0.0483612
0.6317503 0.4217723 0.0468462
0.6582667 0.4212129 0.0449418
0.6848176 0.4205604 0.0426228
0.7117136 0.4200442 0.0397736
0.7386110 0.4188181 0.0360410
0.7653464 0.4181414 0.0655196
0.7916959 0.4188289 0.0914830
0.8174202 0.4190028 0.1070826
0.8427293 0.4206928 0.1172782
0.8674052 0.4231301 0.1266072
0.8915039 0.4274692 0.1368922
0.9153286 0.4333918 0.1477620
0.9383677 0.4417778 0.1582985
0.9610969 0.4525236 0.1702021
0.9832851 0.4663676 0.1821918
0.2080255 0.4530059 0.0619309
0.2080255 0.4530059 0.0619309
0.2080562 0.4530727 0.0619400
0.2085266 0.4540972 0.0620801
0.2107073 0.4546044 0.0621312
0.2300150 0.4547912 0.0619673
0.2752576 0.4559893 0.0616241
0.3117338 0.4562668 0.0611800
0.3466731 0.4574743 0.0608310
0.3817795 0.4574984 0.0602484
0.4162742 0.4575958 0.0596254
0.4517753 0.4579875 0.0589625
0.4868295 0.4584246 0.0582494
0.5212285 0.4584890 0.0574065
0.5523807 0.4585732 0.0564858
0.5805091 0.4584363 0.0554520
0.6069950 0.4585050 0.0543310
0.6329310 0.4583009 0.0529845
0.6595927 0.4573482 0.0512127
0.6865466 0.4562355 0.0490517
0.7134677 0.4557702 0.0465732
0.7405532 0.4545030 0.0433482
0.7673843 0.4530593 0.0393118
0.7939245 0.4527204 0.0661929
0.8200367 0.4517540 0.0950394
0.8454359 0.4524316 0.1104660
0.8701141 0.4537374 0.1211489
0.8943467 0.4565096 0.1317269
0.9183058 0.4606706 0.1432266
0.9413384 0.4671976 0.1541074
0.9639109 0.4762796 0.1663809
0.9861844 0.4884690 0.1781957
0.2247737 0.4894775 0.0669170
0.2247737 0.4894775 0.0669170
0.2247737 0.4894775 0.0669170
0.2248450 0.4896330 0.0669382
0.2255112 0.4910835 0.0671365
0.2322233 0.4913174 0.0671060
0.2728026 0.4925195 0.0668516
0.3114512 0.4927674 0.0664167
0.3469636 0.4939410 0.0660954
0.3821641 0.4939176 0.0655510
0.4173170 0.4941537 0.0649880
0.4527010 0.4950295 0.0644570
0.4883389 0.4954759 0.0637977
0.5226016 0.4949078 0.0629322
0.5533473 0.4949486 0.0620935
0.5815402 0.4950049 0.0611757
0.6079527 0.4948710 0.0601273
0.6337665 0.4946103 0.0589014
0.6604354 0.4936803 0.0572977
0.6874541 0.4924065 0.0553200
0.7148605 0.4914829 0.0529936
0.7419774 0.4902433 0.0501465
0.7690974 0.4883682 0.0465278
0.7958013 0.4875450 0.0423016
0.8220833 0.4856334 0.0698746
0.8478566 0.4845173 0.0996030
0.8728842 0.4851410 0.1146493
0.8971761 0.4861783 0.1262739
0.9209891 0.4885789 0.1380767
0.9442589 0.4930934 0.1500710
0.9666926 0.5006691 0.1631572
0.9888191 0.5106131 0.1748197
0.2415219 0.5248180 0.0719030
0.2415219 0.5248180 0.0719030
0.2415418 0.5248578 0.0719090
0.2418726 0.5255164 0.0720074
0.2422594 0.5262846 0.0721226
0.2450933 0.5265110 0.0721311
0.2660797 0.5276647 0.0721041
0.3103634 0.5278566 0.0716413
0.3476029 0.5288927 0.0713294
0.3831225 0.5288406 0.0708143
0.4181805 0.5292982 0.0703355
0.4536140 0.5303172 0.0698896
0.4890935 0.5304207 0.0692394
0.5231673 0.5302451 0.0684946
0.5538465 0.5297467 0.0676344
0.5818730 0.5297688 0.0667917
0.6080903 0.5294982 0.0658112
0.6343177 0.5289997 0.0646244
0.6611614 0.5283581 0.0631779
0.6881027 0.5273725 0.0614047
0.7156954 0.5263860 0.0592570
0.7429587 0.5247877 0.0565934
0.7702644 0.5228887 0.0533147
0.7973745 0.5218319 0.0495092
0.8238094 0.5196744 0.0445809
0.8497406 0.5177312 0.0807820
0.8751162 0.5168303 0.1056898
0.8997467 0.5163674 0.1198145
0.9236187 0.5172306 0.1326440
0.9469668 0.5208054 0.1458100
0.9694271 0.5254200 0.1586168
0.9909859 0.5322265 0.1707326
0.2582701 0.5564073 0.0768891
0.2582701 0.5564073 0.0768891
0.2583177 0.5564923 0.0769033
0.2590076 0.5577222 0.0771087
0.2590076 0.5577222 0.0771087
0.2591265 0.5579337 0.0771441
0.2673700 0.5590074 0.0772520
0.3086193 0.5591803 0.0768542
0.3476102 0.5600918 0.0765512
0.3834570 0.5600240 0.0760626
0.4185106 0.5604070 0.0756164
0.4536545 0.5612854 0.0752102
0.4892634 0.5613304 0.0745963
0.5238286 0.5614293 0.0739397
0.5543848 0.5612682 0.0731919
0.5820658 0.5608268 0.0723358
0.6083526 0.5601813 0.0713489
0.6347349 0.5600128 0.0702959
0.6614603 0.5595008 0.0689768
0.6885544 0.5584313 0.0672969
0.7160610 0.5573187 0.0652870
0.7436104 0.5559236 0.0628394
0.7711493 0.5544754 0.0599011
0.7984382 0.5526672 0.0562889
0.8252523 0.5504662 0.0518253
0.8513388 0.5480709 0.0593736
0.8770516 0.5458333 0.0916336
0.9020166 0.5449235 0.1123498
0.9260184 0.5446603 0.1268376
0.9494189 0.5461756 0.1403955
0.9721251 0.5487182 0.1534133
0.9917318 0.5518361 0.1670599
0.2750183 0.5849079 0.0818752
0.2750183 0.5849079 0.0818752
0.2750659 0.5849851 0.0818894
0.2757558 0.5861020 0.0820948
0.2757558 0.5861020 0.0820948
0.2758747 0.5862942 0.0821302
0.2795409 0.5872828 0.0822841
0.2998615 0.5873646 0.0821009
0.3469220 0.5878665 0.0816816
0.3833171 0.5882156 0.0812966
0.4188972 0.5883595 0.0808360
0.4540933 0.5887472 0.0803832
0.4890471 0.5889757 0.0798574
0.5238485 0.5891340 0.0792550
0.5546285 0.5888979 0.0785326
0.5822550 0.5887507 0.0777829
0.6085609 0.5880480 0.0768335
0.6347607 0.5877959 0.0758403
0.6616062 0.5875775 0.0746599
0.6888040 0.5863175 0.0730298
0.7161805 0.5852020 0.0711523
0.7437756 0.5839068 0.0688856
0.7717293 0.5822914 0.0660869
0.7990353 0.5802136 0.0626918
0.8261578 0.5781301 0.0586092
0.8526588 0.5759111 0.0536479
0.8787467 0.5732531 0.0688528
0.9040639 0.5711936 0.1014974
0.9281675 0.5699585 0.1201896
0.9518345 0.5699786 0.1345493
0.9747874 0.5713148 0.1485335
0.9914602 0.5710809 0.1631036
0.2921471 0.6114870 0.0869746
0.2921471 0.6114870 0.0869746
0.2921947 0.6115577 0.0869888
0.2928846 0.6125806 0.0871942
0.2928846 0.6125806 0.0871942
0.2930036 0.6127566 0.0872296
0.2936221 0.6136702 0.0874137
0.3022827 0.6136478 0.0873271
0.3451105 0.6138225 0.0869220
0.3832202 0.6145461 0.0866303
0.4185342 0.6144841 0.0861625
0.4540277 0.6144419 0.0856532
0.4890788 0.6146280 0.0851560
0.5232123 0.6147422 0.0845988
0.5543457 0.6144873 0.0839057
0.5819505 0.6145758 0.0832535
0.6082676 0.6141598 0.0824107
0.6347337 0.6138569 0.0814583
0.6613748 0.6135575 0.0803443
0.6884984 0.6126088 0.0788694
0.7162501 0.6116407 0.0771130
0.7438514 0.6102364 0.0749568
0.7718402 0.6084741 0.0722989
0.7995356 0.6062427 0.0690551
0.8268758 0.6043351 0.0653046
0.8537329 0.6019324 0.0606794
0.8799836 0.5992997 0.0550065
0.9056245 0.5963313 0.0752140
0.9302496 0.5944311 0.1106138
0.9540336 0.5931197 0.1278328
0.9772343 0.5930073 0.1433169
0.9911658 0.5906489 0.1586795
0.3108699 0.6381069 0.0925485
0.3108699 0.6381069 0.0925485
0.3108914 0.6381361 0.0925549
0.3112030 0.6385602 0.0926477
0.3112552 0.6386311 0.0926632
0.3116611 0.6391827 0.0927841
0.3119405 0.6395616 0.0928672
0.3151684 0.6396779 0.0928633
0.3348543 0.6401728 0.0927844
0.3820595 0.6404034 0.0923297
0.4185070 0.6403346 0.0918743
0.4536409 0.6404765 0.0914431
0.4886460 0.6407949 0.0910153
0.5226933 0.6407826 0.0904707
0.5538537 0.6405505 0.0898214
0.5815032 0.6402966 0.0891347
0.6074597 0.6401477 0.0884106
0.6341247 0.6397744 0.0874937
0.6610112 0.6394929 0.0864457
0.6881916 0.6387052 0.0850844
0.7159604 0.6376933 0.0834165
0.7439036 0.6365780 0.0814324
0.7718708 0.6348757 0.0789464
0.7997952 0.6329327 0.0759589
0.8273451 0.6305440 0.0723302
0.8545524 0.6278370 0.0679380
0.8809807 0.6252738 0.0627802
0.9069348 0.6219688 0.0562285
0.9320639 0.6195421 0.0935364
0.9559772 0.6174919 0.1191122
0.9794343 0.6161017 0.1366418
0.9908287 0.6117406 0.1532451
0.3315197 0.6650340 0.0986961
0.3315197 0.6650340 0.0986961
0.3315197 0.6650340 0.0986961
0.3315197 0.6650340 0.0986961
0.3315596 0.6650839 0.0987080
0.3318980 0.6655064 0.0988088
0.3322572 0.6659541 0.0989157
0.3324237 0.6661615 0.0989653
0.3412236 0.6668536 0.0990531
0.3787714 0.6667740 0.0986539
0.4177650 0.6666984 0.0981972
0.4532281 0.6667762 0.0977792
0.4886294 0.6671843 0.0974077
0.5225625 0.6674805 0.0969787
0.5531197 0.6672969 0.0963895
0.5810620 0.6668424 0.0956853
0.6070595 0.6666089 0.0949845
0.6332826 0.6664798 0.0941972
0.6602250 0.6661412 0.0932016
0.6874818 0.6653541 0.0919132
0.7153068 0.6642785 0.0903192
0.7435084 0.6630653 0.0884114
0.7716436 0.6613073 0.0860387
0.7994434 0.6595632 0.0833003
0.8272627 0.6576523 0.0800238
0.8548708 0.6548269 0.0758741
0.8816776 0.6519834 0.0710196
0.9079735 0.6488104 0.0650968
0.9336388 0.6455476 0.0712516
0.9580651 0.6429187 0.1062515
0.9815774 0.6407331 0.1267721
0.9904398 0.6347419 0.1472943
0.3537396 0.6916458 0.1053112
0.3537396 0.6916458 0.1053112
0.3537688 0.6916793 0.1053199
0.3541916 0.6921647 0.1054458
0.3541916 0.6921647 0.1054458
0.3542377 0.6922175 0.1054595
0.3545646 0.6925922 0.1055568
0.3549936 0.6930832 0.1056845
0.3576429 0.6933310 0.1057263
0.3732319 0.6934501 0.1056087
0.4158707 0.6937353 0.1052428
0.4530662 0.6936710 0.1047983
0.4882921 0.6937451 0.1043785
0.5221005 0.6939046 0.1039547
0.5522250 0.6938780 0.1034506
0.5799165 0.6937097 0.1028646
0.6061318 0.6935508 0.1022232
0.6322978 0.6933052 0.1014596
0.6591040 0.6929633 0.1005309
0.6863934 0.6921389 0.0993008
0.7142935 0.6910984 0.0977982
0.7425782 0.6899159 0.0960024
0.7707132 0.6884976 0.0938585
0.7988718 0.6868388 0.0912882
0.8270912 0.6849694 0.0882068
0.8548065 0.6821943 0.0843385
0.8821615 0.6792149 0.0797416
0.9088275 0.6760964 0.0742976
0.9349481 0.6726853 0.0676612
0.9598203 0.6691476 0.0792456
0.9838677 0.6663879 0.1141471
0.9900125 0.6587918 0.1383834
0.3784813 0.7188818 0.1126770
0.3784813 0.7188818 0.1126770
0.3784982 0.7188997 0.1126820
0.3787430 0.7191580 0.1127549
0.3787430 0.7191580 0.1127549
0.3788197 0.7192389 0.1127777
0.3792694 0.7197127 0.1129116
0.3794805 0.7199349 0.1129744
0.3796033 0.7200640 0.1130110
0.3849281 0.7205058 0.1130901
0.4079029 0.7206592 0.1129114
0.4511488 0.7205841 0.1124318
0.4871892 0.7205276 0.1119969
0.5209497 0.7204808 0.1115502
0.5513358 0.7206693 0.1111421
0.5785927 0.7206757 0.1106531
0.6044847 0.7204051 0.1100283
0.6307570 0.7202600 0.1093424
0.6577821 0.7198805 0.1084551
0.6848517 0.7191058 0.1073106
0.7128766 0.7183455 0.1059672
0.7411528 0.7172629 0.1043023
0.7695552 0.7160410 0.1023271
0.7979487 0.7144313 0.0999095
0.8264503 0.7122590 0.0969027
0.8546011 0.7100039 0.0933999
0.8824491 0.7070725 0.0890773
0.9094455 0.7037699 0.0839499
0.9358529 0.7003568 0.0778745
0.9612314 0.6962479 0.0704173
0.9858010 0.6930007 0.0835145
0.9895258 0.6852374 0.1251444
0.4053641 0.7460883 0.1206802
0.4053641 0.7460883 0.1206802
0.4053641 0.7460883 0.1206802
0.4053641 0.7460883 0.1206802
0.4054285 0.7461509 0.1206994
0.4059020 0.7466102 0.1208404
0.4061016 0.7468036 0.1208998
0.4062144 0.7469129 0.1209333
0.4066625 0.7473467 0.1210668
0.4075941 0.7475161 0.1211119
0.4163962 0.7476572 0.1210736
0.4462604 0.7479348 0.1208665
0.4856544 0.7478725 0.1204243
0.5198461 0.7478223 0.1200027
0.5504461 0.7478825 0.1195902
0.5779491 0.7478618 0.1191252
0.6031691 0.7477170 0.1185893
0.6289612 0.7474364 0.1179183
0.6561360 0.7470870 0.1170913
0.6834656 0.7465853 0.1160850
0.7111022 0.7459257 0.1148650
0.7393629 0.7448509 0.1132944
0.7681437 0.7436243 0.1114115
0.7966531 0.7420040 0.1091188
0.8250879 0.7401888 0.1064090
0.8536103 0.7381915 0.1031877
0.8817979 0.7352377 0.0991048
0.9093634 0.7318334 0.0942343
0.9363483 0.7282489 0.0885015
0.9621408 0.7243568 0.0817508
0.9872054 0.7203091 0.0736417
0.9890098 0.7127506 0.0912319
0.4343404 0.7730859 0.1293067
0.4343404 0.7730859 0.1293067
0.4343742 0.7731161 0.1293167
0.4348638 0.7735538 0.1294625
0.4348914 0.7735785 0.1294707
0.4350779 0.7737451 0.1295262
0.4351792 0.7738355 0.1295564
0.4356496 0.7742551 0.1296965
0.4358154 0.7744029 0.1297458
0.4359673 0.7745383 0.1297910
0.4379951 0.7749279 0.1299065
0.4491558 0.7750397 0.1298393
0.4824631 0.7749887 0.1294896
0.5190009 0.7749347 0.1290708
0.5493296 0.7748889 0.1286590
0.5768233 0.7748482 0.1282218
0.6020227 0.7748138 0.1277589
0.6275437 0.7746804 0.1271837
0.6541260 0.7743046 0.1264112
0.6816597 0.7737055 0.1254223
0.7092939 0.7733572 0.1243814
0.7371510 0.7724729 0.1229744
0.7658731 0.7712600 0.1212028
0.7948254 0.7700076 0.1191417
0.8236994 0.7684805 0.1166615
0.8521896 0.7664928 0.1136448
0.8805734 0.7639105 0.1099276
0.9088065 0.7605461 0.1053100
0.9359789 0.7568350 0.0999265
0.9627813 0.7530202 0.0935985
0.9875291 0.7484407 0.0861526
0.9884981 0.7411627 0.0826414
0.4662191 0.8004482 0.1387972
0.4662191 0.8004482 0.1387972
0.4662313 0.8004583 0.1388009
0.4664094 0.8006050 0.1388539
0.4664094 0.8006050 0.1388539
0.4664976 0.8006776 0.1388802
0.4669934 0.8010856 0.1390278
0.4671469 0.8012119 0.1390734
0.4672881 0.8013279 0.1391155
0.4677493 0.8017068 0.1392528
0.4678844 0.8018177 0.1392930
0.4697683 0.8018149 0.1392744
0.4819497 0.8017974 0.1391523
0.5161679 0.8017484 0.1387880
0.5476868 0.8019039 0.1384688
0.5752006 0.8021076 0.1381560
0.6006395 0.8020685 0.1377225
0.6257033 0.8020325 0.1372321
0.6523181 0.8016485 0.1364982
0.6793960 0.8010010 0.1355519
0.7068736 0.8004725 0.1345169
0.7346674 0.7998219 0.1332752
0.7635384 0.7991083 0.1317797
0.7923687 0.7977957 0.1298177
0.8213684 0.7962024 0.1274476
0.8502434 0.7945861 0.1247229
0.8788705 0.7922418 0.1212928
0.9074491 0.7893012 0.1170827
0.9350575 0.7860213 0.1121777
0.9624464 0.7817241 0.1060336
0.9871779 0.7773792 0.0993283
0.9880279 0.7700955 0.0958186
0.5006663 0.8276983 0.1490527
0.5006663 0.8276983 0.1490527
0.5006663 0.8276983 0.1490527
0.5006663 0.8276983 0.1490527
0.5006663 0.8276983 0.1490527
0.5007849 0.8277887 0.1490881
0.5014010 0.8282582 0.1492722
0.5014010 0.8282582 0.1492722
0.5014438 0.8282908 0.1492850
0.5015667 0.8283845 0.1493218
0.5017498 0.8285242 0.1493767
0.5021339 0.8288172 0.1494918
0.5039860 0.8288147 0.1494733
0.5153927 0.8287990 0.1493551
0.5449428 0.8288131 0.1490351
0.5729187 0.8288391 0.1486827
0.5985858 0.8287982 0.1482782
0.6237754 0.8287582 0.1478219
0.6497876 0.8286459 0.1472496
0.6769008 0.8282151 0.1464329
0.7043438 0.8278924 0.1455414
0.7319803 0.8274622 0.1444661
0.7609541 0.8266007 0.1429954
0.7899303 0.8254588 0.1411943
0.8186305 0.8243126 0.1391503
0.8478448 0.8225705 0.1365091
0.8766690 0.8201949 0.1332344
0.9057093 0.8174048 0.1292771
0.9339383 0.8142767 0.1246581
0.9613111 0.8106478 0.1192017
