proprietary/odm/etc/camera/filters_lut/log_video_sdr_3dlut.cube
#is_rgb_input 1
#is_rgb_output 1
#input_offset 0.000000
#shape_order 1.000000
#format 6
# MaxLuma:1000.00 MinLuma:0.00010 Eotf=Gamma
#LUT Size
LUT_3D_SIZE 9
#data domain
DOMAIN_MIN 0 0 0
DOMAIN_MAX 1.0 1.0 1.0
#LUT data points
0 0 0
0.0856031 0.0175784 0.0307469
0.19144 0.0391089 0.0675364
0.318746 0.0653086 0.111437
0.487816 0.100084 0.171145
0.714687 0.147036 0.251057
0.948058 0.195514 0.33341
0.994476 0.217441 0.380804
0.994492 0.231083 0.420203
0.0175784 0.063798 0.0387579
0.0641184 0.059266 0.0238499
0.17583 0.0387121 0.0429999
0.317388 0.065095 0.106767
0.494347 0.101442 0.173129
0.715648 0.147234 0.251392
0.948318 0.195575 0.333501
0.994476 0.217441 0.380819
0.994492 0.231098 0.420218
0.0467536 0.168032 0.098146
0.0482032 0.166155 0.0780804
0.173648 0.160449 0.0638285
0.329931 0.143832 0.0870222
0.53753 0.110826 0.149386
0.772045 0.15906 0.260563
0.949233 0.195773 0.333837
0.994476 0.217456 0.380926
0.994492 0.231128 0.420249
0.0899214 0.320867 0.183764
0.0909438 0.320027 0.173297
0.143297 0.316716 0.11194
0.332891 0.308736 0.122713
0.565576 0.283009 0.155016
0.823453 0.198795 0.20061
0.994476 0.20885 0.32134
0.994476 0.218296 0.382345
0.994492 0.231174 0.420294
0.161151 0.566217 0.317052
0.162081 0.566186 0.309377
0.166049 0.564874 0.266224
0.320439 0.563455 0.203754
0.588617 0.549447 0.219364
0.874601 0.496986 0.25304
0.994736 0.389349 0.277211
0.994507 0.269245 0.293629
0.994492 0.239231 0.399893
0.233219 0.801938 0.431037
0.233814 0.801892 0.425513
0.236316 0.801312 0.398947
0.270649 0.80296 0.318242
0.52755 0.804517 0.298238
0.825711 0.778424 0.313344
0.995727 0.712947 0.333928
0.995529 0.639414 0.343984
0.995331 0.575982 0.371984
0.288762 0.947066 0.457755
0.289845 0.947295 0.453193
0.300191 0.948852 0.437186
0.324727 0.95137 0.389136
0.480491 0.956039 0.357397
0.719005 0.946868 0.367544
0.953628 0.912062 0.382315
0.995682 0.867948 0.381155
0.995834 0.847913 0.395666
0.461433 0.99588 0.399832
0.465965 0.995865 0.399969
0.48278 0.99585 0.400488
0.520745 0.995789 0.40177
0.596124 0.995453 0.40531
0.723247 0.993683 0.418997
0.878264 0.990173 0.455955
0.988693 0.970993 0.473167
0.990616 0.960571 0.466911
0.801984 0.991226 0.593088
0.802853 0.991211 0.593225
0.805982 0.991165 0.593545
0.813336 0.991043 0.594446
0.830228 0.990799 0.596414
0.864027 0.990417 0.600717
0.91696 0.990234 0.606973
0.974258 0.99086 0.607477
0.990539 0.990539 0.569879
0.00991836 0.0203708 0.0825055
0.0756695 0.0175631 0.0727703
0.187625 0.0387274 0.0814374
0.319234 0.0654765 0.114473
0.487312 0.0999771 0.170977
0.714458 0.14699 0.250965
0.947997 0.195514 0.333394
0.994476 0.217426 0.380789
0.994492 0.231083 0.420203
0.0191043 0.0632486 0.061326
0.0581674 0.0580148 0.0563973
0.175891 0.0366674 0.0598306
0.321691 0.0659953 0.110979
0.493507 0.101259 0.172854
0.715419 0.147189 0.251316
0.948226 0.19556 0.333471
0.994476 0.217441 0.380835
0.994492 0.231098 0.420218
0.0466926 0.167468 0.106065
0.0479133 0.165728 0.0912795
0.171618 0.160082 0.0648966
0.334188 0.141009 0.0889448
0.537194 0.11075 0.149462
0.771649 0.158984 0.260456
0.949203 0.195758 0.333822
0.994476 0.217456 0.380926
0.994492 0.231113 0.420249
0.0898756 0.32108 0.189258
0.0907759 0.320104 0.179599
0.132677 0.317449 0.113191
0.332372 0.30901 0.123247
0.57023 0.281987 0.156161
0.823133 0.198703 0.200534
0.994476 0.208835 0.32134
0.994476 0.218296 0.38233
0.994492 0.231174 0.420294
0.161288 0.566979 0.322377
0.162188 0.566903 0.315007
0.166003 0.565301 0.273915
0.314382 0.563943 0.204761
0.589303 0.550378 0.220264
0.875685 0.496544 0.253468
0.994736 0.389334 0.277195
0.994507 0.269154 0.293629
0.994492 0.239216 0.399908
0.233387 0.802335 0.435752
0.233967 0.802274 0.430304
0.236469 0.801755 0.404486
0.268925 0.803418 0.325689
0.524407 0.805188 0.29929
0.826093 0.778851 0.31397
0.995727 0.712947 0.333913
0.995529 0.639414 0.343984
0.995331 0.575921 0.371954
0.288685 0.947204 0.462043
0.289784 0.947448 0.457572
0.298772 0.948837 0.44123
0.323445 0.951461 0.394308
0.476371 0.956222 0.358206
0.717617 0.947158 0.3682
0.95378 0.912123 0.382727
0.995682 0.867948 0.381155
0.995834 0.847883 0.395651
0.457786 0.99588 0.400824
0.462379 0.99588 0.400961
0.479545 0.995865 0.401511
0.517754 0.995804 0.402731
0.593957 0.995468 0.406195
0.721935 0.993698 0.419654
0.877836 0.99025 0.456458
0.988708 0.971038 0.473533
0.990616 0.960571 0.466911
0.801846 0.991211 0.595682
0.802686 0.991196 0.595804
0.805936 0.99115 0.596139
0.81323 0.991043 0.59704
0.830091 0.990799 0.598978
0.863966 0.990402 0.603326
0.916945 0.990234 0.609583
0.974243 0.990875 0.609598
0.990555 0.990555 0.571145
0.0220798 0.0463722 0.184466
0.0307927 0.0357824 0.177447
0.173037 0.0400854 0.16463
0.312764 0.0659342 0.171328
0.496712 0.102586 0.201816
0.726741 0.14966 0.26099
0.947631 0.195438 0.333257
0.994476 0.217426 0.380758
0.994492 0.231083 0.420203
0.00782788 0.0690166 0.156359
0.0118715 0.0623636 0.156085
0.164263 0.0386816 0.154742
0.318532 0.0670024 0.168719
0.502358 0.103761 0.203601
0.727855 0.149905 0.261646
0.94786 0.195483 0.333349
0.994476 0.217426 0.380804
0.994492 0.231098 0.420218
0.0510719 0.168139 0.162875
0.0513771 0.165988 0.160494
0.158785 0.159472 0.155642
0.343343 0.125582 0.148089
0.549691 0.113756 0.18822
0.782773 0.161334 0.271046
0.948821 0.195682 0.333684
0.994476 0.217441 0.38088
0.994492 0.231113 0.420233
0.091371 0.321126 0.223651
0.0921492 0.320363 0.217777
0.102556 0.319677 0.172442
0.330709 0.310018 0.136782
0.585901 0.277821 0.178744
0.832319 0.183764 0.211002
0.994476 0.208759 0.321401
0.994476 0.21828 0.38233
0.994492 0.231159 0.420294
0.162203 0.567819 0.346532
0.163027 0.56762 0.340414
0.166552 0.565957 0.307622
0.284718 0.567452 0.213275
0.589502 0.552163 0.225971
0.887556 0.491096 0.262821
0.994736 0.389059 0.277104
0.994507 0.268727 0.293584
0.994492 0.23917 0.400031
0.234028 0.803494 0.454536
0.234607 0.803372 0.449332
0.236927 0.802472 0.426047
0.261631 0.804837 0.354376
0.510704 0.807233 0.304021
0.826825 0.779843 0.317525
0.995727 0.710155 0.337163
0.995529 0.639292 0.343954
0.995331 0.575814 0.371939
0.288472 0.947631 0.478828
0.28954 0.94786 0.4748
0.293782 0.94876 0.457572
0.318166 0.95169 0.414252
0.459724 0.957366 0.361913
0.712093 0.948409 0.371145
0.954284 0.912581 0.385229
0.995682 0.867735 0.381796
0.995834 0.847822 0.395636
0.443168 0.99588 0.405142
0.448127 0.99588 0.405295
0.466331 0.995865 0.405768
0.50605 0.995819 0.40679
0.585199 0.995529 0.41001
0.716884 0.993774 0.422538
0.876158 0.990463 0.458549
0.988907 0.971283 0.475547
0.990616 0.96054 0.46685
0.801404 0.991165 0.605585
0.802319 0.99115 0.605737
0.805493 0.991104 0.606043
0.812848 0.990997 0.606912
0.829831 0.990753 0.608896
0.863661 0.990387 0.613596
0.916808 0.99025 0.619471
0.974289 0.990936 0.619883
0.990662 0.990662 0.577142
0.0356603 0.073991 0.296498
0.0356298 0.07393 0.2963
0.138796 0.0518959 0.285496
0.293843 0.0681163 0.278462
0.491081 0.104433 0.288106
0.737011 0.153155 0.317205
0.964416 0.199298 0.355947
0.994476 0.217411 0.380682
0.994492 0.231067 0.420188
0.0311742 0.0804608 0.277638
0.0312963 0.0797589 0.277455
0.129747 0.0545663 0.285451
0.300862 0.0697032 0.284184
0.493858 0.105028 0.289418
0.737667 0.153292 0.317708
0.964706 0.199359 0.356237
0.994476 0.217426 0.380713
0.994492 0.231067 0.420188
0.000656138 0.176013 0.281437
0.000640879 0.175097 0.287205
0.107774 0.157763 0.306554
0.324193 0.123476 0.304692
0.544976 0.115724 0.293736
0.793149 0.164691 0.326299
0.965972 0.199649 0.357397
0.994476 0.217426 0.380789
0.994492 0.231083 0.420203
0.098436 0.322423 0.31249
0.0987259 0.321355 0.311269
0.101244 0.31667 0.305715
0.309804 0.31104 0.304662
0.606439 0.25774 0.287602
0.841672 0.17911 0.288167
0.994476 0.211841 0.351125
0.994476 0.21825 0.382315
0.994492 0.231144 0.420279
0.16553 0.569207 0.412604
0.166217 0.568948 0.409079
0.169162 0.567132 0.390723
0.211627 0.57145 0.313375
0.587442 0.554803 0.279744
0.904051 0.481041 0.310689
0.994675 0.360403 0.299565
0.994507 0.267842 0.293477
0.994492 0.239063 0.40032
0.235676 0.804791 0.500511
0.23621 0.8047 0.496666
0.238544 0.804349 0.479026
0.25153 0.806317 0.422919
0.469612 0.812924 0.322301
0.827588 0.781811 0.329259
0.995712 0.704677 0.355795
0.995514 0.637644 0.346166
0.995331 0.575341 0.371862
0.288121 0.948241 0.517327
0.289113 0.948501 0.514305
0.293492 0.949554 0.499672
0.304402 0.951919 0.458656
0.412512 0.959991 0.372564
0.697093 0.951171 0.37937
0.954955 0.913207 0.391806
0.995712 0.865629 0.387427
0.995834 0.847776 0.395621
0.410483 0.995895 0.424201
0.413642 0.995895 0.422187
0.431479 0.995895 0.419104
0.477211 0.99585 0.420035
0.563851 0.995636 0.422339
0.704524 0.993927 0.432578
0.871885 0.990845 0.465827
0.989303 0.971893 0.481544
0.9906 0.960555 0.469169
0.800305 0.991073 0.628626
0.801099 0.991058 0.628656
0.804425 0.991012 0.629084
0.811826 0.99089 0.629969
0.828931 0.990662 0.631891
0.862684 0.990341 0.635508
0.916487 0.99028 0.642802
0.974334 0.991135 0.643839
0.991058 0.991058 0.600275
0.0520638 0.106905 0.431037
0.0520485 0.106874 0.430884
0.0533455 0.101961 0.434012
0.247044 0.0808118 0.438254
0.466438 0.108248 0.440314
0.732631 0.156909 0.444663
0.974929 0.203708 0.441535
0.994492 0.219272 0.428565
0.994492 0.231022 0.420142
0.0514992 0.108721 0.42948
0.0514839 0.108537 0.429191
0.0540322 0.105211 0.441444
0.250904 0.0831159 0.450614
0.467903 0.108537 0.440879
0.733303 0.157046 0.445045
0.975204 0.203769 0.44181
0.994492 0.219287 0.428763
0.994492 0.231022 0.420142
0.0357977 0.183627 0.460227
0.0359197 0.1832 0.459922
0.044358 0.177066 0.484474
0.25304 0.136477 0.505058
0.519738 0.120897 0.489662
0.788937 0.168688 0.466651
0.976211 0.203998 0.442832
0.994492 0.219318 0.429603
0.994492 0.231067 0.420188
0.0019379 0.329931 0.485298
0.00196841 0.331899 0.495048
0.00192264 0.326146 0.503471
0.231327 0.306493 0.54876
0.580179 0.256245 0.544686
0.841489 0.183948 0.468894
0.994492 0.216785 0.45095
0.994492 0.220127 0.435782
0.994492 0.231083 0.420203
0.175952 0.570184 0.553002
0.176333 0.569833 0.55256
0.178058 0.567727 0.550027
0.191287 0.567651 0.548669
0.554986 0.556359 0.546441
0.926162 0.458045 0.491569
0.994644 0.332982 0.425452
0.994492 0.230243 0.373831
0.994492 0.238773 0.400992
0.240543 0.806653 0.604486
0.241032 0.806592 0.602441
0.242969 0.806058 0.593103
0.25098 0.806592 0.565621
0.387549 0.819944 0.482856
0.822309 0.785595 0.457191
0.995697 0.691615 0.434012
0.995468 0.614038 0.404044
0.995331 0.574487 0.37171
0.289662 0.949828 0.600153
0.290044 0.949813 0.597543
0.293202 0.950561 0.587701
0.303258 0.953109 0.561074
0.346853 0.959503 0.474983
0.659007 0.958801 0.428046
0.956329 0.915373 0.424094
0.995712 0.861753 0.416876
0.995834 0.846265 0.402289
0.380285 0.995895 0.508644
0.383276 0.995895 0.506981
0.395956 0.995895 0.500389
0.42742 0.99588 0.485863
0.515618 0.995758 0.470451
0.677928 0.99411 0.475837
0.863447 0.990799 0.500023
0.990112 0.973632 0.508049
0.990555 0.96083 0.480568
0.797375 0.990875 0.675959
0.798184 0.990875 0.676005
0.801495 0.990829 0.676341
0.809064 0.990723 0.677256
0.82652 0.990524 0.679057
0.860792 0.99028 0.68246
0.915084 0.990387 0.689158
0.974273 0.991608 0.693019
0.991836 0.991836 0.661128
0.0712749 0.146151 0.588708
0.0712749 0.146136 0.588678
0.0712444 0.146075 0.588434
0.0841535 0.126925 0.609964
0.394308 0.12137 0.652216
0.701091 0.162982 0.65861
0.974411 0.210498 0.620874
0.994492 0.224567 0.581674
0.994507 0.241459 0.557809
0.0716564 0.147173 0.59202
0.0716106 0.147036 0.591623
0.0713359 0.146319 0.589212
0.0896773 0.12491 0.610819
0.396414 0.121553 0.652674
0.701808 0.163119 0.658839
0.974685 0.210559 0.620966
0.994492 0.224582 0.581888
0.994507 0.241474 0.557931
0.0750134 0.194949 0.666041
0.0750591 0.19469 0.665934
0.0750591 0.193286 0.664271
0.0870375 0.17084 0.710262
0.425361 0.143282 0.744717
0.749203 0.174243 0.702937
0.975723 0.210758 0.621347
0.994492 0.224628 0.58262
0.994507 0.241535 0.558587
0.0318761 0.328573 0.728298
0.032105 0.328328 0.728206
0.0328679 0.327291 0.727565
0.0594797 0.31133 0.772595
0.454398 0.266423 0.828992
0.807111 0.194537 0.752956
0.994507 0.224109 0.658244
0.994507 0.225406 0.593271
0.994507 0.241718 0.560372
0.00466926 0.567346 0.779126
0.00471504 0.570489 0.786099
0.00474556 0.572427 0.798108
0.0993973 0.56202 0.811124
0.438239 0.542107 0.88275
0.884825 0.454658 0.830442
0.994705 0.334325 0.684001
0.994522 0.242451 0.593439
0.994522 0.247471 0.561257
0.251804 0.804929 0.781704
0.252155 0.804913 0.781643
0.253513 0.804425 0.780941
0.257374 0.803311 0.779126
0.304448 0.808835 0.782391
0.783581 0.785641 0.774136
0.995743 0.68217 0.702571
0.995422 0.578088 0.624537
0.995117 0.488853 0.534066
0.294896 0.949844 0.745052
0.295201 0.949828 0.743893
0.296498 0.949905 0.739361
0.302052 0.951095 0.72784
0.329137 0.95729 0.69546
0.612711 0.963119 0.659586
0.948486 0.919203 0.64181
0.995529 0.85716 0.571862
0.99585 0.832776 0.507485
0.360327 0.99588 0.664118
0.362707 0.99588 0.663203
0.371862 0.99588 0.659571
0.396658 0.99585 0.651087
0.474357 0.995697 0.636973
0.651392 0.993652 0.634928
0.855573 0.990341 0.650339
0.990356 0.977447 0.646281
0.99028 0.962768 0.571633
0.789715 0.990631 0.75845
0.790646 0.990616 0.758556
0.794202 0.99057 0.758785
0.802365 0.990494 0.759258
0.820111 0.990341 0.760204
0.855863 0.990219 0.763424
0.911894 0.990707 0.768505
0.972274 0.992569 0.772641
0.993332 0.993332 0.757794
0.0920119 0.188449 0.758389
0.0920119 0.188449 0.758373
0.0919966 0.188418 0.758236
0.0919661 0.188342 0.757961
0.170413 0.149447 0.815473
0.595438 0.172488 0.907988
0.93695 0.217533 0.867872
0.994537 0.23473 0.808011
0.994568 0.258503 0.806317
0.0920272 0.188464 0.758465
0.0920119 0.188449 0.758389
0.0920119 0.188434 0.758312
0.0919661 0.188357 0.758022
0.173297 0.148699 0.815915
0.596597 0.172595 0.908202
0.937224 0.217578 0.867811
0.994537 0.23473 0.808072
0.994568 0.258518 0.806424
0.101793 0.216556 0.846647
0.101747 0.216388 0.846143
0.101579 0.215778 0.844556
0.101259 0.214389 0.841108
0.163455 0.16907 0.885237
0.61857 0.179385 0.940215
0.93846 0.217792 0.867796
0.994537 0.23476 0.808469
0.994568 0.258549 0.806683
0.0966049 0.315953 0.942733
0.0966506 0.315724 0.942611
0.096788 0.314824 0.942
0.0971389 0.312825 0.940932
0.129305 0.257542 0.973465
0.675471 0.210315 0.994492
0.994553 0.231235 0.916213
0.994537 0.234836 0.80943
0.994568 0.258656 0.807507
0.004654 0.545846 0.986648
0.004654 0.545708 0.986648
0.004654 0.545068 0.986664
0.00466926 0.5467 0.986633
0.161379 0.51107 0.990692
0.742138 0.447822 0.994888
0.994766 0.327718 0.969162
0.994568 0.255528 0.847944
0.994583 0.262974 0.816388
0.111208 0.794385 0.981399
0.110796 0.795132 0.983047
0.109743 0.796307 0.986252
0.120287 0.795209 0.986435
0.226764 0.784466 0.990097
0.666575 0.77116 0.995789
0.995789 0.670436 0.995789
0.995468 0.559533 0.937301
0.995163 0.471702 0.878386
0.302266 0.943877 0.918379
0.30248 0.943816 0.918288
0.303456 0.943725 0.91809
0.305806 0.943267 0.917418
0.316503 0.944533 0.918029
0.509636 0.956207 0.930922
0.91577 0.917205 0.908446
0.994568 0.85304 0.859541
0.995697 0.82211 0.830335
0.345586 0.995834 0.848157
0.346242 0.995834 0.847852
0.349294 0.995834 0.846174
0.357671 0.995819 0.841962
0.411261 0.995682 0.838468
0.600763 0.993332 0.837079
0.838193 0.990234 0.842573
0.987549 0.978943 0.839338
0.990677 0.962997 0.806668
0.770855 0.990448 0.86627
0.771832 0.990433 0.86627
0.775738 0.990402 0.866316
0.784573 0.990326 0.866529
0.8047 0.99025 0.86685
0.843656 0.990295 0.86746
0.903502 0.991287 0.869307
0.966918 0.993988 0.870924
0.995743 0.995743 0.865934
0.113008 0.23122 0.92961
0.113008 0.23122 0.92961
0.112993 0.231189 0.929503
0.112978 0.231174 0.929442
0.112947 0.231113 0.929198
0.314687 0.178195 0.994827
0.834424 0.210193 0.994446
0.994583 0.245014 0.983627
0.994629 0.27158 0.989654
0.113008 0.23122 0.929625
0.113008 0.23122 0.92961
0.112993 0.23122 0.92958
0.112993 0.231189 0.929488
0.112947 0.231113 0.929183
0.316594 0.178286 0.994827
0.834821 0.210239 0.994446
0.994583 0.245014 0.983597
0.994629 0.27158 0.989654
0.113024 0.23125 0.929732
0.113024 0.23125 0.929732
0.113008 0.231235 0.929671
0.112993 0.231205 0.929549
0.112963 0.231128 0.929259
0.324437 0.178683 0.994812
0.836332 0.210391 0.994446
0.994583 0.24506 0.98352
0.994629 0.271595 0.98967
0.112062 0.291295 0.991623
0.112108 0.291096 0.991623
0.112276 0.290364 0.991638
0.112627 0.288716 0.991669
0.113634 0.284138 0.991745
0.359304 0.200153 0.99469
0.890257 0.220676 0.994507
0.994583 0.245121 0.983276
0.994629 0.271626 0.9897
0.00421149 0.507912 0.98735
0.00421149 0.507713 0.987366
0.00421149 0.507118 0.987366
0.00419623 0.505486 0.987396
0.00415045 0.501503 0.987472
0.4168 0.430686 0.994614
0.962005 0.321706 0.99472
0.994614 0.261128 0.994614
0.994629 0.272999 0.990753
0.0803998 0.770001 0.985702
0.080354 0.76997 0.985702
0.0800641 0.769741 0.985687
0.0794842 0.769284 0.985687
0.0806744 0.770214 0.985702
0.373938 0.747234 0.995499
0.995758 0.658778 0.995758
0.995392 0.529976 0.995392
0.995117 0.445136 0.995117
0.244205 0.930953 0.99295
0.244602 0.930983 0.99295
0.246555 0.931334 0.992996
0.251469 0.931762 0.993072
0.269291 0.931121 0.993225
0.343709 0.930571 0.994781
0.839323 0.911131 0.993042
0.994369 0.843168 0.994369
0.995697 0.804746 0.995697
0.334005 0.995773 0.979767
0.334173 0.995773 0.979736
0.335622 0.995773 0.980041
0.340261 0.995758 0.980957
0.352132 0.995727 0.982589
0.469612 0.994629 0.990951
0.791806 0.99025 0.986526
0.976852 0.97731 0.973831
0.991501 0.958419 0.959136
0.726909 0.990539 0.966125
0.728267 0.990524 0.966064
0.732601 0.990478 0.965896
0.744198 0.990387 0.965286
0.768978 0.990265 0.963806
0.817029 0.990341 0.961364
0.887434 0.991714 0.957671
0.957717 0.995178 0.954025
0.998199 0.997955 0.95079
0.117327 0.265827 0.992065
0.117327 0.265827 0.992065
0.117327 0.265827 0.992065
0.117327 0.265812 0.992065
0.117342 0.265782 0.992065
0.117342 0.265736 0.992065
0.600107 0.205676 0.994507
0.994583 0.244587 0.994583
0.994644 0.275029 0.994644
0.117327 0.265827 0.992065
0.117327 0.265827 0.992065
0.117327 0.265827 0.992065
0.117327 0.265812 0.992065
0.117342 0.265782 0.992065
0.117342 0.265736 0.992065
0.601053 0.205722 0.994507
0.994583 0.244587 0.994583
0.994644 0.275029 0.994644
0.117327 0.265858 0.992065
0.117327 0.265843 0.992065
0.117327 0.265843 0.992065
0.117327 0.265827 0.992065
0.117327 0.265812 0.992065
0.117342 0.265751 0.992065
0.604883 0.20589 0.994507
0.994583 0.244602 0.994583
0.994644 0.275044 0.994644
0.114839 0.278401 0.991836
0.114855 0.278294 0.991852
0.114931 0.277897 0.991852
0.115145 0.27689 0.991867
0.115663 0.274296 0.991913
0.117342 0.265782 0.992065
0.613779 0.206317 0.994507
0.994583 0.244648 0.994583
0.994644 0.27509 0.994644
0.00378424 0.469184 0.988128
0.00378424 0.469001 0.988128
0.00378424 0.468299 0.988144
0.00376898 0.466667 0.988174
0.0037232 0.462455 0.988266
0.036759 0.452003 0.988479
0.746624 0.3178 0.994583
0.994598 0.254459 0.994598
0.994644 0.275181 0.994644
0.0472419 0.749569 0.985382
0.0471504 0.749523 0.985382
0.0468147 0.749386 0.985382
0.0457618 0.748959 0.985382
0.0426337 0.747753 0.985367
0.0301366 0.744213 0.985321
0.767269 0.684245 0.995651
0.995331 0.508904 0.995331
0.99501 0.411337 0.99501
0.220951 0.918776 0.991928
0.220951 0.918776 0.991928
0.220905 0.918715 0.991913
0.220844 0.918639 0.991913
0.2206 0.918379 0.991897
0.230594 0.919142 0.992081
0.605737 0.922225 0.995682
0.994492 0.841001 0.994492
0.995819 0.790112 0.995819
0.316182 0.995804 0.995804
0.316381 0.995804 0.995804
0.317174 0.995804 0.995804
0.318914 0.995789 0.995789
0.323247 0.995789 0.995789
0.341558 0.995743 0.995743
0.639979 0.991669 0.991669
0.947814 0.975998 0.992355
0.991287 0.952865 0.991287
0.577783 0.992782 0.992782
0.580102 0.992752 0.992752
0.58912 0.992584 0.992584
0.611536 0.992172 0.992172
0.656641 0.991394 0.991394
0.740185 0.990341 0.990341
0.848524 0.990951 0.990951
0.942702 0.995102 0.995102
0.999313 0.999496 0.998444
