proprietary/odm/etc/camera/filters_lut/log_video_sdr_3dlut.cube
#is_rgb_input 1
#is_rgb_output 1
#input_offset 0.000000
#shape_order 1.000000
#format 6
# MaxLuma:1000.00 MinLuma:0.00010 Eotf=Gamma
#LUT Size
LUT_3D_SIZE 5
#data domain
DOMAIN_MIN 0 0 0
DOMAIN_MAX 1.0 1.0 1.0
#LUT data points
0 0 0
0.19144 0.0391089 0.0675364
0.487816 0.100084 0.171145
0.948058 0.195514 0.33341
0.994492 0.231083 0.420203
0.0467536 0.168032 0.098146
0.173648 0.160449 0.0638285
0.53753 0.110826 0.149386
0.949233 0.195773 0.333837
0.994492 0.231128 0.420249
0.161151 0.566217 0.317052
0.166049 0.564874 0.266224
0.588617 0.549447 0.219364
0.994736 0.389349 0.277211
0.994492 0.239231 0.399893
0.288762 0.947066 0.457755
0.300191 0.948852 0.437186
0.480491 0.956039 0.357397
0.953628 0.912062 0.382315
0.995834 0.847913 0.395666
0.801984 0.991226 0.593088
0.805982 0.991165 0.593545
0.830228 0.990799 0.596414
0.91696 0.990234 0.606973
0.990539 0.990539 0.569879
0.0220798 0.0463722 0.184466
0.173037 0.0400854 0.16463
0.496712 0.102586 0.201816
0.947631 0.195438 0.333257
0.994492 0.231083 0.420203
0.0510719 0.168139 0.162875
0.158785 0.159472 0.155642
0.549691 0.113756 0.18822
0.948821 0.195682 0.333684
0.994492 0.231113 0.420233
0.162203 0.567819 0.346532
0.166552 0.565957 0.307622
0.589502 0.552163 0.225971
0.994736 0.389059 0.277104
0.994492 0.23917 0.400031
0.288472 0.947631 0.478828
0.293782 0.94876 0.457572
0.459724 0.957366 0.361913
0.954284 0.912581 0.385229
0.995834 0.847822 0.395636
0.801404 0.991165 0.605585
0.805493 0.991104 0.606043
0.829831 0.990753 0.608896
0.916808 0.99025 0.619471
0.990662 0.990662 0.577142
0.0520638 0.106905 0.431037
0.0533455 0.101961 0.434012
0.466438 0.108248 0.440314
0.974929 0.203708 0.441535
0.994492 0.231022 0.420142
0.0357977 0.183627 0.460227
0.044358 0.177066 0.484474
0.519738 0.120897 0.489662
0.976211 0.203998 0.442832
0.994492 0.231067 0.420188
0.175952 0.570184 0.553002
0.178058 0.567727 0.550027
0.554986 0.556359 0.546441
0.994644 0.332982 0.425452
0.994492 0.238773 0.400992
0.289662 0.949828 0.600153
0.293202 0.950561 0.587701
0.346853 0.959503 0.474983
0.956329 0.915373 0.424094
0.995834 0.846265 0.402289
0.797375 0.990875 0.675959
0.801495 0.990829 0.676341
0.82652 0.990524 0.679057
0.915084 0.990387 0.689158
0.991836 0.991836 0.661128
0.0920119 0.188449 0.758389
0.0919966 0.188418 0.758236
0.170413 0.149447 0.815473
0.93695 0.217533 0.867872
0.994568 0.258503 0.806317
0.101793 0.216556 0.846647
0.101579 0.215778 0.844556
0.163455 0.16907 0.885237
0.93846 0.217792 0.867796
0.994568 0.258549 0.806683
0.004654 0.545846 0.986648
0.004654 0.545068 0.986664
0.161379 0.51107 0.990692
0.994766 0.327718 0.969162
0.994583 0.262974 0.816388
0.302266 0.943877 0.918379
0.303456 0.943725 0.91809
0.316503 0.944533 0.918029
0.91577 0.917205 0.908446
0.995697 0.82211 0.830335
0.770855 0.990448 0.86627
0.775738 0.990402 0.866316
0.8047 0.99025 0.86685
0.903502 0.991287 0.869307
0.995743 0.995743 0.865934
0.117327 0.265827 0.992065
0.117327 0.265827 0.992065
0.117342 0.265782 0.992065
0.600107 0.205676 0.994507
0.994644 0.275029 0.994644
0.117327 0.265858 0.992065
0.117327 0.265843 0.992065
0.117327 0.265812 0.992065
0.604883 0.20589 0.994507
0.994644 0.275044 0.994644
0.00378424 0.469184 0.988128
0.00378424 0.468299 0.988144
0.0037232 0.462455 0.988266
0.746624 0.3178 0.994583
0.994644 0.275181 0.994644
0.220951 0.918776 0.991928
0.220905 0.918715 0.991913
0.2206 0.918379 0.991897
0.605737 0.922225 0.995682
0.995819 0.790112 0.995819
0.577783 0.992782 0.992782
0.58912 0.992584 0.992584
0.656641 0.991394 0.991394
0.848524 0.990951 0.990951
0.999313 0.999496 0.998444
