proprietary/odm/etc/camera/filters_lut/log_video_hdr_3dlut.cube
#is_rgb_input 1
#is_rgb_output 1
#input_offset 0.000000
#shape_order 1.000000
#format 6
# MaxLuma:1000.00 MinLuma:0.00010 Eotf=Gamma
#LUT Size
LUT_3D_SIZE 9
#data domain
DOMAIN_MIN 0 0 0
DOMAIN_MAX 1.0 1.0 1.0
#LUT data points
0 0 0
0.0816358 0 0
0.183917 0 0
0.308659 0 0
0.485985 0.00582895 0.00582895
0.692363 0.0184787 0.0184787
0.863523 0.0428931 0.0428931
0.978286 0.0880446 0.0880446
1 0.200687 0.200687
0.00947585 0.0632181 0
0.0614328 0.0577096 0
0.167803 0.0456397 0
0.306996 0.0326543 0
0.493172 0.0127565 0.00486763
0.693095 0.0186465 0.0186465
0.863706 0.0429236 0.0429236
0.978317 0.0880751 0.0880751
1 0.200717 0.200717
0.0413519 0.166857 0.00164797
0.0727092 0.16495 0
0.166629 0.158129 0
0.31426 0.145129 0
0.537591 0.124697 0
0.735042 0.0949569 0.0140536
0.864378 0.0430762 0.0430762
0.978485 0.0881971 0.0881971
1 0.200855 0.200855
0.0925307 0.321874 0.0205234
0.113161 0.320974 0.019028
0.185657 0.317113 0.0136263
0.322728 0.30721 0.00198367
0.550958 0.291585 0.00411994
0.76289 0.269718 0.0197452
0.907744 0.22855 0.0485237
0.98735 0.129809 0.0932326
1 0.201114 0.201114
0.200717 0.588067 0.0690623
0.215915 0.588052 0.0684672
0.272129 0.586801 0.065507
0.389258 0.582437 0.0581216
0.590875 0.571405 0.0398871
0.773068 0.555138 0.0456855
0.911009 0.526452 0.0750439
0.993774 0.469368 0.129122
1 0.316487 0.217914
0.384161 0.787976 0.159152
0.39379 0.787945 0.15877
0.43241 0.787549 0.157076
0.51754 0.786206 0.151965
0.647288 0.783017 0.139773
0.788769 0.775433 0.109148
0.907988 0.764904 0.118761
0.985611 0.748714 0.170092
1 0.715862 0.26453
0.624262 0.912398 0.302678
0.628092 0.912306 0.302266
0.642588 0.912062 0.300771
0.673335 0.911177 0.29662
0.731289 0.909483 0.287785
0.816556 0.905852 0.266285
0.907851 0.899504 0.215412
0.97438 0.892592 0.230854
1 0.883864 0.315892
0.800061 0.976883 0.528511
0.80116 0.976852 0.528313
0.805295 0.976791 0.527596
0.815 0.976501 0.525658
0.835645 0.97586 0.520699
0.873472 0.974548 0.509316
0.925353 0.972259 0.480461
0.973129 0.969131 0.407263
1 0.966659 0.44271
0.924788 1 0.766796
0.925048 1 0.766796
0.925963 1 0.766705
0.928115 1 0.766598
0.933165 1 0.766171
0.943694 1 0.765087
0.961501 1 0.761746
0.98352 1 0.751019
1 1 0.712749
0 0 0.10692
0.0719768 0 0.0814832
0.180148 0 0.0522469
0.309117 0 0.0276341
0.485405 0.00581369 0.00581369
0.69218 0.0184634 0.0184634
0.863478 0.0428779 0.0428779
0.978271 0.0880293 0.0880293
1 0.200687 0.200687
0.00187686 0.0616465 0.0605783
0.0560616 0.0560311 0.0543832
0.16791 0.0433356 0.0400854
0.311376 0.0280766 0.0198825
0.492226 0.0123598 0.00489815
0.692912 0.0186313 0.0186313
0.863645 0.0429084 0.0429084
0.978332 0.0880751 0.0880751
1 0.200717 0.200717
0.0370336 0.166186 0.0460822
0.0688029 0.164477 0.0434272
0.164492 0.157717 0.0359197
0.318212 0.14316 0.0204318
0.537255 0.124392 0
0.734752 0.0947585 0.0140383
0.864363 0.0430762 0.0430762
0.978485 0.0881971 0.0881971
1 0.200824 0.200824
0.0898604 0.322148 0.0513313
0.110445 0.321111 0.0500496
0.183459 0.317433 0.0449989
0.322225 0.307561 0.0341955
0.555306 0.291142 0.0167849
0.762676 0.269566 0.0197147
0.907683 0.228412 0.0485084
0.987289 0.129595 0.0931868
1 0.201114 0.201114
0.199023 0.588769 0.0923323
0.214191 0.588708 0.0917678
0.27042 0.587213 0.089189
0.387549 0.58262 0.0822003
0.591501 0.572396 0.0647593
0.773678 0.555016 0.0501869
0.910948 0.526406 0.0750286
0.993774 0.469276 0.129107
1 0.31635 0.217884
0.382712 0.788205 0.175937
0.392401 0.788144 0.175525
0.431083 0.787793 0.173693
0.516411 0.78645 0.168933
0.646784 0.783261 0.157259
0.789044 0.775799 0.125521
0.907942 0.764874 0.11873
0.985611 0.748714 0.170092
1 0.715831 0.2645
0.623575 0.912459 0.313634
0.627482 0.912383 0.313268
0.641947 0.912093 0.311742
0.672816 0.911238 0.307622
0.730755 0.909438 0.298756
0.816342 0.905882 0.277867
0.907897 0.899535 0.224201
0.97438 0.892592 0.230854
1 0.883833 0.315847
0.799863 0.976913 0.534707
0.800961 0.976867 0.534569
0.805142 0.976776 0.534005
0.814771 0.976486 0.53196
0.835508 0.975891 0.527337
0.873365 0.974563 0.516304
0.925322 0.97229 0.488182
0.973144 0.969146 0.412634
1 0.966659 0.44271
0.924743 1 0.768383
0.924987 1 0.768383
0.925948 1 0.768292
0.928084 1 0.76817
0.93312 1 0.767742
0.943679 1 0.76669
0.961486 1 0.763409
0.983505 1 0.75259
1 1 0.714214
0 0 0.240116
0.0409094 0 0.227039
0.16553 0 0.184512
0.30219 0 0.150057
0.49543 0.00444038 0.115633
0.701442 0.0173953 0.0682383
0.863203 0.0428168 0.0428168
0.97821 0.0879835 0.0879835
1 0.200656 0.200656
0 0.056672 0.193805
0.0347753 0.0520638 0.19263
0.156893 0.0404669 0.171679
0.307805 0.0251774 0.145312
0.501808 0.00831617 0.116091
0.702281 0.0175479 0.0698253
0.863371 0.0428626 0.0428626
0.978271 0.0880293 0.0880293
1 0.200687 0.200671
0.0213474 0.164385 0.162066
0.0557412 0.162585 0.159991
0.155505 0.1561 0.152193
0.314382 0.140993 0.135546
0.549737 0.116655 0.105898
0.742977 0.0831769 0.0583658
0.864073 0.0430152 0.0430152
0.978424 0.0881361 0.0881361
1 0.200793 0.200793
0.0802014 0.321202 0.146456
0.101534 0.32047 0.145312
0.17557 0.316655 0.139971
0.318471 0.307744 0.13048
0.564355 0.292592 0.111955
0.772107 0.261646 0.0690623
0.907439 0.227756 0.0483864
0.987182 0.128954 0.0931411
1 0.201068 0.201068
0.192523 0.589014 0.171847
0.207813 0.588846 0.171374
0.264149 0.587304 0.168948
0.382849 0.583108 0.16289
0.590829 0.573648 0.149096
0.779492 0.553506 0.113619
0.91075 0.526024 0.0749065
0.993744 0.468833 0.129
1 0.315831 0.217777
0.377707 0.788724 0.236652
0.3879 0.788617 0.23624
0.426337 0.787915 0.234592
0.512398 0.786984 0.230671
0.644541 0.783612 0.220081
0.789166 0.776318 0.193698
0.909651 0.763973 0.151827
0.98558 0.748623 0.170001
1 0.715755 0.264469
0.621118 0.912566 0.356085
0.624933 0.912474 0.355673
0.639399 0.912139 0.35404
0.670756 0.911345 0.350317
0.72929 0.909606 0.341848
0.815686 0.90605 0.321859
0.908034 0.899748 0.273106
0.974533 0.892531 0.238865
1 0.883803 0.315785
0.79913 0.976944 0.557763
0.800259 0.976913 0.557641
0.804486 0.976806 0.556924
0.814023 0.976486 0.554818
0.834943 0.975937 0.551369
0.872969 0.974609 0.541268
0.925139 0.97232 0.516808
0.973205 0.969223 0.44239
1 0.966628 0.442603
0.92462 1 0.774319
0.92488 1 0.774334
0.925811 1 0.774243
0.927977 1 0.774121
0.933028 1 0.773739
0.943557 1 0.772992
0.961425 1 0.769665
0.983474 1 0.759899
1 1 0.720821
0.000549325 0.000549325 0.388479
0.000549325 0.000549325 0.38819
0.133547 0 0.35613
0.282795 0 0.313634
0.487739 0.00433356 0.272312
0.707866 0.0166476 0.228824
0.874601 0.0407568 0.160693
0.978073 0.0878767 0.0878767
1 0.200565 0.200565
0 0.0481422 0.358267
0 0.0472267 0.35819
0.128298 0.0351415 0.35465
0.289708 0.0206302 0.319814
0.490776 0.00535592 0.273548
0.708354 0.0166781 0.229572
0.8748 0.0407874 0.161639
0.978119 0.0879072 0.0879072
1 0.200595 0.200595
0 0.158999 0.334081
0.0222171 0.157794 0.341955
0.132494 0.151812 0.339849
0.29778 0.137606 0.319097
0.543603 0.113375 0.28098
0.749203 0.0759594 0.228779
0.875685 0.0409247 0.165179
0.978271 0.0880293 0.0880293
1 0.200687 0.200687
0.057145 0.318517 0.314244
0.0802319 0.317601 0.313115
0.157595 0.314031 0.308919
0.306172 0.307225 0.300587
0.562173 0.293385 0.283238
0.778149 0.261158 0.243
0.917281 0.202228 0.161257
0.986831 0.127169 0.0928969
1 0.200961 0.200961
0.177447 0.588556 0.322713
0.19321 0.588342 0.322301
0.251102 0.586725 0.319951
0.371496 0.582727 0.313512
0.58674 0.574166 0.302296
0.781094 0.554055 0.272694
0.91931 0.512993 0.202747
0.993652 0.467887 0.128771
1 0.314519 0.217517
0.366995 0.788708 0.360449
0.376837 0.788617 0.360113
0.416297 0.788281 0.358755
0.503838 0.78703 0.354986
0.640574 0.784192 0.346548
0.78851 0.776944 0.323873
0.912596 0.76318 0.26807
0.986038 0.747845 0.184527
1 0.71545 0.264317
0.615503 0.91249 0.448356
0.619135 0.912413 0.448081
0.634501 0.912108 0.446571
0.666438 0.911482 0.443366
0.726116 0.909712 0.434974
0.813825 0.905943 0.416297
0.907744 0.899702 0.374365
0.975631 0.891798 0.299428
1 0.883772 0.315694
0.797345 0.976974 0.604608
0.798383 0.976928 0.604379
0.80267 0.976791 0.603586
0.812604 0.976547 0.602319
0.833677 0.975982 0.599435
0.872068 0.97467 0.59176
0.924575 0.97232 0.572992
0.973266 0.969314 0.51809
1 0.966522 0.466972
0.9243 1 0.788113
0.924529 1 0.788067
0.925505 1 0.788052
0.927672 1 0.787961
0.932754 1 0.78761
0.943221 1 0.786389
0.961288 1 0.784192
0.983413 1 0.775708
1 1 0.741955
0.0030518 0.0030518 0.56701
0.0030518 0.0030518 0.566827
0.0581521 0 0.56907
0.239216 0 0.545068
0.460761 0.00526436 0.508324
0.701747 0.0170596 0.466163
0.878096 0.040177 0.410758
0.986481 0.0865797 0.31603
1 0.200381 0.200366
0 0.0360418 0.563592
0 0.035111 0.563348
0.0578317 0.0265965 0.576608
0.243748 0.0146487 0.559152
0.462348 0.00535592 0.508843
0.702235 0.0171054 0.466712
0.878279 0.0402228 0.411353
0.986526 0.0866255 0.31667
1 0.200381 0.200381
0 0.147219 0.577447
0 0.146746 0.577218
0.0725414 0.142061 0.603265
0.256214 0.12987 0.597925
0.518898 0.107683 0.562341
0.742596 0.0707256 0.498024
0.878996 0.0403601 0.413565
0.986725 0.0867475 0.319326
1 0.200488 0.200488
0 0.307652 0.568734
0.023331 0.30927 0.57908
0.113558 0.30692 0.585031
0.272953 0.302693 0.583856
0.544106 0.290517 0.571206
0.774533 0.258778 0.529519
0.921126 0.199115 0.451637
0.993729 0.115068 0.334844
1 0.200687 0.200687
0.138705 0.585077 0.579629
0.155535 0.584833 0.579309
0.217823 0.583322 0.577462
0.344259 0.58088 0.574792
0.572183 0.573236 0.564492
0.777386 0.55285 0.53962
0.921508 0.51043 0.481819
1 0.426703 0.358907
1 0.311269 0.216846
0.342306 0.78822 0.579721
0.352834 0.788144 0.579507
0.393103 0.787564 0.578271
0.483955 0.786648 0.576074
0.630304 0.783841 0.569085
0.784573 0.776516 0.553475
0.91284 0.762234 0.512291
0.990631 0.739437 0.409216
1 0.714931 0.263996
0.603693 0.912337 0.608469
0.60798 0.912276 0.608225
0.62385 0.912016 0.607309
0.65745 0.911147 0.604685
0.719432 0.909438 0.599222
0.810346 0.905867 0.587457
0.906828 0.899565 0.559899
0.977035 0.891081 0.486763
1 0.882963 0.357092
0.793408 0.976959 0.684489
0.794583 0.976944 0.684413
0.799115 0.976837 0.684138
0.809293 0.976593 0.68333
0.83093 0.975967 0.680964
0.870146 0.974716 0.675944
0.923674 0.972366 0.663813
0.973129 0.969314 0.633326
1 0.966308 0.556848
0.923568 1 0.816052
0.923796 1 0.816022
0.924743 1 0.815976
0.92697 1 0.815961
0.932097 1 0.815702
0.942672 1 0.814755
0.96083 1 0.812909
0.983261 1 0.807279
1 1 0.784695
0.0074464 0.0074464 0.716381
0.0074464 0.0074464 0.716365
0.00743114 0.00743114 0.716167
0.139376 0.00440986 0.731975
0.398016 0.00808728 0.73019
0.680735 0.0192111 0.718044
0.872587 0.0415351 0.698222
0.988785 0.0890211 0.669871
1 0.199237 0.603311
0.00602731 0.0144198 0.718975
0.00622568 0.0134432 0.718669
0.00697337 0.00933852 0.716777
0.143435 0.00442512 0.732158
0.400107 0.00814832 0.730312
0.68127 0.0192721 0.718227
0.872786 0.0415808 0.698344
0.988846 0.0890822 0.67013
1 0.199268 0.60351
0 0.128664 0.766079
0 0.128283 0.766064
0 0.126513 0.765118
0.152743 0.114748 0.802823
0.446677 0.0947433 0.792844
0.717464 0.0619516 0.753124
0.873503 0.0417487 0.698833
0.988998 0.08925 0.671016
1 0.19942 0.604654
0.00364691 0.290349 0.780743
0.00363165 0.290074 0.780728
0.00357061 0.288914 0.780468
0.181933 0.286275 0.81004
0.482673 0.279683 0.81149
0.757641 0.251209 0.787594
0.916014 0.191562 0.747265
0.993713 0.109117 0.683101
1 0.199741 0.607752
0.0365301 0.567269 0.788602
0.054902 0.570626 0.79292
0.126787 0.574136 0.799496
0.273884 0.572869 0.800275
0.528572 0.567651 0.796002
0.763714 0.547921 0.781964
0.918013 0.504967 0.755306
1 0.419348 0.712261
1 0.281422 0.622126
0.279057 0.785702 0.781933
0.290684 0.785702 0.781918
0.335088 0.785351 0.781491
0.432502 0.784619 0.780529
0.603265 0.781994 0.777371
0.773831 0.774746 0.768582
0.909636 0.760128 0.750744
0.991043 0.735546 0.716442
1 0.684916 0.625528
0.575952 0.911437 0.772107
0.580789 0.91133 0.771939
0.59884 0.911086 0.771527
0.637034 0.91043 0.770352
0.705379 0.908705 0.767315
0.802258 0.905043 0.76022
0.903746 0.89865 0.747555
0.976837 0.88986 0.721248
1 0.877745 0.649714
0.785794 0.976806 0.791928
0.787015 0.976791 0.791897
0.791653 0.976684 0.791714
0.801984 0.976379 0.790982
0.824964 0.975784 0.789792
0.866087 0.974456 0.786587
0.921645 0.972091 0.779812
0.97258 0.969055 0.765591
1 0.965927 0.725628
0.92192 1 0.863203
0.922179 1 0.863218
0.923171 1 0.863188
0.92549 1 0.86305
0.930632 1 0.862669
0.941512 1 0.86244
0.960098 1 0.861295
0.982834 1 0.858274
1 1 0.84741
0.0157321 0.0157321 0.841932
0.0157321 0.0157321 0.841917
0.0157168 0.0157168 0.841825
0.0157015 0.0157015 0.841627
0.252705 0.014725 0.88191
0.627131 0.0245975 0.890059
0.855482 0.0457771 0.883238
0.985489 0.0950027 0.879225
1 0.203647 0.863096
0.0157321 0.0157321 0.841978
0.0157321 0.0157321 0.841932
0.0157168 0.0157168 0.841871
0.0157015 0.0157015 0.841672
0.255222 0.014786 0.882185
0.628031 0.0246586 0.890135
0.85565 0.0458076 0.883238
0.985519 0.0950332 0.879255
1 0.203677 0.863157
0.0117494 0.0986801 0.897871
0.0117189 0.0982376 0.897566
0.0117189 0.0963455 0.896635
0.0118105 0.091783 0.894652
0.278981 0.0729229 0.931273
0.650172 0.0453498 0.90866
0.856474 0.0459602 0.883421
0.985687 0.0952163 0.879484
1 0.203815 0.863355
0.0141909 0.263066 0.928435
0.0141909 0.262776 0.92842
0.0141451 0.261601 0.928313
0.0140841 0.258961 0.928267
0.312596 0.25185 0.962325
0.708415 0.229908 0.951705
0.899062 0.171389 0.922606
0.986084 0.0956436 0.880049
1 0.20415 0.863935
0.0361944 0.548562 0.935744
0.0361639 0.548409 0.93576
0.0360723 0.547677 0.935714
0.0649119 0.550851 0.940963
0.390127 0.552636 0.952407
0.72546 0.535729 0.943557
0.906722 0.492271 0.925444
0.997574 0.405249 0.903685
1 0.269902 0.870878
0.108904 0.775357 0.921859
0.121889 0.77615 0.922942
0.168521 0.777829 0.925917
0.29189 0.779217 0.928618
0.518929 0.777859 0.928298
0.745174 0.771176 0.923018
0.900404 0.755962 0.911635
0.988373 0.730068 0.896376
1 0.675776 0.873259
0.491997 0.909911 0.907546
0.499077 0.909804 0.907439
0.526268 0.909575 0.907164
0.579293 0.908812 0.90634
0.66775 0.907164 0.904555
0.783032 0.903548 0.900572
0.896437 0.897017 0.892836
0.974594 0.88806 0.882033
1 0.875044 0.862654
0.766995 0.976257 0.899153
0.768307 0.976272 0.899184
0.773648 0.976165 0.899031
0.785946 0.975906 0.898726
0.811353 0.975265 0.897856
0.857069 0.973892 0.895918
0.917189 0.971618 0.892271
0.970962 0.968444 0.886
1 0.965255 0.873228
0.918181 1 0.921965
0.918441 1 0.921965
0.919509 1 0.921935
0.92192 1 0.92195
0.92755 1 0.921859
0.938979 1 0.921508
0.958389 1 0.921096
0.982071 1 0.919966
1 0.999786 0.916411
0.0343786 0.0343786 0.955108
0.0343786 0.0343786 0.955108
0.0343633 0.0343633 0.955032
0.0343481 0.0343481 0.955001
0.0343175 0.0343175 0.954849
0.444938 0.0366979 1
0.817182 0.0555886 0.996765
0.975601 0.106676 0.990188
1 0.213993 0.98175
0.0343786 0.0343786 0.955123
0.0343786 0.0343786 0.955108
0.0343786 0.0343786 0.955093
0.0343481 0.0343481 0.955032
0.0343175 0.0343175 0.954833
0.446693 0.0367437 1
0.817426 0.0556344 0.99675
0.975647 0.106722 0.990188
1 0.214023 0.98175
0.0343938 0.0343938 0.955184
0.0343938 0.0343938 0.955184
0.0343786 0.0343786 0.955139
0.0343633 0.0343633 0.955062
0.0343175 0.0343175 0.954894
0.453941 0.0368963 1
0.818341 0.0558022 0.996796
0.975845 0.106905 0.990234
1 0.214115 0.981781
0.0342718 0.218723 1
0.0342412 0.218418 1
0.0341802 0.217151 1
0.0342412 0.214328 1
0.0340276 0.206439 1
0.527703 0.185565 1
0.856214 0.142626 1
0.976257 0.107317 0.990295
1 0.214343 0.981826
0.0577859 0.520897 1
0.0577554 0.520653 1
0.0576791 0.519921 1
0.0574655 0.517922 1
0.0569162 0.512963 1
0.58999 0.50869 1
0.877302 0.463828 1
0.98938 0.3738 1
1 0.242267 0.983459
0.103075 0.764446 1
0.103044 0.764416 1
0.102953 0.764218 1
0.10277 0.763836 1
0.192615 0.766735 1
0.648936 0.765148 1
0.87689 0.749294 1
0.982437 0.721416 0.991669
1 0.664042 0.984085
0.226032 0.905898 0.987152
0.234546 0.905943 0.987305
0.267735 0.906264 0.98793
0.34107 0.906584 0.988937
0.527947 0.90547 0.989013
0.727337 0.901946 0.986923
0.878126 0.895003 0.981857
0.969741 0.88542 0.975555
1 0.871733 0.969436
0.711284 0.97586 0.974701
0.713115 0.975845 0.974701
0.72108 0.975738 0.974594
0.738384 0.975509 0.97435
0.773693 0.974853 0.973678
0.833097 0.973449 0.97229
0.90631 0.970932 0.969619
0.967514 0.967742 0.965789
1 0.964401 0.961624
0.909194 1 0.972702
0.909529 1 0.972686
0.910597 1 0.972686
0.913527 1 0.972595
0.91989 1 0.972366
0.93312 1 0.972076
0.954894 1 0.971481
0.980453 1 0.970596
1 0.999496 0.969482
0.0696422 0.0696422 1
0.0696574 0.0696574 1
0.0696422 0.0696422 1
0.0696269 0.0696422 1
0.0695964 0.0695964 1
0.0695354 0.0695354 1
0.690211 0.078172 1
0.955154 0.130388 1
1 0.234424 1
0.0696574 0.0696574 1
0.0696574 0.0696574 1
0.0696422 0.0696422 1
0.0696269 0.0696422 1
0.0695964 0.0695964 1
0.0695201 0.0695201 1
0.690776 0.0781872 1
0.9552 0.130419 1
1 0.234424 1
0.0696727 0.0696727 1
0.0696574 0.0696574 1
0.0696574 0.0696574 1
0.0696422 0.0696422 1
0.0696117 0.0696117 1
0.0695506 0.0695506 1
0.69308 0.0783093 1
0.955428 0.130587 1
1 0.234562 1
0.0712291 0.114534 1
0.0711681 0.114137 1
0.0711528 0.112474 1
0.0710765 0.108309 1
0.0708171 0.098024 1
0.0695811 0.0696269 1
0.698466 0.0786603 1
0.956039 0.130999 1
1 0.234867 1
0.0978714 0.45922 1
0.0978408 0.458961 1
0.0977493 0.458 1
0.0975357 0.455741 1
0.0969711 0.449958 1
0.0953231 0.435508 1
0.770062 0.403388 1
0.96965 0.326131 1
1 0.235599 1
0.142626 0.74966 1
0.142611 0.74963 1
0.142565 0.749508 1
0.142428 0.749142 1
0.142184 0.748135 1
0.141314 0.745159 1
0.790433 0.737072 1
0.968917 0.704417 1
1 0.637842 1
0.21265 0.899641 1
0.21265 0.899641 1
0.212589 0.89958 1
0.212528 0.899504 1
0.212284 0.899245 1
0.38146 0.899931 1
0.814664 0.892805 1
0.957885 0.881498 1
1 0.866743 1
0.411948 0.974762 1
0.417502 0.974792 1
0.440314 0.974853 1
0.491691 0.97496 1
0.589502 0.974853 1
0.741375 0.973678 1
0.872648 0.970703 1
0.958755 0.966918 1
0.999649 0.963394 1
0.879118 1 1
0.879576 1 1
0.881376 1 1
0.885863 1 1
0.895415 1 1
0.91487 1 1
0.944472 1 1
0.97641 1 0.99971
0.999207 0.999313 0.998642
