proprietary/odm/etc/camera/filters_lut/log_video_hdr_3dlut.cube
#is_rgb_input 1
#is_rgb_output 1
#input_offset 0.000000
#shape_order 1.000000
#format 6
# MaxLuma:1000.00 MinLuma:0.00010 Eotf=Gamma
#LUT Size
LUT_3D_SIZE 33
#data domain
DOMAIN_MIN 0 0 0
DOMAIN_MAX 1.0 1.0 1.0
#LUT data points
0 0 0
0 0 0
0 0 0
0.0524758 0 0
0.0816358 0 0
0.107378 0 0
0.132082 0 0
0.157183 0 0
0.183917 0 0
0.211795 0 0
0.241566 0 0
0.273808 0 0
0.308659 0 0
0.346548 0.00114443 0.00114443
0.388525 0.00250248 0.00250248
0.434562 0.00399786 0.00399786
0.485985 0.00582895 0.00582895
0.541543 0.0081178 0.0081178
0.594186 0.0109407 0.0109407
0.644114 0.0143435 0.0143435
0.692363 0.0184787 0.0184787
0.738308 0.0234379 0.0234379
0.781811 0.0287633 0.0287633
0.824277 0.0353246 0.0353246
0.863523 0.0428931 0.0428931
0.898009 0.0513008 0.0513008
0.929259 0.0614786 0.0614786
0.95613 0.0736858 0.0736858
0.978286 0.0880446 0.0880446
0.998535 0.108293 0.108293
1 0.135546 0.135546
1 0.167208 0.167208
1 0.200687 0.200687
0 0 0
0 0 0
0 0 0
0.0524758 0 0
0.0816358 0 0
0.107378 0 0
0.132082 0 0
0.157183 0 0
0.183917 0 0
0.211795 0 0
0.241566 0 0
0.273808 0 0
0.308659 0 0
0.346548 0.00114443 0.00114443
0.388525 0.00250248 0.00250248
0.434562 0.00399786 0.00399786
0.485985 0.00582895 0.00582895
0.541543 0.0081178 0.0081178
0.594186 0.0109407 0.0109407
0.644114 0.0143435 0.0143435
0.692363 0.0184787 0.0184787
0.738308 0.0234379 0.0234379
0.781811 0.0287633 0.0287633
0.824277 0.0353246 0.0353246
0.863523 0.0428931 0.0428931
0.898009 0.0513008 0.0513008
0.929259 0.0614786 0.0614786
0.95613 0.0736858 0.0736858
0.978286 0.0880446 0.0880446
0.998535 0.108293 0.108293
1 0.135546 0.135546
1 0.167208 0.167208
1 0.200687 0.200687
0 0 0
0 0 0
0 0 0
0.0524758 0 0
0.0816358 0 0
0.107378 0 0
0.132082 0 0
0.157183 0 0
0.183917 0 0
0.211795 0 0
0.241566 0 0
0.273808 0 0
0.308659 0 0
0.346548 0.00114443 0.00114443
0.388525 0.00250248 0.00250248
0.434562 0.00399786 0.00399786
0.485985 0.00582895 0.00582895
0.541543 0.0081178 0.0081178
0.594186 0.0109407 0.0109407
0.644114 0.0143435 0.0143435
0.692363 0.0184787 0.0184787
0.738308 0.0234379 0.0234379
0.781811 0.0287633 0.0287633
0.824277 0.0353246 0.0353246
0.863523 0.0428931 0.0428931
0.898009 0.0513008 0.0513008
0.929274 0.0614786 0.0614786
0.95613 0.0736858 0.0736858
0.978286 0.0880446 0.0880446
0.998535 0.108293 0.108293
1 0.135546 0.135546
1 0.167208 0.167208
1 0.200687 0.200687
0.00564584 0.0385138 0
0.00564584 0.0385138 0
0.00564584 0.0385138 0
0.037171 0.0345617 0
0.0663615 0.0307012 0
0.0928206 0.0273899 0
0.119112 0.0243381 0
0.145907 0.021622 0
0.173983 0.0188602 0
0.203677 0.0162356 0
0.236027 0.0134432 0
0.270283 0.0103456 0
0.307347 0.00695811 0
0.34725 0.00294499 0.000732433
0.389425 0.002533 0.002533
0.435233 0.00401312 0.00401312
0.486686 0.00585946 0.00585946
0.542077 0.00813306 0.00813306
0.594629 0.010956 0.010956
0.644419 0.014374 0.014374
0.692592 0.0185092 0.0185092
0.738476 0.0234531 0.0234531
0.781979 0.0287938 0.0287938
0.824414 0.0353552 0.0353552
0.863615 0.0429084 0.0429084
0.89807 0.0513161 0.0513161
0.92929 0.0614939 0.0614939
0.956146 0.0736858 0.0736858
0.978302 0.0880598 0.0880598
0.998535 0.108293 0.108293
1 0.135576 0.135576
1 0.167208 0.167208
1 0.200717 0.200717
0.00947585 0.0632181 0
0.00947585 0.0632181 0
0.00947585 0.0632181 0
0.0349584 0.0606699 0
0.0614328 0.0577096 0
0.0868391 0.0546426 0
0.112642 0.0517281 0
0.13962 0.0486305 0
0.167803 0.0456397 0
0.198749 0.0426642 0
0.231922 0.0394293 0
0.267979 0.0362097 0
0.306996 0.0326543 0
0.349004 0.0286412 0
0.394598 0.0241703 0
0.442771 0.0187991 0.00166323
0.493172 0.0127565 0.00486763
0.542641 0.00817884 0.00817884
0.595132 0.0109865 0.0109865
0.644709 0.0144045 0.0144045
0.693095 0.0186465 0.0186465
0.738705 0.0234836 0.0234836
0.782116 0.028809 0.028809
0.824521 0.0353704 0.0353704
0.863706 0.0429236 0.0429236
0.898161 0.0513313 0.0513313
0.92932 0.0615091 0.0615091
0.956161 0.0737011 0.0737011
0.978317 0.0880751 0.0880751
0.99855 0.108324 0.108324
1 0.135592 0.135592
1 0.167239 0.167239
1 0.200717 0.200717
0.0150607 0.0863813 0
0.0150607 0.0863813 0
0.0150607 0.0863813 0
0.0373541 0.084596 0
0.0607309 0.0826123 0
0.0852674 0.0802777 0
0.110414 0.0777447 0
0.137087 0.0749828 0
0.166064 0.0721904 0
0.197436 0.0690013 0
0.231785 0.0657206 0
0.268956 0.0622568 0
0.309621 0.0585031 0
0.354284 0.0545052 0
0.403189 0.0501564 0
0.455314 0.0451972 0
0.511788 0.0396429 0.00202945
0.563714 0.0332036 0.00535592
0.608713 0.0251926 0.00932326
0.64564 0.0148623 0.0144045
0.693538 0.0186923 0.0186923
0.738918 0.0234989 0.0234989
0.782315 0.0288396 0.0288396
0.82472 0.0354009 0.0354009
0.863798 0.0429541 0.0429541
0.898238 0.0513466 0.0513466
0.929366 0.0615244 0.0615244
0.956237 0.0737316 0.0737316
0.978363 0.0881056 0.0881056
0.998581 0.108339 0.108354
1 0.135607 0.135607
1 0.167269 0.167269
1 0.200748 0.200748
0.0226749 0.110979 0
0.0226749 0.110979 0
0.0226749 0.110979 0
0.0422827 0.109865 0
0.0631418 0.10837 0
0.0857862 0.106508 0
0.110521 0.104448 0
0.136736 0.101884 0
0.165179 0.0991226 0
0.196933 0.0961318 0
0.231312 0.0926986 0
0.269627 0.0891127 0
0.311376 0.0850385 0
0.357778 0.0808423 0
0.407736 0.0762036 0
0.463325 0.0713054 0
0.52221 0.0657359 0
0.576608 0.059678 0.00340276
0.625437 0.0525826 0.00703441
0.668772 0.0441596 0.0114748
0.706538 0.033875 0.016968
0.739239 0.0235294 0.0235294
0.782559 0.0288853 0.0288853
0.824933 0.0354467 0.0354467
0.863966 0.0429847 0.0429847
0.898344 0.0513924 0.0513924
0.929427 0.0615549 0.0615549
0.956268 0.0737621 0.0737621
0.978408 0.0881208 0.0881208
0.998611 0.1084 0.1084
1 0.135607 0.135622
1 0.167269 0.167269
1 0.200793 0.200778
0.0318914 0.13785 0
0.0318914 0.13785 0
0.0318914 0.13785 0
0.0485695 0.136767 0
0.0673075 0.135698 0
0.0881208 0.134051 0
0.111513 0.13225 0
0.13727 0.129839 0
0.165423 0.127062 0
0.196475 0.124331 0
0.230854 0.121019 0
0.269749 0.117494 0
0.312581 0.113481 0
0.360479 0.109331 0
0.412665 0.104631 0
0.470603 0.0997177 0
0.532067 0.0940566 0
0.58764 0.0880903 0.002533
0.637675 0.0810712 0.00593576
0.683528 0.073228 0.0100404
0.724941 0.0639658 0.0151827
0.761517 0.0528725 0.021149
0.791058 0.038529 0.0282444
0.825177 0.0354772 0.0354925
0.864195 0.0430304 0.0430304
0.898466 0.0514229 0.0514229
0.929503 0.0615854 0.0615854
0.956344 0.0737926 0.0737926
0.978439 0.0881514 0.0881514
0.998642 0.108431 0.108431
1 0.135668 0.135668
1 0.167346 0.167346
1 0.200824 0.200824
0.0413519 0.166857 0.00164797
0.0413519 0.166857 0.00164797
0.0413519 0.166857 0.00164797
0.0558328 0.16585 9.15541e-05
0.0727092 0.16495 0
0.0917067 0.163577 0
0.113741 0.162158 0
0.13846 0.16022 0
0.166629 0.158129 0
0.197635 0.155398 0
0.232166 0.152499 0
0.270985 0.149172 0
0.31426 0.145129 0
0.36289 0.140856 0
0.416068 0.135882 0
0.475334 0.130663 0
0.537591 0.124697 0
0.593759 0.118532 0.00189212
0.644846 0.111376 0.00520333
0.691661 0.103746 0.00915541
0.735042 0.0949569 0.0140536
0.774243 0.0847334 0.0196536
0.809003 0.0725109 0.026154
0.838926 0.0572976 0.0340429
0.864378 0.0430762 0.0430762
0.898665 0.0514687 0.0514687
0.92961 0.0616159 0.0616159
0.956405 0.0738231 0.0738231
0.978485 0.0881971 0.0881971
0.998688 0.108476 0.108476
1 0.135683 0.135683
1 0.167376 0.167376
1 0.200855 0.200855
0.0519265 0.199176 0.00511177
0.0519265 0.199176 0.00511177
0.0519265 0.199176 0.00511177
0.0648508 0.198703 0.00410468
0.080293 0.198108 0.00291447
0.098024 0.196979 0.00131228
0.118486 0.195911 0
0.142077 0.19411 0
0.16907 0.192218 0
0.199573 0.189487 0
0.234241 0.186572 0
0.272221 0.183078 0
0.315053 0.179507 0
0.363226 0.174899 0
0.41709 0.169802 0
0.477501 0.164508 0
0.540307 0.158541 0
0.597711 0.152392 0.0019379
0.649836 0.145251 0.00520333
0.697597 0.137789 0.00909438
0.741802 0.128923 0.0137331
0.782269 0.119249 0.0191653
0.819013 0.107897 0.0254063
0.851911 0.0943618 0.0326848
0.879393 0.0773327 0.0411383
0.900435 0.0551156 0.0512703
0.929717 0.0616465 0.0616465
0.956497 0.0738842 0.0738842
0.978561 0.0882582 0.0882582
0.998734 0.108553 0.108553
1 0.135729 0.135729
1 0.167437 0.167437
1 0.200885 0.200885
0.0639048 0.235798 0.00929274
0.0639048 0.235798 0.00929274
0.0639048 0.235798 0.00929274
0.0753948 0.23537 0.00840772
0.0892348 0.234745 0.00730907
0.105348 0.23357 0.00596628
0.124422 0.232471 0.00445563
0.146456 0.230701 0.0024567
0.17203 0.228992 0
0.201587 0.226444 0
0.235462 0.223819 0
0.27361 0.220691 0
0.316594 0.21706 0
0.364431 0.212985 0
0.419333 0.208515 0
0.479713 0.203082 0
0.543542 0.197436 0
0.60116 0.190799 0.00268559
0.653376 0.183688 0.00587472
0.701732 0.175967 0.00975052
0.746242 0.167163 0.0141909
0.787472 0.157702 0.0193332
0.825086 0.146899 0.025452
0.859281 0.134188 0.0325017
0.889158 0.118929 0.0407416
0.914611 0.100191 0.0503395
0.934432 0.0755779 0.0615244
0.956619 0.0739757 0.0739757
0.978653 0.0883192 0.0883192
0.99881 0.108644 0.108644
1 0.13579 0.13579
1 0.167514 0.167514
1 0.200931 0.200931
0.0770275 0.275746 0.0144503
0.0770275 0.275746 0.0144503
0.0770275 0.275746 0.0144503
0.0874342 0.275334 0.0136721
0.0999466 0.274937 0.0127565
0.114717 0.27396 0.0115358
0.132479 0.273152 0.0102846
0.153246 0.271916 0.00857557
0.177722 0.27042 0.00646983
0.206485 0.268696 0.00399786
0.239017 0.266133 0.00077821
0.276997 0.263325 0
0.319219 0.259739 0
0.367193 0.256062 0
0.420584 0.251514 0
0.481712 0.246464 0
0.545541 0.240436 0.00140383
0.603235 0.233738 0.00401312
0.656229 0.227085 0.00720226
0.705425 0.219593 0.0110628
0.75169 0.212116 0.0157626
0.794186 0.203449 0.0211032
0.833432 0.193896 0.027512
0.868162 0.18201 0.0347295
0.898772 0.167941 0.0430304
0.924788 0.1505 0.0523995
0.94548 0.127398 0.0624552
0.961776 0.0983597 0.0740368
0.978744 0.0883955 0.0883955
0.998886 0.108736 0.108736
1 0.135866 0.135866
1 0.167605 0.167605
1 0.201038 0.201038
0.0925307 0.321874 0.0205234
0.0925307 0.321874 0.0205234
0.0925307 0.321874 0.0205234
0.101778 0.321645 0.0198978
0.113161 0.320974 0.019028
0.126772 0.320333 0.0180209
0.143328 0.319646 0.0168307
0.162829 0.31873 0.0155032
0.185657 0.317113 0.0136263
0.212879 0.315557 0.0115358
0.244053 0.313222 0.00872816
0.280995 0.310613 0.00529488
0.322728 0.30721 0.00198367
0.370703 0.303609 0.00280766
0.424582 0.299504 0.00265507
0.485924 0.295811 0.00180056
0.550958 0.291585 0.00411994
0.610727 0.287633 0.00715648
0.665583 0.282368 0.0107881
0.716136 0.276234 0.0148775
0.76289 0.269718 0.0197452
0.804959 0.261631 0.0253452
0.843366 0.252598 0.0322118
0.877302 0.24152 0.039704
0.907744 0.22855 0.0485237
0.934005 0.212558 0.0585641
0.956176 0.19234 0.0695354
0.974487 0.165927 0.0815747
0.98735 0.129809 0.0932326
0.998978 0.108858 0.108858
1 0.135958 0.135973
1 0.167697 0.167697
1 0.201114 0.201114
0.110445 0.373373 0.0277104
0.110445 0.373373 0.0277104
0.110445 0.373373 0.0277104
0.118791 0.373129 0.0271611
0.128969 0.37232 0.0263371
0.141375 0.372015 0.0255131
0.15668 0.371527 0.0244907
0.174807 0.371008 0.0232395
0.196536 0.370108 0.0217899
0.22266 0.36968 0.0200351
0.253697 0.368811 0.0179141
0.29041 0.367758 0.015259
0.33315 0.366751 0.0118868
0.382483 0.364462 0.0084535
0.439445 0.362997 0.00994888
0.502464 0.360174 0.010193
0.565103 0.357 0.00917067
0.622873 0.352926 0.0122683
0.67541 0.347509 0.0159915
0.72401 0.341894 0.0204166
0.76846 0.334722 0.02533
0.809628 0.326558 0.0310826
0.847333 0.317693 0.0380407
0.880674 0.306996 0.0457923
0.910704 0.294728 0.0547189
0.936904 0.279988 0.0650797
0.959152 0.26215 0.0767224
0.978012 0.239521 0.0900282
0.993423 0.209857 0.104417
1 0.169375 0.119234
1 0.136095 0.136095
1 0.167849 0.167849
1 0.201251 0.201251
0.133745 0.438087 0.0375525
0.133745 0.438087 0.0375525
0.133745 0.438087 0.0375525
0.141558 0.438346 0.037171
0.151415 0.438697 0.036759
0.163638 0.439384 0.036347
0.178592 0.440131 0.0357061
0.196414 0.440787 0.0348516
0.217823 0.44094 0.0336461
0.243519 0.441398 0.0323796
0.273884 0.441138 0.0304875
0.309941 0.440558 0.0283207
0.351965 0.439719 0.025452
0.400229 0.437354 0.0215457
0.455726 0.434913 0.0178225
0.517678 0.431662 0.0196841
0.577157 0.42826 0.0202029
0.630472 0.423865 0.0188449
0.68098 0.419059 0.0225528
0.727886 0.412589 0.0267185
0.771221 0.404532 0.0314641
0.8112 0.395972 0.0371252
0.847562 0.385779 0.0433509
0.880491 0.374563 0.0508736
0.910369 0.362463 0.0598306
0.936309 0.348455 0.0699779
0.958816 0.332448 0.0818799
0.97792 0.312795 0.0955825
0.993713 0.2878 0.110918
1 0.255528 0.128389
1 0.212177 0.147234
1 0.168017 0.168017
1 0.201389 0.201389
0.165164 0.518212 0.0518959
0.165164 0.518212 0.0518959
0.165164 0.518212 0.0518959
0.172488 0.518532 0.0516823
0.18204 0.51873 0.0513313
0.193362 0.519005 0.0509194
0.207248 0.519249 0.0504311
0.223484 0.519127 0.0497444
0.243748 0.519036 0.0487678
0.267948 0.519173 0.0476234
0.297063 0.518669 0.0460059
0.331014 0.517723 0.0439918
0.371084 0.516793 0.0415045
0.417304 0.514519 0.0378729
0.471153 0.511849 0.033341
0.530114 0.508217 0.028809
0.585 0.503441 0.0307012
0.635599 0.497749 0.0308995
0.683146 0.492012 0.0289769
0.728344 0.484627 0.0328527
0.770916 0.477028 0.0375067
0.81059 0.469047 0.0430304
0.847288 0.46009 0.0495918
0.880873 0.451164 0.0575113
0.910552 0.440589 0.0666819
0.936812 0.428367 0.0772564
0.959319 0.414435 0.0896773
0.978408 0.397452 0.104005
0.994232 0.375937 0.120195
1 0.347753 0.138094
1 0.310475 0.157809
1 0.258839 0.1785
1 0.201556 0.201556
0.200717 0.588067 0.0690623
0.200717 0.588067 0.0690623
0.200717 0.588067 0.0690623
0.207599 0.588037 0.0687877
0.215915 0.588052 0.0684672
0.226123 0.588067 0.0680247
0.238651 0.5879 0.0674296
0.253544 0.587152 0.0664836
0.272129 0.586801 0.065507
0.294484 0.586145 0.0643931
0.320653 0.585092 0.0626993
0.351934 0.583825 0.0605783
0.389258 0.582437 0.0581216
0.432532 0.580102 0.0546426
0.483497 0.577844 0.0504616
0.538491 0.574868 0.0450904
0.590875 0.571405 0.0398871
0.640757 0.568139 0.0423438
0.687327 0.563958 0.0428626
0.730571 0.559655 0.040589
0.773068 0.555138 0.0456855
0.812512 0.549294 0.0513619
0.84863 0.542611 0.0580758
0.88188 0.535348 0.06598
0.911009 0.526452 0.0750439
0.937102 0.516258 0.0858778
0.959182 0.503563 0.0981613
0.978164 0.488518 0.112764
0.993774 0.469368 0.129122
1 0.445701 0.148089
1 0.414786 0.169299
1 0.373693 0.192813
1 0.316487 0.217914
0.23682 0.643626 0.0861982
0.23682 0.643626 0.0861982
0.23682 0.643626 0.0861982
0.242985 0.643565 0.0859236
0.250141 0.643305 0.085481
0.259434 0.642924 0.0849165
0.27071 0.642817 0.0845045
0.284627 0.642695 0.0839246
0.301656 0.642496 0.0830854
0.322393 0.642252 0.0820325
0.346609 0.641642 0.0805371
0.376684 0.641169 0.0790265
0.412177 0.640742 0.0769207
0.453605 0.639643 0.073991
0.502373 0.638712 0.0706798
0.553521 0.637049 0.0661021
0.602777 0.634852 0.0600137
0.649943 0.632425 0.0544137
0.694575 0.629343 0.0571145
0.737118 0.626276 0.057969
0.776532 0.622263 0.0553902
0.814298 0.617777 0.060853
0.849912 0.613001 0.0676432
0.881971 0.607187 0.0751354
0.910704 0.60061 0.0841688
0.936233 0.593301 0.0949874
0.958129 0.584268 0.107012
0.976822 0.573754 0.12137
0.99237 0.56054 0.137987
1 0.543816 0.157
1 0.520882 0.179034
1 0.487999 0.203983
1 0.443183 0.231693
0.280079 0.696742 0.107485
0.280079 0.696742 0.107485
0.280079 0.696742 0.107485
0.285725 0.696742 0.107271
0.292439 0.696834 0.107042
0.301228 0.696834 0.106706
0.311604 0.696849 0.10631
0.324468 0.696941 0.105806
0.340322 0.696971 0.10515
0.359075 0.696406 0.10399
0.382315 0.696315 0.102922
0.410437 0.69601 0.101625
0.44361 0.695705 0.0997635
0.482338 0.694697 0.0971542
0.527276 0.693874 0.0940719
0.572076 0.692393 0.0899214
0.616648 0.69073 0.084596
0.660105 0.688792 0.0776379
0.701854 0.685893 0.0706798
0.742519 0.68333 0.0740826
0.780636 0.679988 0.074815
0.816281 0.676493 0.0718853
0.850217 0.67245 0.0778515
0.881254 0.667674 0.0851911
0.909514 0.662226 0.0938888
0.93463 0.65684 0.104479
0.956329 0.650324 0.11635
0.97496 0.643061 0.130922
0.990509 0.634043 0.14757
1 0.623117 0.166857
1 0.608545 0.188983
1 0.589014 0.214572
1 0.560876 0.242954
0.330358 0.74548 0.132357
0.330358 0.74548 0.132357
0.330358 0.74548 0.132357
0.335424 0.745464 0.132143
0.34139 0.74551 0.13193
0.349294 0.74548 0.131594
0.358587 0.745464 0.131182
0.370062 0.745007 0.130373
0.384329 0.744961 0.129747
0.401755 0.744854 0.129168
0.423072 0.74464 0.128084
0.448905 0.744381 0.126726
0.478782 0.743709 0.124727
0.515297 0.74313 0.122667
0.553414 0.742397 0.119768
0.591959 0.741039 0.115938
0.631189 0.739773 0.111055
0.670741 0.737972 0.104768
0.709346 0.735668 0.0965896
0.747539 0.73312 0.0886854
0.7841 0.730114 0.0922255
0.818479 0.726955 0.093019
0.850492 0.724071 0.0898909
0.880888 0.720424 0.0966812
0.908721 0.716793 0.105531
0.933181 0.712489 0.115785
0.954437 0.707897 0.127565
0.972854 0.702434 0.141848
0.988312 0.69633 0.158511
1 0.688502 0.177432
1 0.679026 0.19968
1 0.666484 0.225422
1 0.649165 0.254688
0.384161 0.787976 0.159152
0.384161 0.787976 0.159152
0.384161 0.787976 0.159152
0.388617 0.787945 0.158938
0.39379 0.787945 0.15877
0.400809 0.787839 0.158511
0.409018 0.787762 0.158251
0.419684 0.78764 0.157687
0.43241 0.787549 0.157076
0.448402 0.787335 0.156222
0.467597 0.787076 0.155123
0.489952 0.786587 0.153628
0.51754 0.786206 0.151965
0.547601 0.785672 0.150118
0.578851 0.784787 0.147219
0.61239 0.784024 0.143847
0.647288 0.783017 0.139773
0.682643 0.781415 0.134157
0.718456 0.779904 0.127245
0.754299 0.77789 0.117952
0.788769 0.775433 0.109148
0.82182 0.772915 0.113207
0.85301 0.770535 0.114504
0.8813 0.767697 0.110796
0.907988 0.764904 0.118761
0.931701 0.761395 0.128466
0.952407 0.757595 0.140063
0.970504 0.753536 0.154055
0.985611 0.748714 0.170092
0.998077 0.743023 0.188586
1 0.736217 0.210651
1 0.727169 0.235401
1 0.715862 0.26453
0.44419 0.825849 0.189883
0.44419 0.825849 0.189883
0.44419 0.825849 0.189883
0.447715 0.825879 0.189776
0.452796 0.825864 0.189532
0.459068 0.825788 0.189227
0.466377 0.825772 0.188876
0.475929 0.82565 0.188388
0.486702 0.825345 0.187533
0.501259 0.825193 0.186786
0.517937 0.825071 0.185885
0.537072 0.824842 0.184741
0.558755 0.824613 0.183307
0.582559 0.824079 0.181491
0.608484 0.823575 0.179126
0.636927 0.823011 0.176165
0.667002 0.822065 0.172427
0.698116 0.821012 0.167407
0.730373 0.819776 0.161349
0.762722 0.817899 0.153033
0.794812 0.816052 0.142718
0.825666 0.813657 0.132357
0.855268 0.811414 0.137255
0.882536 0.808835 0.138399
0.907301 0.80647 0.134234
0.929976 0.803647 0.142733
0.950164 0.800275 0.153689
0.967651 0.796887 0.166857
0.982498 0.792721 0.18201
0.994842 0.788205 0.19971
1 0.783154 0.221103
1 0.776791 0.245304
1 0.768917 0.274037
0.510552 0.859709 0.224704
0.510552 0.859709 0.224704
0.510552 0.859709 0.224704
0.513878 0.859663 0.224506
0.51812 0.859632 0.224277
0.523293 0.859571 0.223972
0.529061 0.859571 0.223682
0.53666 0.859434 0.223209
0.545434 0.859373 0.22269
0.556039 0.85922 0.221958
0.568307 0.859068 0.221088
0.582925 0.858778 0.219852
0.599329 0.858335 0.218204
0.617884 0.858015 0.21677
0.639292 0.857572 0.214618
0.662898 0.856992 0.21181
0.687907 0.856138 0.208042
0.714977 0.855253 0.203815
0.743114 0.853986 0.198123
0.772274 0.852598 0.190692
0.801419 0.851011 0.181521
0.829831 0.848875 0.169268
0.857282 0.846723 0.157687
0.883009 0.844221 0.162387
0.906905 0.841871 0.163684
0.928206 0.839277 0.158663
0.947601 0.836484 0.167971
0.964767 0.833814 0.180667
0.979309 0.830686 0.195438
0.991623 0.827222 0.212604
1 0.823529 0.233219
1 0.819074 0.257145
1 0.813504 0.284566
0.572641 0.888624 0.262882
0.572641 0.888624 0.262882
0.572641 0.888624 0.262882
0.575036 0.888594 0.262715
0.577996 0.888533 0.26247
0.58117 0.888518 0.262242
0.585504 0.88838 0.261753
0.590646 0.888167 0.261067
0.596796 0.88806 0.260502
0.604715 0.887861 0.259739
0.613809 0.887739 0.258915
0.625055 0.887465 0.257755
0.637812 0.88719 0.256382
0.652613 0.886824 0.254749
0.669215 0.886168 0.252476
0.68806 0.885634 0.24976
0.709194 0.884962 0.246326
0.731914 0.884138 0.242374
0.756069 0.882994 0.236713
0.781674 0.881819 0.230304
0.807736 0.880232 0.221668
0.833967 0.87866 0.211276
0.8598 0.876875 0.19762
0.884184 0.874617 0.184466
0.906935 0.872496 0.190097
0.927504 0.870512 0.191928
0.945769 0.868315 0.186419
0.962386 0.866194 0.19733
0.976577 0.863844 0.211322
0.988647 0.861234 0.228214
0.998657 0.858564 0.248066
1 0.855451 0.271489
1 0.851621 0.29839
0.624262 0.912398 0.302678
0.624262 0.912398 0.302678
0.624262 0.912398 0.302678
0.625971 0.912367 0.30251
0.628092 0.912306 0.302266
0.630747 0.912261 0.301976
0.634043 0.9122 0.30164
0.638025 0.912108 0.301213
0.642588 0.912062 0.300771
0.648539 0.91191 0.300069
0.655344 0.911803 0.299306
0.663645 0.911467 0.297963
0.673335 0.911177 0.29662
0.684962 0.910918 0.295064
0.698497 0.910567 0.293355
0.714 0.910124 0.291112
0.731289 0.909483 0.287785
0.750286 0.908782 0.28394
0.771466 0.907973 0.27953
0.79353 0.906935 0.273365
0.816556 0.905852 0.266285
0.840314 0.904585 0.257221
0.863584 0.903014 0.245228
0.886564 0.901396 0.229999
0.907851 0.899504 0.215412
0.927672 0.897841 0.222446
0.945129 0.89604 0.224247
0.960632 0.894423 0.218647
0.97438 0.892592 0.230854
0.986068 0.890669 0.247257
0.995865 0.88867 0.266178
1 0.886534 0.289387
1 0.883864 0.315892
0.672724 0.932876 0.348074
0.672724 0.932876 0.348074
0.672724 0.932876 0.348074
0.673961 0.93283 0.347875
0.675517 0.932799 0.347677
0.677333 0.932799 0.347539
0.679561 0.932754 0.34725
0.68249 0.932677 0.346822
0.686183 0.932586 0.346365
0.690654 0.932494 0.345739
0.69575 0.932418 0.345144
0.702281 0.932235 0.344182
0.709819 0.932082 0.343114
0.718914 0.931884 0.341756
0.729366 0.931441 0.339529
0.741726 0.931121 0.337377
0.75581 0.930694 0.335027
0.771542 0.930236 0.331853
0.788952 0.929473 0.327214
0.807858 0.928756 0.322393
0.828 0.927932 0.316014
0.84863 0.926787 0.30779
0.869596 0.925689 0.297887
0.890288 0.924269 0.284535
0.910155 0.922911 0.267964
0.928634 0.921462 0.251926
0.945327 0.919966 0.259785
0.960098 0.918456 0.262165
0.972824 0.91722 0.256275
0.98407 0.91574 0.270344
0.993469 0.91429 0.289006
1 0.912795 0.311452
1 0.910979 0.337713
0.717769 0.950362 0.399741
0.717769 0.950362 0.399741
0.717769 0.950362 0.399741
0.718669 0.950332 0.399619
0.719844 0.950317 0.399481
0.721279 0.950271 0.399329
0.723064 0.95024 0.399145
0.725307 0.950195 0.398886
0.727733 0.950134 0.398611
0.731014 0.950072 0.39823
0.735073 0.949981 0.397589
0.740017 0.949859 0.39678
0.745693 0.949737 0.39585
0.752728 0.949554 0.394629
0.761013 0.949355 0.393118
0.770703 0.949096 0.391302
0.781643 0.948699 0.388556
0.794415 0.948272 0.385534
0.808606 0.947814 0.382406
0.824537 0.947265 0.37792
0.841199 0.946471 0.371801
0.859144 0.945739 0.365194
0.877546 0.944823 0.356573
0.895918 0.943771 0.345251
0.913832 0.942702 0.331197
0.930632 0.941405 0.312428
0.946242 0.94023 0.294682
0.960143 0.938979 0.30396
0.972381 0.937926 0.30753
0.982651 0.936828 0.300893
0.991669 0.93576 0.316991
0.999222 0.934661 0.339147
1 0.93344 0.364813
0.760708 0.965011 0.460395
0.760708 0.965011 0.460395
0.760708 0.965011 0.460395
0.761349 0.965011 0.460227
0.762142 0.964996 0.460136
0.762982 0.964996 0.460044
0.764309 0.964965 0.459846
0.76585 0.964904 0.459464
0.767758 0.964828 0.45893
