proprietary/odm/etc/camera/filters_lut/log_video_sdr_3dlut.cube
#is_rgb_input 1
#is_rgb_output 1
#input_offset 0.000000
#shape_order 1.000000
#format 6
# MaxLuma:1000.00 MinLuma:0.00010 Eotf=Gamma
#LUT Size
LUT_3D_SIZE 33
#data domain
DOMAIN_MIN 0 0 0
DOMAIN_MAX 1.0 1.0 1.0
#LUT data points
0 0 0
0 0 0
0 0 0
0.0555886 0.0124208 0.0182193
0.0856031 0.0175784 0.0307469
0.111894 0.0229496 0.0387884
0.137636 0.028275 0.0482948
0.163714 0.0335546 0.0571298
0.19144 0.0391089 0.0675364
0.220233 0.0451057 0.0769665
0.250813 0.0513771 0.0879683
0.28365 0.0580301 0.0993362
0.318746 0.0653086 0.111437
0.356283 0.0730144 0.124697
0.397086 0.0814069 0.139101
0.440681 0.0903792 0.154482
0.487816 0.100084 0.171145
0.539498 0.110765 0.189334
0.595117 0.122271 0.208911
0.653635 0.134386 0.229526
0.714687 0.147036 0.251057
0.77586 0.159731 0.272633
0.835416 0.172107 0.293645
0.894087 0.184283 0.314351
0.948058 0.195514 0.33341
0.994476 0.205295 0.350011
0.994476 0.213565 0.364416
0.994476 0.216281 0.372946
0.994476 0.217441 0.380804
0.994476 0.219303 0.393256
0.994492 0.220996 0.403937
0.994492 0.22388 0.412039
0.994492 0.231083 0.420203
0 0 0
0 0 0
0 0 0
0.0555886 0.0124208 0.0182193
0.0856031 0.0175784 0.0307469
0.111894 0.0229496 0.0387884
0.137636 0.028275 0.0482948
0.163714 0.0335546 0.0571298
0.19144 0.0391089 0.0675364
0.220233 0.0451057 0.0769665
0.250813 0.0513771 0.0879683
0.28365 0.0580301 0.0993362
0.318746 0.0653086 0.111437
0.356283 0.0730144 0.124697
0.397086 0.0814069 0.139101
0.440681 0.0903792 0.154482
0.487816 0.100084 0.171145
0.539498 0.110765 0.189334
0.595117 0.122271 0.208911
0.653635 0.134386 0.229526
0.714687 0.147036 0.251057
0.77586 0.159731 0.272633
0.835416 0.172107 0.293645
0.894087 0.184283 0.314351
0.948058 0.195514 0.33341
0.994476 0.205295 0.350011
0.994476 0.213565 0.364416
0.994476 0.216281 0.372946
0.994476 0.217441 0.380804
0.994476 0.219303 0.393256
0.994492 0.220996 0.403937
0.994492 0.22388 0.412039
0.994492 0.231083 0.420203
0 0 0
0 0 0
0 0 0
0.0555886 0.0124208 0.0182193
0.0856031 0.0175784 0.0307469
0.111894 0.0229496 0.0387884
0.137636 0.028275 0.0482948
0.163714 0.0335546 0.0571298
0.19144 0.0391089 0.0675364
0.220233 0.0451057 0.0769665
0.250813 0.0513771 0.0879683
0.28365 0.0580301 0.0993362
0.318746 0.0653086 0.111437
0.356283 0.0730144 0.124697
0.397086 0.0814069 0.139101
0.440681 0.0903792 0.154482
0.487816 0.100084 0.171145
0.539498 0.110765 0.189334
0.595117 0.122271 0.208911
0.653635 0.134386 0.229526
0.714687 0.147036 0.251057
0.77586 0.159731 0.272633
0.835416 0.172107 0.293645
0.894087 0.184283 0.314351
0.948058 0.195514 0.33341
0.994476 0.205295 0.350011
0.994476 0.213565 0.364431
0.994476 0.216281 0.372946
0.994476 0.217441 0.380804
0.994476 0.219303 0.393256
0.994492 0.220996 0.403937
0.994492 0.22388 0.412039
0.994492 0.231083 0.420203
0.0117189 0.0399481 0.023682
0.0117189 0.0399481 0.023682
0.0117189 0.0399481 0.023682
0.0399481 0.0358282 0.0151369
0.0708934 0.0312963 0.0189212
0.097734 0.025452 0.0244144
0.124544 0.0256962 0.0367132
0.152285 0.0312963 0.0494087
0.181338 0.0371099 0.060914
0.211994 0.0434272 0.0728618
0.245228 0.050248 0.0849775
0.28011 0.0573281 0.0977035
0.317449 0.0650492 0.110796
0.357 0.073167 0.12491
0.39794 0.08159 0.139406
0.441291 0.0905013 0.154711
0.488441 0.100221 0.171374
0.540017 0.110872 0.189517
0.595605 0.122377 0.209079
0.654002 0.134463 0.229648
0.714992 0.147097 0.251164
0.776089 0.159777 0.272709
0.835645 0.172152 0.293736
0.894286 0.184329 0.314412
0.94818 0.195544 0.333455
0.994476 0.20531 0.350042
0.994476 0.213565 0.364431
0.994476 0.216281 0.372961
0.994476 0.217441 0.380819
0.994476 0.219303 0.393256
0.994492 0.221012 0.403937
0.994492 0.22388 0.412039
0.994492 0.231098 0.420218
0.0175784 0.063798 0.0387579
0.0175784 0.063798 0.0387579
0.0175784 0.063798 0.0387579
0.0267643 0.0615702 0.0218662
0.0641184 0.059266 0.0238499
0.0924544 0.0560922 0.0279088
0.11931 0.0517281 0.0321965
0.147158 0.0463874 0.0369116
0.17583 0.0387121 0.0429999
0.207523 0.0426795 0.0598764
0.241505 0.0495918 0.0760204
0.278157 0.0569924 0.0917983
0.317388 0.065095 0.106767
0.358907 0.073579 0.122896
0.403037 0.0826581 0.139467
0.448371 0.0919661 0.156329
0.494347 0.101442 0.173129
0.540581 0.110994 0.189715
0.596185 0.122484 0.209277
0.654368 0.134539 0.229786
0.715648 0.147234 0.251392
0.776394 0.159838 0.272816
0.835843 0.172183 0.293797
0.894453 0.18436 0.314473
0.948318 0.195575 0.333501
0.994476 0.205341 0.350072
0.994476 0.213581 0.364446
0.994476 0.216281 0.372961
0.994476 0.217441 0.380819
0.994476 0.219303 0.393271
0.994492 0.221012 0.403952
0.994492 0.223896 0.412039
0.994492 0.231098 0.420218
0.0241855 0.0874647 0.0528878
0.0241855 0.0874647 0.0528878
0.0241855 0.0874647 0.0528878
0.0251621 0.0856947 0.0402686
0.0582589 0.0838788 0.0308537
0.0893111 0.0815747 0.0327764
0.117006 0.0792859 0.0362402
0.145281 0.0762798 0.0401617
0.175494 0.0719005 0.0459297
0.207813 0.0650645 0.052018
0.242664 0.05626 0.0590219
0.27985 0.057557 0.0776379
0.320607 0.0658885 0.0977951
0.364584 0.074815 0.117311
0.411627 0.0845045 0.136675
0.460258 0.0944686 0.156222
0.511315 0.104982 0.175937
0.562249 0.115496 0.195239
0.611658 0.125704 0.213779
0.655512 0.134768 0.230167
0.716213 0.147356 0.251591
0.776684 0.159899 0.272923
0.836118 0.172244 0.293889
0.894713 0.184421 0.314565
0.94844 0.195605 0.333547
0.994476 0.205356 0.350118
0.994476 0.213581 0.364462
0.994476 0.216281 0.372976
0.994476 0.217441 0.38085
0.994476 0.219318 0.393286
0.994492 0.221012 0.403952
0.994492 0.223911 0.412055
0.994492 0.231113 0.420233
0.0309911 0.111849 0.0665446
0.0309911 0.111849 0.0665446
0.0309911 0.111849 0.0665446
0.0315862 0.110735 0.0576486
0.0497139 0.109285 0.0384222
0.0848859 0.10782 0.0399023
0.115282 0.10605 0.0423285
0.144732 0.103532 0.0461891
0.175158 0.100404 0.0505684
0.208301 0.0962844 0.0558633
0.243595 0.0903182 0.0619669
0.28246 0.0818341 0.0697642
0.32343 0.0704814 0.079118
0.368688 0.0758831 0.103593
0.416541 0.0856336 0.127535
0.468147 0.0961929 0.15079
0.521385 0.107149 0.173266
0.576257 0.118456 0.195438
0.631418 0.129839 0.217166
0.684443 0.14081 0.237736
0.733364 0.150927 0.256519
0.777127 0.159991 0.273075
0.836454 0.17232 0.294011
0.895003 0.184482 0.314672
0.948669 0.195651 0.333623
0.994476 0.205386 0.350164
0.994476 0.213596 0.364477
0.994476 0.216281 0.372992
0.994476 0.217441 0.38088
0.994476 0.219318 0.393301
0.994492 0.221012 0.403952
0.994492 0.223896 0.412055
0.994492 0.231113 0.420233
0.0383459 0.138888 0.0818036
0.0383459 0.138888 0.0818036
0.0383459 0.138888 0.0818036
0.0391699 0.137804 0.0740063
0.0436561 0.136553 0.0564279
0.0780804 0.135363 0.0486458
0.11162 0.133928 0.0500954
0.14316 0.131807 0.0524605
0.174807 0.129107 0.0562295
0.208179 0.126101 0.0609751
0.244099 0.121752 0.0669718
0.283864 0.115923 0.0738231
0.326772 0.107454 0.0815442
0.373632 0.0951705 0.0909285
0.422126 0.0874189 0.10898
0.475456 0.0978714 0.138628
0.531365 0.109346 0.165927
0.588724 0.121141 0.191592
0.646433 0.133028 0.216175
0.703624 0.144839 0.239704
0.758083 0.1561 0.261601
0.807599 0.166354 0.281285
0.848219 0.174762 0.29749
0.895338 0.184558 0.314794
0.948989 0.195712 0.333745
0.994476 0.205417 0.350225
0.994476 0.213611 0.364523
0.994476 0.216281 0.373007
0.994476 0.217441 0.380896
0.994476 0.219318 0.393332
0.994492 0.221012 0.403983
0.994492 0.223926 0.41207
0.994492 0.231113 0.420249
0.0467536 0.168032 0.098146
0.0467536 0.168032 0.098146
0.0467536 0.168032 0.098146
0.0472114 0.167025 0.0912795
0.0482032 0.166155 0.0780804
0.0662852 0.164797 0.0577401
0.105547 0.16379 0.0591897
0.139498 0.162234 0.060914
0.173648 0.160449 0.0638285
0.20856 0.157824 0.0682231
0.245686 0.154635 0.0733196
0.286061 0.150271 0.0793164
0.329931 0.143832 0.0870222
0.377768 0.135073 0.0955215
0.428367 0.122255 0.105058
0.481483 0.10544 0.117632
0.53753 0.110826 0.149386
0.596155 0.122835 0.180591
0.655695 0.135073 0.209308
0.714641 0.147219 0.235798
0.772045 0.15906 0.260563
0.825391 0.170092 0.282963
0.873213 0.179995 0.30277
0.914382 0.188525 0.319768
0.949233 0.195773 0.333837
0.994476 0.205478 0.350301
0.994476 0.213626 0.364553
0.994476 0.216297 0.373022
0.994476 0.217456 0.380926
0.994476 0.219318 0.393362
0.994492 0.221012 0.403983
0.994492 0.223926 0.41207
0.994492 0.231128 0.420249
0.0556802 0.200412 0.116106
0.0556802 0.200412 0.116106
0.0556802 0.200412 0.116106
0.0563821 0.199939 0.110292
0.0574197 0.199359 0.10013
0.063447 0.197955 0.0812848
0.0964981 0.197391 0.0699626
0.134905 0.196002 0.0713512
0.170977 0.194537 0.0732128
0.207767 0.192111 0.0762341
0.246738 0.189288 0.0811322
0.287465 0.185412 0.0867018
0.331716 0.180621 0.0932937
0.379782 0.173373 0.101076
0.431525 0.163394 0.110155
0.487068 0.149798 0.120546
0.543938 0.130419 0.131792
0.601434 0.124239 0.158801
0.66247 0.136675 0.194903
0.722927 0.149096 0.226139
0.781674 0.161181 0.254429
0.836835 0.172564 0.279652
0.887343 0.183001 0.302052
0.932494 0.19234 0.321752
0.969909 0.200092 0.338125
0.994476 0.205966 0.350881
0.994476 0.213657 0.364599
0.994476 0.216297 0.373053
0.994476 0.217456 0.380972
0.994476 0.219333 0.393378
0.994492 0.221012 0.403998
0.994492 0.223941 0.4121
0.994492 0.231128 0.420249
0.0661326 0.236851 0.136461
0.0661326 0.236851 0.136461
0.0661326 0.236851 0.136461
0.0666056 0.236439 0.131411
0.0673381 0.235828 0.122988
0.0690776 0.234501 0.108125
0.0804761 0.233448 0.0830854
0.125826 0.232227 0.0828412
0.165164 0.230976 0.084535
0.20415 0.228901 0.0864881
0.244724 0.226581 0.0899672
0.287419 0.223484 0.09514
0.333211 0.219272 0.101228
0.382055 0.213642 0.108446
0.435737 0.205966 0.117189
0.491966 0.194949 0.126818
0.550942 0.180224 0.13756
0.611063 0.159274 0.148913
0.668879 0.139849 0.1682
0.729168 0.150607 0.207568
0.788373 0.162768 0.241489
0.844572 0.174319 0.27071
0.896223 0.18497 0.296147
0.943053 0.194629 0.31841
0.983551 0.203006 0.337392
0.994476 0.209995 0.353353
0.994476 0.214618 0.365438
0.994476 0.216297 0.373083
0.994476 0.217472 0.381018
0.994476 0.219333 0.393423
0.994492 0.221012 0.404013
0.994492 0.223972 0.412131
0.994492 0.231128 0.420264
0.0772564 0.276188 0.158648
0.0772564 0.276188 0.158648
0.0772564 0.276188 0.158648
0.0777295 0.275792 0.153948
0.0784161 0.275395 0.146929
0.0792859 0.274464 0.135271
0.085481 0.27332 0.116747
0.11107 0.272602 0.0957656
0.157137 0.271611 0.0972763
0.199725 0.27042 0.0992905
0.241947 0.26836 0.101595
0.287068 0.265827 0.105592
0.33402 0.262119 0.111223
0.384588 0.257572 0.117937
0.438132 0.250919 0.125643
0.496361 0.24184 0.134798
0.556725 0.229114 0.144808
0.618372 0.212024 0.155612
0.680262 0.189975 0.167025
0.738781 0.162799 0.181109
0.796643 0.164752 0.21825
0.854643 0.176638 0.254932
0.908476 0.187686 0.285527
0.955825 0.197436 0.311254
0.994476 0.205951 0.332921
0.994476 0.21297 0.351019
0.994476 0.215946 0.3635
0.994476 0.21651 0.372274
0.994476 0.217472 0.381079
0.994476 0.219333 0.393484
0.994492 0.221027 0.404044
0.994492 0.223987 0.412146
0.994492 0.231159 0.420279
0.0899214 0.320867 0.183764
0.0899214 0.320867 0.183764
0.0899214 0.320867 0.183764
0.0903792 0.320653 0.17966
0.0909438 0.320027 0.173297
0.091783 0.319417 0.163882
0.0933852 0.318685 0.148455
0.104204 0.317571 0.125521
0.143297 0.316716 0.11194
0.19115 0.31574 0.113695
0.236378 0.314015 0.11574
0.28368 0.31194 0.118425
0.332891 0.308736 0.122713
0.385657 0.304753 0.129076
0.441505 0.299245 0.136339
0.501579 0.292576 0.145022
0.565576 0.283009 0.155016
0.632563 0.270542 0.166232
0.699565 0.252644 0.177829
0.764004 0.228901 0.18938
0.823453 0.198795 0.20061
0.87248 0.18172 0.226123
0.923186 0.191058 0.264408
0.969314 0.200488 0.295583
0.994476 0.20885 0.32134
0.994476 0.215015 0.341848
0.994476 0.21651 0.355764
0.994476 0.217258 0.368353
0.994476 0.218296 0.382345
0.994476 0.219348 0.393545
0.994492 0.221027 0.404089
0.994492 0.224002 0.412161
0.994492 0.231174 0.420294
0.103899 0.369574 0.210895
0.103899 0.369574 0.210895
0.103899 0.369574 0.210895
0.104311 0.36936 0.20708
0.104738 0.368597 0.201373
0.105531 0.368322 0.193637
0.106645 0.367895 0.181476
0.111864 0.366995 0.163363
0.124651 0.366323 0.133654
0.177584 0.366857 0.130327
0.229221 0.366644 0.132616
0.280659 0.366232 0.135531
0.334142 0.365621 0.139132
0.391241 0.363272 0.144549
0.45243 0.360754 0.152499
0.516045 0.35552 0.160906
0.582483 0.34789 0.170352
0.651682 0.336416 0.180774
0.71986 0.320211 0.19144
0.785306 0.299886 0.202152
0.844877 0.27396 0.212085
0.897719 0.242298 0.221027
0.940337 0.208652 0.232151
0.975067 0.20206 0.262562
0.994476 0.210224 0.296193
0.994476 0.215869 0.321614
0.994476 0.216876 0.338796
0.994476 0.217807 0.355535
0.994476 0.219089 0.373877
0.994492 0.220142 0.391058
0.994492 0.221027 0.40412
0.994492 0.224048 0.412222
0.994492 0.231205 0.420325
0.120928 0.428656 0.243534
0.120928 0.428656 0.243534
0.120928 0.428656 0.243534
0.121431 0.428901 0.240208
0.122118 0.429206 0.235538
0.12311 0.429831 0.228931
0.124422 0.430503 0.219043
0.126101 0.431098 0.203662
0.137057 0.430976 0.181903
0.162463 0.432242 0.152392
0.223423 0.4327 0.154665
0.280324 0.432853 0.157443
0.337453 0.432609 0.160815
0.396918 0.430579 0.164416
0.459754 0.427604 0.170336
0.52546 0.422599 0.178363
0.593942 0.415503 0.187106
0.662379 0.405097 0.196078
0.732052 0.391012 0.205951
0.799191 0.371817 0.215686
0.861128 0.347478 0.224796
0.916274 0.319265 0.233204
0.962646 0.286198 0.240162
0.994492 0.248859 0.245701
0.994476 0.215961 0.257145
0.994476 0.216236 0.287831
0.994476 0.217197 0.311192
0.994476 0.218143 0.332265
0.994476 0.219455 0.353948
0.994476 0.220615 0.374914
0.994492 0.221561 0.395117
0.994492 0.224094 0.412253
0.994492 0.23122 0.420356
0.141207 0.498451 0.281346
0.141207 0.498451 0.281346
0.141207 0.498451 0.281346
0.141726 0.498741 0.278172
0.142367 0.498924 0.273472
0.143191 0.499168 0.26717
0.144259 0.499397 0.258167
0.145541 0.49929 0.245075
0.151156 0.498924 0.225772
0.165042 0.499397 0.198154
0.209979 0.500206 0.177554
0.272801 0.500175 0.179904
0.333364 0.500053 0.182864
0.394934 0.498405 0.186053
0.459724 0.495705 0.189807
0.526925 0.490898 0.195789
0.595483 0.483528 0.203723
0.665034 0.473075 0.21178
0.734661 0.459861 0.220218
0.803525 0.441672 0.228946
0.868803 0.419776 0.237613
0.928298 0.394247 0.245823
0.98027 0.364904 0.253086
0.994614 0.333196 0.259236
0.994553 0.299443 0.263127
0.994507 0.264012 0.26537
0.994492 0.232502 0.272099
0.994476 0.218708 0.29102
0.994476 0.220035 0.31873
0.994476 0.22327 0.34638
0.994492 0.22742 0.37348
0.994492 0.229755 0.399069
0.994492 0.23125 0.420386
0.161151 0.566217 0.317052
0.161151 0.566217 0.317052
0.161151 0.566217 0.317052
0.161563 0.566186 0.313695
0.162081 0.566186 0.309377
0.162768 0.566217 0.303563
0.163607 0.566033 0.295369
0.164569 0.56524 0.283513
0.166049 0.564874 0.266224
0.177798 0.564309 0.244266
0.192813 0.563699 0.207813
0.255482 0.564004 0.201358
0.320439 0.563455 0.203754
0.384176 0.561685 0.206394
0.45008 0.559457 0.209705
0.517952 0.555505 0.213275
0.588617 0.549447 0.219364
0.66157 0.541512 0.227893
0.734249 0.529961 0.236194
0.804425 0.515511 0.244297
0.874601 0.496986 0.25304
0.939071 0.47396 0.261128
0.994904 0.447608 0.268406
0.994812 0.418784 0.27425
0.994736 0.389349 0.277211
0.994659 0.358526 0.279545
0.994598 0.326253 0.281025
0.994553 0.295964 0.284489
0.994507 0.269245 0.293629
0.994492 0.241413 0.305196
0.994492 0.236896 0.334813
0.994492 0.238987 0.368078
0.994492 0.239231 0.399893
0.179232 0.627131 0.348516
0.179232 0.627131 0.348516
0.179232 0.627131 0.348516
0.179583 0.627039 0.345373
0.179965 0.626749 0.341329
0.180468 0.626307 0.335622
0.181231 0.626184 0.32845
0.182223 0.626032 0.318532
0.18352 0.625803 0.304234
0.189899 0.625589 0.28513
0.203357 0.625528 0.25919
0.230518 0.626657 0.222766
0.302403 0.627253 0.225208
0.369863 0.626917 0.227893
0.437613 0.626352 0.231235
0.507958 0.624094 0.234836
0.580957 0.619837 0.238682
0.655695 0.613336 0.245212
0.730434 0.603586 0.253712
0.804456 0.59086 0.261982
0.874372 0.574197 0.269413
0.941375 0.553613 0.276997
0.995163 0.529717 0.284169
0.995071 0.503395 0.289067
0.994995 0.476524 0.291752
0.994904 0.4486 0.294133
0.994827 0.419623 0.295933
0.994751 0.39324 0.299199
0.994705 0.37052 0.30544
0.994644 0.343282 0.310994
0.994568 0.309422 0.316747
0.994522 0.273518 0.328405
0.994507 0.250248 0.354467
0.198093 0.689799 0.379934
0.198093 0.689799 0.379934
0.198093 0.689799 0.379934
0.198428 0.689799 0.377035
0.198886 0.689906 0.373495
0.199466 0.689891 0.368444
0.200183 0.689906 0.362005
0.201129 0.690013 0.353323
0.202335 0.690013 0.3411
0.20441 0.689296 0.323491
0.216892 0.689998 0.302983
0.232242 0.690517 0.269673
0.281727 0.692302 0.2477
0.353353 0.692271 0.250126
0.42356 0.692149 0.253132
0.494575 0.690517 0.256352
0.567987 0.68751 0.259953
0.642939 0.682414 0.263676
0.718547 0.673747 0.269825
0.794171 0.662715 0.278325
0.86659 0.647883 0.285893
0.934462 0.630137 0.292622
0.995422 0.608728 0.299336
0.995346 0.584863 0.3037
0.99527 0.559777 0.305943
0.995178 0.534508 0.308232
0.995102 0.508598 0.310246
0.995026 0.484443 0.31313
0.99498 0.467018 0.31986
0.994919 0.446967 0.326299
0.994842 0.421744 0.332296
0.994751 0.389609 0.337896
0.994644 0.345464 0.342535
0.216571 0.749554 0.408148
0.216571 0.749554 0.408148
0.216571 0.749554 0.408148
0.216876 0.749523 0.405402
0.217258 0.749584 0.402121
0.217762 0.749523 0.397452
0.218372 0.749493 0.391592
0.219043 0.748913 0.383215
0.220066 0.748821 0.372488
0.221378 0.748623 0.357488
0.230823 0.749249 0.339696
0.244465 0.749981 0.313985
0.263279 0.75082 0.275029
0.334066 0.752148 0.271
0.405921 0.752422 0.273716
0.476951 0.751369 0.27657
0.549096 0.749462 0.27985
0.623728 0.745388 0.283238
0.698878 0.738659 0.286458
0.775051 0.728969 0.292531
0.849134 0.715908 0.300496
0.919097 0.700038 0.3075
0.983581 0.682277 0.313573
0.995575 0.661143 0.318166
0.995514 0.639612 0.32015
0.995453 0.616815 0.322072
0.995377 0.594186 0.324071
0.9953 0.570947 0.326177
0.99527 0.557977 0.332921
0.995224 0.542535 0.339498
0.995163 0.524468 0.346273
0.995087 0.50164 0.353201
0.994995 0.471275 0.360281
0.233219 0.801938 0.431037
0.233219 0.801938 0.431037
0.233219 0.801938 0.431037
0.233494 0.801892 0.428489
0.233814 0.801892 0.425513
0.234241 0.801755 0.421164
0.23476 0.801648 0.415885
0.235447 0.801465 0.408469
0.236316 0.801312 0.398947
0.23743 0.800992 0.385504
0.244587 0.801633 0.370016
0.256077 0.802167 0.349844
0.270649 0.80296 0.318242
0.311421 0.805127 0.289998
0.384131 0.805447 0.292348
0.455436 0.805539 0.295155
0.52755 0.804517 0.298238
0.600885 0.801495 0.301305
0.675425 0.796841 0.30454
0.751598 0.789181 0.307561
0.825711 0.778424 0.313344
0.896925 0.764996 0.32105
0.963699 0.749386 0.327749
0.995773 0.731579 0.332326
0.995727 0.712947 0.333928
0.995682 0.692897 0.335271
0.995621 0.67248 0.336843
0.99556 0.652247 0.338811
0.995529 0.639414 0.343984
0.995499 0.627787 0.350271
0.995453 0.614221 0.357031
0.995407 0.59707 0.364019
0.995331 0.575982 0.371984
0.248447 0.847776 0.447974
0.248447 0.847776 0.447974
0.248447 0.847776 0.447974
0.248676 0.847822 0.445914
0.248997 0.847791 0.442817
0.249378 0.847669 0.438727
0.249851 0.847654 0.433875
0.250462 0.847471 0.427039
0.251118 0.847074 0.418494
0.252552 0.847028 0.406607
0.259236 0.847974 0.393576
0.269718 0.848951 0.376135
0.282536 0.850019 0.350469
0.302571 0.851774 0.314153
0.368185 0.853361 0.310109
0.438468 0.853971 0.312779
0.508873 0.853468 0.315618
0.579614 0.851743 0.318547
0.652201 0.84831 0.321599
0.725643 0.842115 0.324331
0.798566 0.833661 0.326879
0.869123 0.822095 0.33225
0.936278 0.80856 0.339666
0.995895 0.792844 0.345647
0.995865 0.776806 0.346944
0.995834 0.759625 0.347601
0.995804 0.741314 0.348531
0.995758 0.723461 0.34995
0.995727 0.709529 0.353277
0.995697 0.700359 0.358877
0.995682 0.690272 0.365026
0.995651 0.677974 0.37171
0.995605 0.66302 0.379507
0.262409 0.887434 0.458564
0.262409 0.887434 0.458564
0.262409 0.887434 0.458564
0.262608 0.887373 0.45623
0.262898 0.887327 0.453223
0.263249 0.887236 0.449378
0.263645 0.887205 0.444892
0.264179 0.887022 0.438422
0.26537 0.887144 0.430671
0.268162 0.887739 0.420859
0.275502 0.888655 0.409903
0.284718 0.88957 0.394232
0.295766 0.890364 0.372137
0.309773 0.891539 0.340627
0.359762 0.894255 0.326192
0.426947 0.894942 0.328634
0.492958 0.894774 0.331151
0.560571 0.893767 0.333944
0.629648 0.891005 0.33669
0.699992 0.886427 0.339406
0.770001 0.879637 0.341878
0.838437 0.8701 0.343816
0.90396 0.858488 0.348882
0.965148 0.844831 0.355657
0.995895 0.830121 0.360082
0.995895 0.815244 0.359045
0.995895 0.799588 0.359243
0.99588 0.784161 0.360128
0.995865 0.769696 0.361776
0.99585 0.762798 0.366598
0.995834 0.75552 0.372
0.995819 0.746944 0.378042
0.995804 0.736492 0.384939
0.274861 0.919936 0.460883
0.274861 0.919936 0.460883
0.274861 0.919936 0.460883
0.275059 0.919905 0.45864
0.275288 0.919814 0.455711
0.276066 0.920027 0.452857
0.277165 0.920195 0.448524
0.278462 0.920378 0.443076
0.280812 0.92079 0.436667
0.286107 0.921462 0.428763
0.292348 0.922271 0.418784
0.300389 0.923125 0.404395
0.309926 0.924025 0.384863
0.322545 0.925109 0.357275
0.360998 0.927657 0.340398
0.421042 0.928344 0.342535
0.482628 0.928481 0.344884
0.544869 0.927733 0.347372
0.608896 0.925643 0.349859
0.674891 0.922118 0.352499
0.741344 0.916487 0.354894
0.807202 0.909026 0.357198
0.871473 0.899397 0.359121
0.931914 0.887617 0.36408
0.987274 0.874922 0.370764
0.995758 0.861967 0.37174
0.99585 0.848981 0.370199
0.99588 0.835813 0.370199
0.995895 0.822843 0.370886
0.995895 0.815915 0.374289
0.995895 0.810788 0.378805
0.995895 0.804944 0.384009
0.995895 0.797955 0.390036
0.288762 0.947066 0.457755
0.288762 0.947066 0.457755
0.288762 0.947066 0.457755
0.289235 0.947188 0.455787
0.289845 0.947295 0.453193
0.291463 0.947555 0.45034
0.293858 0.947921 0.446906
0.296788 0.948348 0.442481
0.300191 0.948852 0.437186
0.304723 0.949432 0.429633
0.310018 0.950103 0.420218
0.316716 0.950668 0.406897
0.324727 0.95137 0.389136
0.338582 0.953002 0.367193
0.372488 0.955367 0.353384
0.425696 0.955978 0.355337
0.480491 0.956039 0.357397
0.536812 0.955489 0.359686
0.596704 0.954009 0.362234
0.657389 0.951141 0.364782
0.719005 0.946868 0.367544
0.781506 0.940719 0.370565
0.842023 0.932647 0.373632
0.900374 0.922988 0.376532
0.953628 0.912062 0.382315
0.994553 0.900801 0.38819
0.995087 0.889677 0.385046
0.995453 0.87892 0.38201
0.995682 0.867948 0.381155
0.995773 0.860166 0.38265
0.995789 0.856458 0.386297
0.995819 0.852598 0.390661
0.995834 0.847913 0.395666
0.310552 0.97145 0.448447
0.310552 0.97145 0.448447
0.310552 0.97145 0.448447
0.311559 0.971572 0.446769
0.31284 0.971756 0.444663
0.314336 0.972 0.442176
0.316167 0.972244 0.438987
0.318654 0.972564 0.434546
0.321767 0.97293 0.428748
0.325612 0.973373 0.42118
0.330053 0.973877 0.411933
0.335866 0.974411 0.398672
0.345922 0.975692 0.3841
0.362585 0.978164 0.367636
0.401068 0.978836 0.366278
0.445151 0.979217 0.367971
0.491829 0.979248 0.369909
0.5411 0.97879 0.372076
0.593927 0.97731 0.374441
0.648722 0.974945 0.377356
0.705638 0.971206 0.38114
0.762997 0.965743 0.385626
0.819394 0.95906 0.390524
0.873869 0.950835 0.394965
0.924575 0.941772 0.398703
0.970489 0.932189 0.405295
0.993179 0.922454 0.407248
0.99379 0.913146 0.401907
0.994308 0.904479 0.397375
0.994751 0.896025 0.39527
0.994858 0.893492 0.397833
0.994965 0.890929 0.401083
0.995071 0.887938 0.404898
0.335882 0.991226 0.428931
0.335882 0.991226 0.428931
0.335882 0.991226 0.428931
0.336721 0.991318 0.427207
0.337789 0.991409 0.424918
0.339101 0.991363 0.421912
0.34081 0.991547 0.418189
0.342916 0.991791 0.413443
0.345205 0.991806 0.407858
0.350362 0.992538 0.401724
0.358221 0.993591 0.394751
0.367819 0.995102 0.385504
0.382071 0.995895 0.376913
0.410666 0.995895 0.377966
0.442283 0.995895 0.379202
0.47718 0.995865 0.380697
0.515068 0.995819 0.382422
0.557229 0.995712 0.384649
0.602304 0.995453 0.387793
0.65153 0.993637 0.39205
0.701778 0.98996 0.396918
0.753719 0.985229 0.402808
0.805295 0.979324 0.409033
0.855085 0.972366 0.414878
0.901823 0.964721 0.419989
0.944518 0.956466 0.423621
0.982818 0.948165 0.430304
0.991897 0.940261 0.427543
