proprietary/odm/etc/camera/filters_lut/log_video_hdr_3dlut.cube
#is_rgb_input 1
#is_rgb_output 1
#input_offset 0.000000
#shape_order 1.000000
#format 6
# MaxLuma:1000.00 MinLuma:0.00010 Eotf=Gamma
#LUT Size
LUT_3D_SIZE 5
#data domain
DOMAIN_MIN 0 0 0
DOMAIN_MAX 1.0 1.0 1.0
#LUT data points
0 0 0
0.183917 0 0
0.485985 0.00582895 0.00582895
0.863523 0.0428931 0.0428931
1 0.200687 0.200687
0.0413519 0.166857 0.00164797
0.166629 0.158129 0
0.537591 0.124697 0
0.864378 0.0430762 0.0430762
1 0.200855 0.200855
0.200717 0.588067 0.0690623
0.272129 0.586801 0.065507
0.590875 0.571405 0.0398871
0.911009 0.526452 0.0750439
1 0.316487 0.217914
0.624262 0.912398 0.302678
0.642588 0.912062 0.300771
0.731289 0.909483 0.287785
0.907851 0.899504 0.215412
1 0.883864 0.315892
0.924788 1 0.766796
0.925963 1 0.766705
0.933165 1 0.766171
0.961501 1 0.761746
1 1 0.712749
0 0 0.240116
0.16553 0 0.184512
0.49543 0.00444038 0.115633
0.863203 0.0428168 0.0428168
1 0.200656 0.200656
0.0213474 0.164385 0.162066
0.155505 0.1561 0.152193
0.549737 0.116655 0.105898
0.864073 0.0430152 0.0430152
1 0.200793 0.200793
0.192523 0.589014 0.171847
0.264149 0.587304 0.168948
0.590829 0.573648 0.149096
0.91075 0.526024 0.0749065
1 0.315831 0.217777
0.621118 0.912566 0.356085
0.639399 0.912139 0.35404
0.72929 0.909606 0.341848
0.908034 0.899748 0.273106
1 0.883803 0.315785
0.92462 1 0.774319
0.925811 1 0.774243
0.933028 1 0.773739
0.961425 1 0.769665
1 1 0.720821
0.0030518 0.0030518 0.56701
0.0581521 0 0.56907
0.460761 0.00526436 0.508324
0.878096 0.040177 0.410758
1 0.200381 0.200366
0 0.147219 0.577447
0.0725414 0.142061 0.603265
0.518898 0.107683 0.562341
0.878996 0.0403601 0.413565
1 0.200488 0.200488
0.138705 0.585077 0.579629
0.217823 0.583322 0.577462
0.572183 0.573236 0.564492
0.921508 0.51043 0.481819
1 0.311269 0.216846
0.603693 0.912337 0.608469
0.62385 0.912016 0.607309
0.719432 0.909438 0.599222
0.906828 0.899565 0.559899
1 0.882963 0.357092
0.923568 1 0.816052
0.924743 1 0.815976
0.932097 1 0.815702
0.96083 1 0.812909
1 1 0.784695
0.0157321 0.0157321 0.841932
0.0157168 0.0157168 0.841825
0.252705 0.014725 0.88191
0.855482 0.0457771 0.883238
1 0.203647 0.863096
0.0117494 0.0986801 0.897871
0.0117189 0.0963455 0.896635
0.278981 0.0729229 0.931273
0.856474 0.0459602 0.883421
1 0.203815 0.863355
0.0361944 0.548562 0.935744
0.0360723 0.547677 0.935714
0.390127 0.552636 0.952407
0.906722 0.492271 0.925444
1 0.269902 0.870878
0.491997 0.909911 0.907546
0.526268 0.909575 0.907164
0.66775 0.907164 0.904555
0.896437 0.897017 0.892836
1 0.875044 0.862654
0.918181 1 0.921965
0.919509 1 0.921935
0.92755 1 0.921859
0.958389 1 0.921096
1 0.999786 0.916411
0.0696422 0.0696422 1
0.0696422 0.0696422 1
0.0695964 0.0695964 1
0.690211 0.078172 1
1 0.234424 1
0.0696727 0.0696727 1
0.0696574 0.0696574 1
0.0696117 0.0696117 1
0.69308 0.0783093 1
1 0.234562 1
0.0978714 0.45922 1
0.0977493 0.458 1
0.0969711 0.449958 1
0.770062 0.403388 1
1 0.235599 1
0.21265 0.899641 1
0.212589 0.89958 1
0.212284 0.899245 1
0.814664 0.892805 1
1 0.866743 1
0.879118 1 1
0.881376 1 1
0.895415 1 1
0.944472 1 1
0.999207 0.999313 0.998642
