proprietary/odm/etc/camera/filters_lut/p3_srgb_to_bt2020_hlg_3dlut_light.cube
TITLE "Generated by Resolve"
LUT_3D_SIZE 9
#LUT data points
0 0 0
0.162692 0.0400854 0
0.247791 0.0610819 0
0.341329 0.084184 0
0.446097 0.110109 0
0.560037 0.140047 0
0.659175 0.176059 0
0.75198 0.221927 0
0.848661 0.285801 0
0.0836805 0.182422 0.024567
0.183597 0.186954 0.0236973
0.262821 0.195224 0.0225834
0.353506 0.207797 0.0208438
0.45684 0.22536 0.0182803
0.568215 0.249195 0.0144198
0.665263 0.281621 0.00735485
0.757153 0.327047 0
0.85362 0.395331 0
0.12781 0.279011 0.0368353
0.210178 0.282231 0.0362554
0.281086 0.286229 0.0355383
0.368353 0.298283 0.0344549
0.470115 0.31606 0.0329747
0.578088 0.340825 0.0309911
0.67274 0.375418 0.028397
0.763546 0.425315 0.0249943
0.859831 0.502556 0.020325
0.176898 0.386908 0.049546
0.246906 0.389548 0.0491188
0.313207 0.392813 0.0485847
0.390417 0.397574 0.0478065
0.48925 0.41619 0.0467384
0.591913 0.443915 0.0453651
0.683406 0.483238 0.0436255
0.772778 0.538201 0.0414893
0.86891 0.608713 0.0388495
0.232944 0.510628 0.062623
0.294575 0.512917 0.0622873
0.357061 0.515755 0.0618601
0.432532 0.519814 0.0612497
0.516335 0.525124 0.0604105
0.609415 0.551095 0.0593576
0.697246 0.587228 0.0580301
0.78497 0.633997 0.0564431
0.881071 0.697017 0.0545357
0.299611 0.626841 0.0760052
0.356008 0.628367 0.0757305
0.416007 0.630289 0.0753796
0.490822 0.633036 0.074876
0.567575 0.636683 0.0741894
0.633524 0.64123 0.0733349
0.714183 0.67039 0.0722667
0.800229 0.713634 0.070985
0.896605 0.774075 0.0694743
0.383917 0.730358 0.0896773
0.437858 0.731579 0.0894331
0.497307 0.733104 0.0891432
0.565316 0.735317 0.088716
0.628779 0.738262 0.0881361
0.686641 0.741955 0.0874037
0.739223 0.74641 0.0865034
0.818616 0.78349 0.0854353
0.915846 0.844068 0.084184
0.501381 0.835645 0.103593
0.551186 0.836789 0.103395
0.59884 0.838209 0.103136
0.651698 0.840284 0.10277
0.704784 0.843046 0.102266
0.755779 0.846525 0.10164
0.80383 0.850767 0.100862
0.84889 0.855787 0.0999313
0.939269 0.910002 0.0988632
0.650278 0.960708 0.117769
0.685206 0.96202 0.117586
0.721294 0.963653 0.117372
0.76405 0.966033 0.117037
0.809506 0.969238 0.116594
0.855192 0.973297 0.116045
0.899855 0.978271 0.115358
0.943008 0.984253 0.114549
0.984558 0.991272 0.113603
0.0408637 0.020676 0.186557
0.168353 0.0446937 0.18645
0.251453 0.0629435 0.188449
0.344274 0.0826734 0.191775
0.448676 0.10338 0.195407
0.56202 0.124849 0.19852
0.660639 0.146975 0.199405
0.753231 0.169726 0.194308
0.849851 0.203571 0.183856
0.092195 0.18378 0.188281
0.188159 0.188159 0.188159
0.266331 0.193805 0.188022
0.356374 0.202426 0.187808
0.459403 0.21471 0.187518
0.570138 0.231815 0.187152
0.666712 0.25568 0.186725
0.758373 0.290013 0.186191
0.85481 0.342931 0.185595
0.131106 0.279896 0.19234
0.211704 0.283116 0.19028
0.284169 0.287083 0.190143
0.37116 0.296666 0.189929
0.472663 0.310689 0.189654
0.57995 0.330465 0.189288
0.674159 0.358541 0.188861
0.764767 0.399725 0.188342
0.861021 0.464668 0.187747
0.17348 0.387625 0.195407
0.244724 0.390265 0.193347
0.313359 0.39353 0.193194
0.392737 0.398276 0.192996
0.491753 0.414511 0.192706
0.593683 0.438453 0.192355
0.684794 0.472724 0.191928
0.773999 0.522652 0.191424
0.8701 0.589456 0.190829
0.222477 0.511254 0.197467
0.288167 0.513542 0.197345
0.353597 0.516365 0.197208
0.431846 0.520424 0.197009
0.518074 0.525719 0.196735
0.611093 0.549691 0.196384
0.698589 0.583032 0.195956
0.786175 0.626917 0.195468
0.882292 0.687114 0.194888
0.284047 0.627253 0.202411
0.344701 0.628794 0.202304
0.408148 0.630701 0.202167
0.486366 0.633448 0.201968
0.566537 0.637095 0.201694
0.634531 0.641627 0.201358
0.71548 0.66949 0.200946
0.801419 0.710735 0.200458
0.897841 0.769131 0.199893
0.362203 0.730694 0.208301
0.420584 0.731914 0.208194
0.48394 0.73344 0.208057
0.557809 0.735653 0.207858
0.625238 0.738582 0.207599
0.685649 0.742275 0.207279
0.739895 0.746746 0.206867
0.819806 0.782986 0.206394
0.917098 0.842069 0.205844
0.471321 0.835966 0.215091
0.529259 0.83711 0.214984
0.583673 0.838529 0.214862
0.642008 0.840589 0.214664
0.699077 0.843351 0.21442
0.752865 0.846845 0.214084
0.802915 0.851072 0.213703
0.849393 0.856107 0.21323
0.940581 0.909941 0.212696
0.622843 0.961074 0.222751
0.663996 0.962371 0.222644
0.705196 0.964004 0.222522
0.752667 0.9664 0.222339
0.801953 0.969589 0.22208
0.850584 0.973663 0.221775
0.897444 0.978653 0.221393
0.942229 0.984619 0.220951
0.985016 0.991653 0.220417
0.0622416 0.0310063 0.285618
0.177905 0.0503243 0.285527
0.257664 0.0670787 0.28542
0.347906 0.0858778 0.289784
0.451896 0.105974 0.298116
0.564477 0.127016 0.308675
0.66247 0.148852 0.321691
0.754772 0.171374 0.337713
0.851331 0.194568 0.358083
0.1028 0.188022 0.286839
0.194034 0.18967 0.286748
0.271168 0.195117 0.286641
0.359945 0.202808 0.289479
0.462593 0.212696 0.293675
0.572519 0.224628 0.298253
0.668513 0.238483 0.302403
0.759915 0.254093 0.304417
0.856306 0.271321 0.299809
0.138888 0.281392 0.28835
0.216236 0.284321 0.288273
0.288167 0.288167 0.288167
0.374655 0.294148 0.288014
0.475822 0.302922 0.287816
0.582254 0.315572 0.287556
0.675929 0.333989 0.287251
0.766293 0.361807 0.286885
0.862516 0.407202 0.286458
0.179583 0.388525 0.295781
0.245747 0.39115 0.292958
0.313481 0.39443 0.290379
0.395758 0.399161 0.290227
0.494881 0.411948 0.290013
0.595895 0.430655 0.289769
0.686519 0.457832 0.289464
0.775509 0.498833 0.289097
0.871611 0.559182 0.28867
0.223621 0.512032 0.302876
0.281239 0.514321 0.295262
0.348791 0.517128 0.293294
0.430854 0.521172 0.293141
0.520348 0.526452 0.292943
0.613184 0.547555 0.292683
0.700267 0.576989 0.292378
0.787671 0.616663 0.292012
0.883803 0.672526 0.2916
0.270665 0.627787 0.304768
0.328756 0.629313 0.297047
0.397238 0.63122 0.296941
0.480232 0.633967 0.296803
0.565087 0.637598 0.296605
0.635828 0.64213 0.296345
0.717113 0.668116 0.29604
0.802899 0.706584 0.295689
0.899382 0.76202 0.295262
0.330602 0.731106 0.301534
0.396048 0.732326 0.301442
0.465248 0.733852 0.30135
0.547112 0.736065 0.301198
0.620325 0.73901 0.300999
0.684245 0.742687 0.300755
0.740749 0.747143 0.30045
0.821286 0.782162 0.300099
0.918669 0.839185 0.299687
0.427359 0.836347 0.306676
0.494606 0.837491 0.3066
0.560861 0.838911 0.306493
0.627985 0.840986 0.306355
0.691035 0.843748 0.306157
0.748852 0.847227 0.305913
0.801633 0.851469 0.305608
0.850019 0.856489 0.305257
0.942199 0.909712 0.304845
0.577447 0.961517 0.312566
0.630579 0.962814 0.31249
0.680781 0.964446 0.312398
0.736004 0.966842 0.312245
0.79118 0.970047 0.312062
0.844114 0.974121 0.311818
0.894087 0.97911 0.311513
0.941146 0.985092 0.311177
0.985611 0.992126 0.310765
0.0858015 0.0417029 0.396658
0.192142 0.057557 0.396597
0.271824 0.0726787 0.396506
0.357687 0.0903487 0.396384
0.45655 0.109651 0.403937
0.568002 0.130129 0.420966
0.66511 0.151537 0.44387
0.757015 0.173754 0.475593
0.853483 0.196689 0.522087
0.116594 0.193835 0.397665
0.202945 0.191852 0.397589
0.281727 0.197238 0.397513
0.367712 0.204868 0.397391
0.467216 0.214664 0.404196
0.575952 0.22652 0.417227
0.671107 0.240299 0.434424
0.762142 0.255818 0.45771
0.858473 0.272953 0.491585
0.149554 0.289631 0.398917
0.22359 0.289555 0.39884
0.294377 0.289738 0.398764
0.380636 0.295415 0.398642
0.4804 0.302876 0.403449
0.58558 0.312108 0.410849
0.678492 0.323095 0.41976
0.768505 0.33579 0.430198
0.864698 0.350149 0.442145
0.188144 0.39089 0.400732
0.252399 0.393072 0.400656
0.318029 0.395941 0.40058
0.400458 0.400458 0.400458
0.499428 0.407156 0.40029
0.599069 0.416999 0.400076
0.689021 0.431678 0.399817
0.777707 0.454597 0.399512
0.873793 0.493736 0.399176
0.230793 0.513176 0.414298
0.287266 0.515435 0.411475
0.348226 0.518242 0.407462
0.429099 0.522255 0.402869
0.523842 0.52752 0.402701
0.61619 0.543542 0.402487
0.702708 0.566155 0.402243
0.789853 0.597971 0.401938
0.886015 0.64509 0.401587
0.27686 0.628534 0.429938
0.327398 0.630076 0.421973
0.384253 0.631968 0.410895
0.469917 0.634714 0.405905
0.56257 0.638346 0.405737
0.637858 0.642863 0.405524
0.719478 0.665522 0.40528
0.805066 0.699199 0.404974
0.90161 0.74931 0.404623
0.326268 0.731716 0.442832
0.372351 0.732937 0.42594
0.432959 0.734462 0.409705
0.528069 0.736675 0.409583
0.611917 0.739605 0.409415
0.681849 0.743282 0.409216
0.742061 0.747738 0.408957
0.823438 0.780514 0.408652
0.920974 0.834028 0.408316
0.379217 0.836912 0.44271
0.428931 0.838056 0.414115
0.515923 0.839475 0.414038
0.602396 0.84155 0.413916
0.677028 0.844312 0.413748
0.742 0.847791 0.413535
0.799451 0.852033 0.413291
0.85098 0.857069 0.413001
0.944595 0.909041 0.41265
0.465476 0.962158 0.419181
0.557412 0.96347 0.41912
0.631891 0.965103 0.419028
0.704829 0.967498 0.418906
0.771984 0.970703 0.418753
0.832929 0.974777 0.41854
0.888365 0.979782 0.418296
0.939269 0.985779 0.41799
0.986481 0.992828 0.417655
0.112398 0.0526894 0.523919
0.212055 0.06598 0.523857
0.292256 0.0795453 0.523781
0.380209 0.0959793 0.523674
0.473106 0.114382 0.523537
0.572625 0.134173 0.534035
0.668589 0.155062 0.561273
0.759991 0.176867 0.596323
0.856367 0.199496 0.64358
0.13286 0.20087 0.524758
0.215717 0.19472 0.524697
0.297169 0.200031 0.52462
0.386511 0.207568 0.524514
0.480919 0.217273 0.524376
0.580468 0.229023 0.535012
0.674556 0.242679 0.558968
0.765103 0.258091 0.590173
0.861357 0.27512 0.632975
0.162768 0.300908 0.525795
0.233097 0.296284 0.525734
0.303487 0.291814 0.525673
0.394705 0.297459 0.525567
0.491142 0.304891 0.525429
0.589944 0.314076 0.535439
0.68188 0.325017 0.554818
0.77145 0.337667 0.580331
0.867582 0.351995 0.615946
0.199069 0.4065 0.527306
0.261067 0.405417 0.527245
0.325414 0.403967 0.527184
0.407416 0.402167 0.527077
0.50695 0.408423 0.52694
0.60325 0.416236 0.534188
0.692332 0.425666 0.545541
0.780621 0.436698 0.560021
0.876707 0.449363 0.579644
0.240055 0.517067 0.529305
0.295171 0.518669 0.529244
0.355215 0.520775 0.529183
0.433677 0.524071 0.529076
0.528939 0.528939 0.528939
0.620172 0.536034 0.528771
0.705928 0.546487 0.528557
0.792752 0.562493 0.528313
0.88896 0.588922 0.528023
0.284962 0.629557 0.550622
0.334646 0.631083 0.548165
0.39089 0.632975 0.544656
0.466484 0.635706 0.538521
0.558312 0.639323 0.531441
0.640787 0.643839 0.531273
0.722606 0.66067 0.53106
0.807935 0.686091 0.530816
0.904616 0.726116 0.530526
0.333547 0.732525 0.577203
0.379095 0.733745 0.570428
0.432227 0.735256 0.560754
0.505364 0.737469 0.543572
0.59762 0.740398 0.534447
0.677867 0.744076 0.534279
0.743969 0.748531 0.534081
0.826307 0.77731 0.533837
0.924041 0.824765 0.533547
0.385901 0.837674 0.6065
0.428443 0.838804 0.592599
0.479225 0.840238 0.571832
0.552544 0.842298 0.538109
0.652262 0.84506 0.537972
0.730526 0.848554 0.537804
0.795804 0.852796 0.537606
0.852354 0.857816 0.537362
0.947784 0.907362 0.537072
0.442466 0.963027 0.639292
0.482933 0.96434 0.609827
0.530434 0.965972 0.559899
0.640665 0.968368 0.542123
0.736522 0.971588 0.541985
0.813535 0.975662 0.541833
0.878798 0.980682 0.541619
0.936095 0.986679 0.54139
0.987701 0.993744 0.541115
0.143709 0.0639506 0.640024
0.239536 0.0753033 0.639979
0.321431 0.0874495 0.639933
0.412894 0.102678 0.639857
0.510231 0.120089 0.639765
0.594797 0.139116 0.639643
0.672953 0.159411 0.649805
0.763729 0.180743 0.684153
0.860014 0.202991 0.731594
0.151034 0.208408 0.640589
0.233768 0.198276 0.640558
0.319509 0.203525 0.640497
0.414084 0.210956 0.640436
0.513924 0.220539 0.64033
0.599313 0.232151 0.640223
0.678859 0.245655 0.65124
0.768826 0.260929 0.683391
0.865003 0.277836 0.72842
0.178164 0.315816 0.641306
0.244663 0.304356 0.64126
0.316777 0.294408 0.641215
0.415549 0.300038 0.641138
0.518669 0.307408 0.641047
0.605142 0.316564 0.640925
0.686107 0.327443 0.652552
0.775143 0.340047 0.681666
0.87126 0.354299 0.723156
0.212146 0.428458 0.642329
0.271702 0.422507 0.642298
0.334585 0.414527 0.642252
0.41767 0.404318 0.642176
0.525917 0.410559 0.642084
0.614069 0.418357 0.641962
0.696483 0.427771 0.653391
0.784298 0.438788 0.677226
0.8804 0.451438 0.712093
0.251377 0.543175 0.643702
0.304936 0.541497 0.643671
0.363928 0.539239 0.643626
0.441611 0.535607 0.643549
0.536309 0.530709 0.643458
0.626917 0.537133 0.643336
0.709972 0.544717 0.651957
0.796399 0.553429 0.666468
0.892683 0.56321 0.687831
0.294972 0.634409 0.645426
0.343664 0.635279 0.645396
0.399191 0.636439 0.645335
0.47422 0.638254 0.645274
0.56199 0.640986 0.645182
0.64506 0.64506 0.64506
0.726528 0.65124 0.644923
0.811566 0.661112 0.644739
0.9084 0.678599 0.644541
0.34258 0.733532 0.671916
0.387518 0.734752 0.670176
0.440177 0.736278 0.667704
0.512718 0.738476 0.663386
0.591028 0.741405 0.655955
0.671016 0.745083 0.64715
0.746685 0.749523 0.646998
0.829923 0.770886 0.64683
0.927932 0.807263 0.646632
0.394263 0.838621 0.710353
0.436408 0.83975 0.705242
0.4869 0.841184 0.698009
0.552911 0.843259 0.685328
0.622187 0.846021 0.662928
0.71017 0.8495 0.649592
0.789548 0.853742 0.649454
0.854261 0.858778 0.649287
0.951827 0.903426 0.649088
0.450355 0.964111 0.765713
0.490593 0.965423 0.755032
0.537102 0.967071 0.739284
0.593194 0.969467 0.709712
0.658534 0.972686 0.652537
0.776852 0.976791 0.652415
0.861952 0.981811 0.652277
0.930556 0.987823 0.65211
0.989319 0.994919 0.651926
0.183001 0.0754253 0.745052
0.278508 0.0852827 0.745022
0.364263 0.0962234 0.744976
0.46183 0.110277 0.74493
0.560021 0.126696 0.744854
0.6383 0.144915 0.744747
0.702892 0.164553 0.744625
0.768261 0.185351 0.754498
0.864439 0.207172 0.80235
0.170748 0.215 0.74551
0.260014 0.202548 0.74548
0.352911 0.207691 0.745449
0.455833 0.215 0.745388
0.558648 0.22443 0.745312
0.639521 0.235889 0.74522
0.705562 0.249241 0.745098
0.773327 0.264363 0.756451
0.869459 0.281102 0.802915
0.195422 0.335744 0.74609
0.258152 0.313359 0.746059
0.336873 0.297551 0.746029
0.447532 0.303136 0.745968
0.556664 0.31046 0.745892
0.641077 0.319554 0.745785
0.709026 0.330373 0.745678
0.779629 0.342901 0.758602
0.875715 0.357092 0.803113
0.227176 0.460212 0.746929
0.28423 0.446784 0.746899
0.345541 0.428382 0.746853
0.433448 0.406928 0.746807
0.553231 0.413153 0.746731
0.643442 0.420935 0.746624
0.714397 0.43032 0.746517
0.788754 0.441306 0.761059
0.884886 0.453925 0.802167
0.264607 0.578241 0.748043
0.316518 0.572442 0.748012
0.37438 0.564462 0.747982
0.451179 0.551034 0.747921
0.547295 0.53286 0.747845
0.646799 0.539223 0.747738
0.722286 0.546761 0.747631
0.800824 0.555413 0.762737
0.897231 0.565118 0.797787
0.306813 0.667552 0.749447
0.354452 0.665888 0.749416
0.409171 0.663645 0.749386
0.483589 0.660029 0.749325
0.569207 0.654444 0.749249
0.651484 0.64654 0.749157
0.733715 0.651911 0.749035
0.815961 0.658183 0.76112
0.913039 0.665324 0.784192
0.353368 0.740551 0.751156
0.397635 0.741054 0.751125
0.449775 0.741726 0.75108
0.52137 0.742794 0.751034
0.597574 0.744427 0.750957
0.673274 0.746899 0.750851
0.750744 0.750744 0.750744
0.834318 0.757122 0.750607
0.932692 0.769116 0.750439
0.404288 0.839765 0.788159
0.446036 0.840909 0.786877
0.496208 0.842329 0.785031
0.560357 0.844404 0.781781
0.628153 0.847166 0.776089
0.698604 0.85066 0.765881
0.777874 0.854902 0.752758
0.856992 0.859937 0.752605
0.956786 0.894163 0.752453
0.459861 0.965438 0.853025
0.49987 0.966766 0.848951
0.544991 0.968414 0.843122
0.59971 0.97081 0.832853
0.660578 0.974044 0.814664
0.726513 0.978149 0.779675
0.828229 0.983185 0.755077
0.920119 0.989227 0.75494
0.991485 0.996338 0.754788
0.238071 0.0870985 0.854063
0.338582 0.0957961 0.854032
0.432578 0.105684 0.854002
0.538613 0.118669 0.853941
0.627085 0.134112 0.853864
0.699138 0.151507 0.853773
0.760204 0.170443 0.853666
0.813367 0.190677 0.853529
0.869703 0.212024 0.86247
0.191714 0.216678 0.854505
0.30161 0.207492 0.854475
0.407233 0.212543 0.854429
0.523674 0.219715 0.854383
0.620539 0.228992 0.854307
0.696818 0.240269 0.854215
0.760311 0.253437 0.854109
0.815015 0.26836 0.853971
0.874723 0.284947 0.865232
0.214282 0.364248 0.855055
0.273472 0.322271 0.855024
0.37023 0.301244 0.854994
0.501228 0.306783 0.854932
0.611246 0.314046 0.854856
0.693568 0.323064 0.854765
0.760403 0.333822 0.854658
0.817166 0.346273 0.85452
0.881025 0.360388 0.868513
0.243992 0.510231 0.855848
0.298558 0.484352 0.855817
0.358221 0.447517 0.855787
0.460258 0.41001 0.855726
0.594842 0.41622 0.855665
0.688014 0.423972 0.855573
0.760418 0.433326 0.855451
0.820508 0.444297 0.855314
0.890227 0.456886 0.872892
0.279652 0.627863 0.856916
0.329885 0.616861 0.856886
0.386542 0.60116 0.856855
0.462425 0.573037 0.856794
0.56524 0.535378 0.856718
0.67866 0.54168 0.856626
0.760235 0.549142 0.856519
0.825422 0.557717 0.856382
0.902632 0.567346 0.87776
0.320439 0.715862 0.858274
0.366964 0.710964 0.858244
0.420844 0.70428 0.858198
0.494591 0.69308 0.858152
0.577523 0.674678 0.858076
0.66215 0.64828 0.857984
0.759487 0.653635 0.857862
0.832609 0.659876 0.85774
0.918547 0.666987 0.881651
0.365911 0.788296 0.859907
0.409445 0.786618 0.859876
0.461021 0.78436 0.859846
0.531243 0.780697 0.859785
0.605173 0.77499 0.859709
0.679469 0.765972 0.859617
0.757397 0.752163 0.85951
0.843458 0.757382 0.859373
0.938369 0.763378 0.880354
0.416022 0.851255 0.861845
0.457313 0.851545 0.861814
0.507057 0.851926 0.861784
0.568933 0.852537 0.861723
0.635096 0.853483 0.861646
0.704494 0.854932 0.861555
0.778515 0.857267 0.861448
0.861311 0.861311 0.861311
0.962722 0.869459 0.861158
0.471031 0.967025 0.921798
0.510597 0.968338 0.921004
0.55404 0.970001 0.919814
0.607248 0.972412 0.91754
0.666957 0.975647 0.913344
0.732113 0.979767 0.905333
0.803952 0.984833 0.888869
0.896651 0.99089 0.863554
0.994583 0.998032 0.863401
0.333608 0.09897 0.988586
0.45095 0.106737 0.98854
0.557977 0.11574 0.988495
0.650813 0.127749 0.988434
0.728328 0.14226 0.988342
0.794415 0.158831 0.988235
0.851896 0.177066 0.988098
0.902739 0.196704 0.98793
0.948394 0.217533 0.987747
0.22533 0.209064 0.989105
0.381964 0.213092 0.989075
0.51429 0.218036 0.989029
0.628885 0.225071 0.988968
0.716716 0.234165 0.988876
0.788434 0.245258 0.988769
0.849287 0.258228 0.988632
0.902342 0.272969 0.988464
0.949493 0.289342 0.988281
0.234562 0.414145 0.989776
0.290471 0.327047 0.989746
0.438651 0.30547 0.9897
0.594156 0.310964 0.989624
0.699641 0.318166 0.989532
0.779934 0.327123 0.989425
0.845655 0.337789 0.989288
0.901747 0.350164 0.989136
0.950942 0.364187 0.988937
0.262409 0.591959 0.990753
0.314595 0.551583 0.990707
0.372625 0.479316 0.990662
0.517006 0.413581 0.9906
0.667582 0.419745 0.990509
0.765011 0.427482 0.990402
0.839429 0.436805 0.990265
0.900633 0.447745 0.990097
0.95314 0.460288 0.989914
0.296407 0.708537 0.99205
0.344976 0.690684 0.992004
0.400397 0.663874 0.991958
0.475349 0.610834 0.991897
0.601007 0.538262 0.991806
0.738308 0.544488 0.991699
0.828855 0.551888 0.991562
0.898604 0.560388 0.991394
0.956313 0.569924 0.991211
0.33579 0.796399 0.993683
0.381186 0.78735 0.993652
0.434195 0.774578 0.993606
0.507195 0.752178 0.99353
0.586877 0.711757 0.993454
0.684367 0.650294 0.993332
0.809979 0.655619 0.993194
0.89482 0.66183 0.993027
0.960845 0.66891 0.992844
0.380148 0.869108 0.995697
0.422965 0.864607 0.995651
0.47396 0.858457 0.995605
0.542229 0.848173 0.995544
0.613748 0.831296 0.995453
0.686549 0.802121 0.995331
0.771389 0.753811 0.995193
0.887282 0.759014 0.995041
0.967529 0.765011 0.994842
0.429435 0.93257 0.998077
0.470283 0.930831 0.998032
0.519112 0.928496 0.997986
0.578561 0.924681 0.997925
0.642969 0.9187 0.997833
0.711223 0.909133 0.997711
0.784649 0.892744 0.997574
0.870008 0.862913 0.997421
0.978317 0.868772 0.997223
0.483894 0.989181 0.999695
0.522484 0.989334 0.999695
0.564172 0.989548 0.999695
0.615778 0.989899 0.999695
0.674235 0.990433 0.999695
0.738552 0.991241 0.999695
0.81001 0.992569 0.999695
0.893111 0.994919 0.999695
0.999695 0.999695 0.999695
