proprietary/odm/etc/camera/filters_lut/p3_srgb_to_bt2020_hlg_3dlut_light.cube
TITLE "Generated by Resolve"
LUT_3D_SIZE 5
#LUT data points
0 0 0
0.247791 0.0610819 0
0.446097 0.110109 0
0.659175 0.176059 0
0.848661 0.285801 0
0.12781 0.279011 0.0368353
0.281086 0.286229 0.0355383
0.470115 0.31606 0.0329747
0.67274 0.375418 0.028397
0.859831 0.502556 0.020325
0.232944 0.510628 0.062623
0.357061 0.515755 0.0618601
0.516335 0.525124 0.0604105
0.697246 0.587228 0.0580301
0.881071 0.697017 0.0545357
0.383917 0.730358 0.0896773
0.497307 0.733104 0.0891432
0.628779 0.738262 0.0881361
0.739223 0.74641 0.0865034
0.915846 0.844068 0.084184
0.650278 0.960708 0.117769
0.721294 0.963653 0.117372
0.809506 0.969238 0.116594
0.899855 0.978271 0.115358
0.984558 0.991272 0.113603
0.0622416 0.0310063 0.285618
0.257664 0.0670787 0.28542
0.451896 0.105974 0.298116
0.66247 0.148852 0.321691
0.851331 0.194568 0.358083
0.138888 0.281392 0.28835
0.288167 0.288167 0.288167
0.475822 0.302922 0.287816
0.675929 0.333989 0.287251
0.862516 0.407202 0.286458
0.223621 0.512032 0.302876
0.348791 0.517128 0.293294
0.520348 0.526452 0.292943
0.700267 0.576989 0.292378
0.883803 0.672526 0.2916
0.330602 0.731106 0.301534
0.465248 0.733852 0.30135
0.620325 0.73901 0.300999
0.740749 0.747143 0.30045
0.918669 0.839185 0.299687
0.577447 0.961517 0.312566
0.680781 0.964446 0.312398
0.79118 0.970047 0.312062
0.894087 0.97911 0.311513
0.985611 0.992126 0.310765
0.112398 0.0526894 0.523919
0.292256 0.0795453 0.523781
0.473106 0.114382 0.523537
0.668589 0.155062 0.561273
0.856367 0.199496 0.64358
0.162768 0.300908 0.525795
0.303487 0.291814 0.525673
0.491142 0.304891 0.525429
0.68188 0.325017 0.554818
0.867582 0.351995 0.615946
0.240055 0.517067 0.529305
0.355215 0.520775 0.529183
0.528939 0.528939 0.528939
0.705928 0.546487 0.528557
0.88896 0.588922 0.528023
0.333547 0.732525 0.577203
0.432227 0.735256 0.560754
0.59762 0.740398 0.534447
0.743969 0.748531 0.534081
0.924041 0.824765 0.533547
0.442466 0.963027 0.639292
0.530434 0.965972 0.559899
0.736522 0.971588 0.541985
0.878798 0.980682 0.541619
0.987701 0.993744 0.541115
0.183001 0.0754253 0.745052
0.364263 0.0962234 0.744976
0.560021 0.126696 0.744854
0.702892 0.164553 0.744625
0.864439 0.207172 0.80235
0.195422 0.335744 0.74609
0.336873 0.297551 0.746029
0.556664 0.31046 0.745892
0.709026 0.330373 0.745678
0.875715 0.357092 0.803113
0.264607 0.578241 0.748043
0.37438 0.564462 0.747982
0.547295 0.53286 0.747845
0.722286 0.546761 0.747631
0.897231 0.565118 0.797787
0.353368 0.740551 0.751156
0.449775 0.741726 0.75108
0.597574 0.744427 0.750957
0.750744 0.750744 0.750744
0.932692 0.769116 0.750439
0.459861 0.965438 0.853025
0.544991 0.968414 0.843122
0.660578 0.974044 0.814664
0.828229 0.983185 0.755077
0.991485 0.996338 0.754788
0.333608 0.09897 0.988586
0.557977 0.11574 0.988495
0.728328 0.14226 0.988342
0.851896 0.177066 0.988098
0.948394 0.217533 0.987747
0.234562 0.414145 0.989776
0.438651 0.30547 0.9897
0.699641 0.318166 0.989532
0.845655 0.337789 0.989288
0.950942 0.364187 0.988937
0.296407 0.708537 0.99205
0.400397 0.663874 0.991958
0.601007 0.538262 0.991806
0.828855 0.551888 0.991562
0.956313 0.569924 0.991211
0.380148 0.869108 0.995697
0.47396 0.858457 0.995605
0.613748 0.831296 0.995453
0.771389 0.753811 0.995193
0.967529 0.765011 0.994842
0.483894 0.989181 0.999695
0.564172 0.989548 0.999695
0.674235 0.990433 0.999695
0.81001 0.992569 0.999695
0.999695 0.999695 0.999695
