proprietary/odm/etc/camera/filters_lut/p3_srgb_to_bt2020_hlg_3dlut_light.cube
TITLE "Generated by Resolve"
LUT_3D_SIZE 17
#LUT data points
0 0 0
0.122835 0.0302586 0
0.162692 0.0400854 0
0.204303 0.0503548 0
0.247791 0.0610819 0
0.29337 0.072343 0
0.341329 0.084184 0
0.392065 0.0967269 0
0.446097 0.110109 0
0.504051 0.124468 0
0.560037 0.140047 0
0.611093 0.157107 0
0.659175 0.176059 0
0.70573 0.197406 0
0.75198 0.221927 0
0.799146 0.250767 0
0.848661 0.285801 0
0.0631266 0.137545 0.0186465
0.138384 0.140917 0.0179904
0.174945 0.143999 0.0174868
0.214466 0.148104 0.0168154
0.256535 0.153231 0.0159457
0.301122 0.159442 0.0148165
0.348379 0.166781 0.0133822
0.398611 0.175357 0.01149
0.452308 0.18526 0.00888075
0.509896 0.196658 0.00434882
0.564782 0.209766 0
0.615106 0.224842 0
0.662699 0.242298 0
0.708919 0.262715 0
0.754971 0.286931 0
0.802014 0.316228 0
0.851514 0.352682 0
0.0836805 0.182422 0.024567
0.149599 0.185046 0.0240635
0.183597 0.186954 0.0236973
0.221683 0.190555 0.023209
0.262821 0.195224 0.0225834
0.306737 0.200946 0.0218051
0.353506 0.207797 0.0208438
0.403388 0.2159 0.0196841
0.45684 0.22536 0.0182803
0.514107 0.236378 0.0165713
0.568215 0.249195 0.0144198
0.618021 0.264134 0.0115969
0.665263 0.281621 0.00735485
0.711254 0.302281 0
0.757153 0.327047 0
0.80412 0.357305 0
0.85362 0.395331 0
0.105211 0.229496 0.0306249
0.163485 0.231662 0.0302434
0.195621 0.233249 0.0299382
0.231083 0.235294 0.0295567
0.270893 0.239612 0.0290684
0.313985 0.245182 0.0284733
0.360143 0.251896 0.0277409
0.409613 0.259876 0.0268864
0.462776 0.269291 0.025864
0.519524 0.280339 0.0246891
0.572656 0.293278 0.0233005
0.62182 0.308461 0.0216678
0.668605 0.326406 0.0197147
0.714305 0.347784 0.0173648
0.760006 0.373617 0.0143893
0.806882 0.405432 0.0102541
0.856382 0.445731 0
0.12781 0.279011 0.0368353
0.179904 0.280873 0.0364996
0.210178 0.282231 0.0362554
0.244251 0.284016 0.035935
0.281086 0.286229 0.0355383
0.322866 0.291463 0.03505
0.368353 0.298283 0.0344549
0.417304 0.306416 0.0337682
0.470115 0.31606 0.0329747
0.526116 0.327428 0.0320439
0.578088 0.340825 0.0309911
0.626474 0.356634 0.0297856
0.67274 0.375418 0.028397
0.718074 0.39794 0.0268101
0.763546 0.425315 0.0249943
0.810315 0.459251 0.022858
0.859831 0.502556 0.020325
0.151644 0.331319 0.0431373
0.198718 0.332967 0.0428626
0.227253 0.334188 0.042649
0.259968 0.335775 0.0423743
0.295811 0.337758 0.0420386
0.33402 0.340124 0.0416266
0.378103 0.346563 0.0411231
0.426505 0.355047 0.0405585
0.478935 0.365118 0.0398871
0.533837 0.37705 0.0391241
0.584527 0.391165 0.0382696
0.632029 0.407889 0.0372931
0.677668 0.427848 0.0361944
0.722591 0.451881 0.0349737
0.767803 0.481254 0.0335851
0.81445 0.517327 0.0320287
0.863996 0.558419 0.0302739
0.176898 0.386908 0.049546
0.219944 0.388418 0.0493019
0.246906 0.389548 0.0491188
0.27834 0.390997 0.0488899
0.313207 0.392813 0.0485847
0.350759 0.39501 0.0482338
0.390417 0.397574 0.0478065
0.437217 0.405493 0.047303
0.48925 0.41619 0.0467384
0.542641 0.42887 0.0460975
0.591913 0.443915 0.0453651
0.638437 0.461814 0.0445411
0.683406 0.483238 0.0436255
0.727855 0.50898 0.0426184
0.772778 0.538201 0.0414893
0.819318 0.571069 0.040238
0.86891 0.608713 0.0388495
0.203861 0.446448 0.0560311
0.243671 0.447883 0.0558175
0.269261 0.448936 0.0556649
0.299535 0.450309 0.0554513
0.333516 0.452018 0.0551919
0.370443 0.454078 0.0548867
0.409766 0.456504 0.0545052
0.451026 0.459281 0.054078
0.501076 0.469123 0.0535744
0.552468 0.482719 0.0530098
0.600229 0.498894 0.052369
0.645685 0.517601 0.051667
0.689937 0.538567 0.0508736
0.733883 0.562097 0.0500038
0.7785 0.588693 0.0490425
0.824918 0.619135 0.0479896
0.874586 0.654612 0.0468452
0.232944 0.510628 0.062623
0.270146 0.511955 0.0624247
0.294575 0.512917 0.0622873
0.323842 0.514183 0.062089
0.357061 0.515755 0.0618601
0.393484 0.517632 0.0615854
0.432532 0.519814 0.0612497
0.473747 0.522316 0.0608682
0.516335 0.525124 0.0604105
0.56321 0.53611 0.0599222
0.609415 0.551095 0.0593576
0.653773 0.568048 0.058732
0.697246 0.587228 0.0580301
0.740673 0.609033 0.0572824
0.78497 0.633997 0.0564431
0.831281 0.662898 0.0555276
0.881071 0.697017 0.0545357
0.264622 0.57145 0.069276
0.299794 0.572519 0.0690929
0.323278 0.573281 0.0689708
0.35172 0.574304 0.0688029
0.384314 0.575555 0.0685893
0.420371 0.57705 0.0683299
0.459281 0.57882 0.06804
0.500603 0.580835 0.067689
0.540856 0.583124 0.0672923
0.577523 0.585657 0.0668345
0.61944 0.596857 0.066331
0.662669 0.61268 0.0657816
0.705333 0.630747 0.065156
0.748211 0.651438 0.0644846
0.792218 0.675349 0.0637369
0.838422 0.703304 0.0629282
0.888411 0.736645 0.0620432
0.299611 0.626841 0.0760052
0.333242 0.627726 0.0758526
0.356008 0.628367 0.0757305
0.383825 0.629221 0.0755779
0.416007 0.630289 0.0753796
0.451865 0.631556 0.0751507
0.490822 0.633036 0.074876
0.530694 0.634745 0.0745556
0.567575 0.636683 0.0741894
0.60174 0.638849 0.0737926
0.633524 0.64123 0.0733349
0.672328 0.653056 0.0728161
0.714183 0.67039 0.0722667
0.756527 0.690379 0.0716564
0.800229 0.713634 0.070985
0.846387 0.74107 0.0702525
0.896605 0.774075 0.0694743
0.338903 0.679194 0.0828107
0.371435 0.679973 0.0826581
0.393713 0.680552 0.0825513
0.421164 0.6813 0.082414
0.453147 0.682216 0.0822309
0.489052 0.683345 0.0820172
0.52697 0.684642 0.0817731
0.562921 0.686152 0.0814832
0.596735 0.687861 0.0811475
0.62855 0.689769 0.080766
0.658518 0.69189 0.080354
0.686809 0.694209 0.079881
0.723781 0.707027 0.0793774
0.765591 0.726604 0.0788128
0.809018 0.749523 0.0782177
0.855177 0.77673 0.0775464
0.905745 0.809735 0.0768292
0.383917 0.730358 0.0896773
0.415824 0.73106 0.0895399
0.437858 0.731579 0.0894331
0.465217 0.73225 0.0893111
0.497307 0.733104 0.0891432
0.531701 0.734127 0.0889448
0.565316 0.735317 0.088716
0.597726 0.73669 0.0884413
0.628779 0.738262 0.0881361
0.658412 0.740017 0.0877852
0.686641 0.741955 0.0874037
0.713558 0.744091 0.0869764
0.739223 0.74641 0.0865034
0.775433 0.760693 0.0859998
0.818616 0.78349 0.0854353
0.864851 0.810742 0.0848249
0.915846 0.844068 0.084184
0.436881 0.781903 0.0966049
0.468635 0.782574 0.0964828
0.490745 0.783062 0.0963912
0.517754 0.783703 0.0962692
0.546807 0.784512 0.0961166
0.576638 0.785473 0.0959335
0.606485 0.786603 0.0957046
0.635828 0.787915 0.0954604
0.664408 0.789395 0.0951705
0.692042 0.791058 0.0948501
0.718669 0.79292 0.0944991
0.744274 0.794949 0.0941024
0.768902 0.797177 0.0936751
0.792569 0.799588 0.0931868
0.829053 0.815961 0.0926833
0.87541 0.843473 0.0921187
0.926986 0.877379 0.0915084
0.501381 0.835645 0.103593
0.531701 0.836301 0.103487
0.551186 0.836789 0.103395
0.573922 0.83743 0.103273
0.59884 0.838209 0.103136
0.62501 0.83917 0.102968
0.651698 0.840284 0.10277
0.678401 0.841581 0.102525
0.704784 0.843046 0.102266
0.730617 0.844694 0.101961
0.755779 0.846525 0.10164
0.780179 0.848554 0.101259
0.80383 0.850767 0.100862
0.826734 0.853178 0.10042
0.84889 0.855787 0.0999313
0.886946 0.875227 0.0994125
0.939269 0.910002 0.0988632
0.573434 0.893965 0.110658
0.598245 0.894636 0.110536
0.614588 0.89514 0.11046
0.634012 0.895796 0.110353
0.655711 0.89662 0.110216
0.67892 0.897597 0.110063
0.702983 0.898756 0.10988
0.727443 0.900099 0.109651
0.751919 0.901625 0.109407
0.77615 0.903349 0.109133
0.8 0.905272 0.108812
0.823362 0.907378 0.108461
0.846159 0.909697 0.108095
0.868391 0.91223 0.107668
0.890043 0.914977 0.107225
0.911147 0.917952 0.106737
0.952773 0.942245 0.106218
0.650278 0.960708 0.117769
0.671183 0.961471 0.117662
0.685206 0.96202 0.117586
0.702113 0.962737 0.117494
0.721294 0.963653 0.117372
0.742123 0.964736 0.11722
0.76405 0.966033 0.117037
0.786633 0.967529 0.116823
0.809506 0.969238 0.116594
0.832425 0.971145 0.116335
0.855192 0.973297 0.116045
0.877699 0.975662 0.115709
0.899855 0.978271 0.115358
0.92163 0.98114 0.114961
0.943008 0.984253 0.114549
0.963973 0.987625 0.114092
0.984558 0.991272 0.113603
0.0308537 0.0157015 0.140627
0.126909 0.0339208 0.140536
0.165698 0.0426184 0.140932
0.206775 0.0518654 0.14168
0.249912 0.0614786 0.142535
0.295247 0.071397 0.143389
0.343023 0.0815595 0.144183
0.393637 0.0919203 0.144762
0.447593 0.10248 0.144976
0.50547 0.113207 0.144549
0.561181 0.124086 0.143145
0.612055 0.135134 0.140215
0.660014 0.149722 0.138582
0.706493 0.167758 0.138262
0.752697 0.188495 0.137911
0.799832 0.21294 0.137514
0.849332 0.242664 0.137102
0.0698558 0.138521 0.141909
0.141817 0.141817 0.141817
0.177768 0.144259 0.141756
0.216846 0.147463 0.141665
0.258595 0.151492 0.141558
0.302953 0.15642 0.141436
0.350042 0.162295 0.141283
0.400168 0.169207 0.141115
0.453788 0.177279 0.140917
0.511269 0.186633 0.140688
0.565896 0.197482 0.140444
0.616053 0.210086 0.140185
0.663539 0.224781 0.139879
0.709682 0.2421 0.139559
0.755673 0.262791 0.139208
0.802701 0.287984 0.138827
0.852201 0.319524 0.138415
0.088304 0.183139 0.143374
0.152132 0.185748 0.142748
0.186206 0.187655 0.142687
0.224002 0.190646 0.142596
0.264851 0.194461 0.142489
0.308553 0.199161 0.142367
0.355154 0.204807 0.142214
0.404944 0.211521 0.142046
0.45832 0.219409 0.141848
0.515465 0.228687 0.141634
0.569329 0.239521 0.14139
0.618967 0.252247 0.141115
0.666102 0.267247 0.140826
0.712016 0.285084 0.140505
0.757855 0.306615 0.140154
0.804807 0.333104 0.139773
0.854307 0.366567 0.139376
0.107897 0.230091 0.144991
0.165011 0.232258 0.143954
0.197421 0.233829 0.143893
0.233188 0.235874 0.143816
0.272862 0.239612 0.143709
0.31577 0.244343 0.143587
0.361791 0.25005 0.143435
0.411154 0.256886 0.143267
0.46424 0.264958 0.143069
0.520851 0.274495 0.142855
0.573754 0.28571 0.142611
0.622751 0.29897 0.142351
0.669444 0.314717 0.142046
0.715053 0.333577 0.141726
0.760708 0.356481 0.14139
0.807568 0.384878 0.141009
0.857069 0.421042 0.140612
0.128359 0.279515 0.146395
0.180331 0.281376 0.145464
0.211048 0.28275 0.145403
0.245579 0.28452 0.145312
0.282841 0.286717 0.145205
0.32462 0.291432 0.145083
0.36997 0.297398 0.144945
0.41883 0.30454 0.144778
0.47158 0.313039 0.144579
0.527398 0.32311 0.144366
0.579171 0.335012 0.144121
0.627405 0.349126 0.143862
0.673564 0.365957 0.143572
0.718822 0.386252 0.143252
0.764248 0.411017 0.142916
0.811002 0.441886 0.142535
0.860517 0.481468 0.142138
0.149722 0.331762 0.147326
0.198016 0.333425 0.14725
0.227115 0.334646 0.147189
0.260395 0.336233 0.147097
0.296788 0.338201 0.147005
0.335531 0.340566 0.146883
0.379705 0.346487 0.146731
0.428016 0.354131 0.146563
0.4804 0.363226 0.14638
0.535088 0.374014 0.146166
0.58558 0.386816 0.145922
0.632929 0.40206 0.145663
0.678492 0.420294 0.145388
0.723323 0.442344 0.145068
0.768505 0.469398 0.144732
0.815137 0.503258 0.144366
0.864683 0.54342 0.143969
0.173648 0.38732 0.149416
0.218036 0.388846 0.149325
0.24567 0.38996 0.149264
0.277775 0.391409 0.149187
0.313298 0.393225 0.149081
0.351476 0.395422 0.148959
0.391745 0.397971 0.148821
0.438712 0.405432 0.148653
0.4907 0.415259 0.14847
0.543862 0.426947 0.148257
0.592935 0.440848 0.148028
0.639323 0.45742 0.147768
0.684199 0.477317 0.147478
0.728588 0.501457 0.147173
0.77348 0.529564 0.146838
0.819989 0.561395 0.146471
0.869596 0.598077 0.14609
0.199313 0.446845 0.151766
0.240543 0.448264 0.15169
0.266865 0.449317 0.151629
0.297902 0.45069 0.151553
0.332631 0.452415 0.151446
0.370291 0.454475 0.151339
0.410285 0.456886 0.151186
0.452201 0.459678 0.151034
0.502495 0.469062 0.150851
0.553643 0.481788 0.150637
0.601221 0.496941 0.150408
0.646571 0.514672 0.150149
0.690715 0.53463 0.149874
0.734615 0.557198 0.149569
0.779202 0.582849 0.149233
0.825605 0.612375 0.148882
0.875288 0.646952 0.148501
0.22707 0.510994 0.154421
0.265736 0.512322 0.154345
0.290959 0.513283 0.154284
0.32105 0.514549 0.154208
0.355093 0.516106 0.154101
0.392325 0.517983 0.153994
0.432151 0.520165 0.153841
0.474113 0.522652 0.153689
0.517327 0.52546 0.153506
0.56434 0.53608 0.153307
0.610376 0.550317 0.153079
0.654643 0.566491 0.152819
0.698024 0.584878 0.152544
0.74139 0.605875 0.152255
0.785672 0.63003 0.151934
0.831968 0.658152 0.151583
0.881773 0.691493 0.151202
0.257374 0.57174 0.157351
0.294011 0.572793 0.157259
0.318349 0.573571 0.157198
0.347677 0.574578 0.157122
0.381186 0.57583 0.157031
0.418128 0.57734 0.156924
0.457893 0.579095 0.156786
0.500038 0.581125 0.156619
0.541039 0.583398 0.156451
0.578256 0.585931 0.156252
0.620371 0.596872 0.156024
0.663508 0.61207 0.155779
0.706096 0.629465 0.155505
0.748928 0.6495 0.155215
0.792905 0.672724 0.154894
0.839109 0.700008 0.154543
0.889113 0.732692 0.154177
0.290883 0.627085 0.16054
0.325994 0.62797 0.160464
0.349645 0.628611 0.160403
0.378408 0.629465 0.160327
0.411566 0.630518 0.160235
0.448402 0.631785 0.160113
0.488304 0.63328 0.159991
0.529244 0.634989 0.159838
0.566995 0.636927 0.159655
0.601801 0.639078 0.159457
0.634104 0.641459 0.159243
0.673152 0.653101 0.158999
0.714931 0.669886 0.15874
0.757229 0.689326 0.15845
0.800916 0.712016 0.158129
0.847074 0.738872 0.157794
0.897322 0.771298 0.157427
0.328557 0.679408 0.163989
0.362585 0.680186 0.163912
0.385763 0.680766 0.163867
0.414221 0.681498 0.16379
0.447257 0.682429 0.163699
0.484215 0.683543 0.163577
0.523491 0.684855 0.163455
0.560678 0.686366 0.163302
0.595422 0.688075 0.163134
0.62797 0.689982 0.162936
0.658518 0.692088 0.162722
0.687266 0.694408 0.162478
0.724529 0.707118 0.162219
0.766293 0.726223 0.161944
0.809705 0.748653 0.161639
0.855863 0.775372 0.161303
0.906447 0.807889 0.160952
0.371756 0.730541 0.167697
0.405173 0.731258 0.16762
0.428153 0.731777 0.167575
0.45655 0.732448 0.167498
0.489769 0.733303 0.167407
0.525933 0.73431 0.1673
0.56109 0.735515 0.167163
0.594751 0.736889 0.167025
0.62678 0.738445 0.166857
0.657206 0.7402 0.166659
0.686076 0.742138 0.166461
0.713512 0.744274 0.166217
0.739605 0.746609 0.165972
0.776135 0.76083 0.165682
0.819303 0.783215 0.165393
0.865538 0.81004 0.165072
0.916564 0.842954 0.164721
0.422599 0.782086 0.171649
0.455894 0.782757 0.171572
0.478981 0.783246 0.171527
0.507591 0.783886 0.17145
0.538689 0.784695 0.171359
0.570291 0.785657 0.171252
0.601617 0.786786 0.17113
0.632197 0.788098 0.170993
0.661784 0.789578 0.170825
0.690242 0.791241 0.170642
0.717556 0.793088 0.170428
0.74374 0.795132 0.170199
0.768826 0.79736 0.169955
0.792889 0.799771 0.16968
0.82974 0.816144 0.16939
0.876112 0.843305 0.16907
0.927733 0.87686 0.168734
0.48455 0.835828 0.17583
0.517754 0.836484 0.175769
0.539071 0.836973 0.175708
0.563699 0.837598 0.175647
0.590387 0.838392 0.175555
0.618158 0.839338 0.175448
0.646265 0.840467 0.175326
0.674174 0.841749 0.175189
0.701579 0.843229 0.175021
0.728267 0.844877 0.174838
0.754131 0.846708 0.17464
0.779156 0.848737 0.174426
0.803311 0.85095 0.174182
0.826642 0.853361 0.173907
0.84918 0.85597 0.173617
0.887648 0.875502 0.173312
0.940017 0.909972 0.172976
0.557488 0.894148 0.18024
0.584863 0.894835 0.180179
0.602701 0.895323 0.180117
0.623713 0.895979 0.180056
0.646983 0.896803 0.179965
0.671656 0.897795 0.179873
0.697047 0.898955 0.179751
0.722667 0.900298 0.179614
0.748165 0.901823 0.179446
0.773266 0.903532 0.179278
0.797864 0.905455 0.17908
0.821851 0.907561 0.178866
0.845212 0.909895 0.178622
0.867903 0.912428 0.178363
0.889967 0.915175 0.178073
0.911421 0.918135 0.177783
0.953552 0.942626 0.177447
0.635233 0.960922 0.184863
0.658213 0.961669 0.184802
0.673472 0.962219 0.184756
0.691768 0.962951 0.18468
0.712337 0.963851 0.184604
0.734508 0.96495 0.184497
0.757687 0.966247 0.18439
0.781399 0.967742 0.184253
0.805264 0.969436 0.1841
0.829053 0.971359 0.183917
0.852598 0.97351 0.183734
0.875761 0.975875 0.18352
0.898497 0.978485 0.183276
0.920775 0.981353 0.183032
0.942565 0.984466 0.182757
0.963912 0.987839 0.182452
0.984817 0.991501 0.182132
0.0408637 0.020676 0.186557
0.130495 0.0364996 0.186496
0.168353 0.0446937 0.18645
0.208576 0.0535897 0.187076
0.251453 0.0629435 0.188449
0.296605 0.0726635 0.190036
0.344274 0.0826734 0.191775
0.394797 0.0929274 0.193591
0.448676 0.10338 0.195407
0.506508 0.114015 0.197101
0.56202 0.124849 0.19852
0.612757 0.135821 0.19939
0.660639 0.146975 0.199405
0.707057 0.158267 0.198001
0.753231 0.169726 0.194308
0.800351 0.181323 0.18674
0.849851 0.203571 0.183856
0.0746777 0.139879 0.187549
0.14435 0.142473 0.187488
0.179889 0.144884 0.187442
0.21857 0.147967 0.187778
0.260105 0.151736 0.188251
0.304295 0.156176 0.188693
0.351278 0.161257 0.189029
0.401312 0.166934 0.189136
0.454871 0.17319 0.188861
0.512291 0.179995 0.187976
0.56672 0.187518 0.186419
0.616754 0.198016 0.186221
0.664149 0.210376 0.185992
0.710246 0.22504 0.185733
0.756207 0.242679 0.185458
0.803204 0.264332 0.185168
0.852705 0.291615 0.184863
0.092195 0.18378 0.188281
0.154391 0.186282 0.18822
0.188159 0.188159 0.188159
0.225681 0.190646 0.188098
0.266331 0.193805 0.188022
0.30988 0.197711 0.187915
0.356374 0.202426 0.187808
0.406088 0.208042 0.187671
0.459403 0.21471 0.187518
0.516457 0.222568 0.18735
0.570138 0.231815 0.187152
0.619669 0.242725 0.186954
0.666712 0.25568 0.186725
0.712581 0.271183 0.186465
0.758373 0.290013 0.186191
0.80531 0.313298 0.185901
0.85481 0.342931 0.185595
0.111131 0.230533 0.190219
0.166735 0.232685 0.189517
0.198764 0.234257 0.189105
0.23476 0.236301 0.189044
0.274311 0.239567 0.188968
0.317082 0.243641 0.188861
0.362997 0.248585 0.188754
0.412284 0.25452 0.188617
0.465324 0.261555 0.188464
0.521813 0.269902 0.188296
0.574548 0.279774 0.188113
0.623438 0.291478 0.1879
0.670054 0.30544 0.187671
0.715602 0.322255 0.187427
0.761227 0.342779 0.187152
0.808072 0.368353 0.186862
0.857572 0.401114 0.186557
0.131106 0.279896 0.19234
0.181048 0.281758 0.190692
0.211704 0.283116 0.19028
0.246555 0.284886 0.190219
0.284169 0.287083 0.190143
0.325902 0.291341 0.190051
0.37116 0.296666 0.189929
0.419959 0.303059 0.189792
0.472663 0.310689 0.189654
0.528359 0.319722 0.189471
0.57995 0.330465 0.189288
0.628077 0.343236 0.18909
0.674159 0.358541 0.188861
0.719371 0.377035 0.188602
0.764767 0.399725 0.188342
0.811505 0.428107 0.188052
0.861021 0.464668 0.187747
0.151934 0.332097 0.194217
0.197452 0.333761 0.191745
0.226993 0.334966 0.191699
0.260716 0.336553 0.191638
0.297505 0.338537 0.191546
0.33666 0.340902 0.191455
0.38088 0.346395 0.191348
0.429129 0.353384 0.191211
0.481468 0.361715 0.191058
0.536019 0.371633 0.19089
0.586343 0.383429 0.190707
0.6336 0.397513 0.190494
0.679088 0.414405 0.19028
0.723873 0.434897 0.190036
0.769024 0.460121 0.189761
0.815641 0.491798 0.189471
0.865202 0.531014 0.189166
0.17348 0.387625 0.195407
0.216571 0.389151 0.193393
0.244724 0.390265 0.193347
0.277333 0.391714 0.193286
0.313359 0.39353 0.193194
0.35201 0.395712 0.193103
0.392737 0.398276 0.192996
0.439811 0.405341 0.192859
0.491753 0.414511 0.192706
0.544762 0.425437 0.192538
0.593683 0.438453 0.192355
0.639979 0.454002 0.192157
0.684794 0.472724 0.191928
0.729137 0.495491 0.191684
0.773999 0.522652 0.191424
0.820493 0.553597 0.191135
0.8701 0.589456 0.190829
0.195758 0.447135 0.195346
0.238117 0.448554 0.19527
0.265034 0.449607 0.195224
0.296635 0.45098 0.195163
0.331945 0.452689 0.195087
0.370153 0.454749 0.194995
0.410666 0.457176 0.194873
0.453086 0.459953 0.194751
0.503548 0.468971 0.194598
0.554498 0.481025 0.19443
0.601953 0.495415 0.194247
0.647211 0.512352 0.194049
0.691295 0.531548 0.19382
0.735149 0.553338 0.193591
0.779706 0.578225 0.193317
0.826093 0.606989 0.193042
0.875792 0.640848 0.192737
0.222477 0.511254 0.197467
0.262303 0.512581 0.197391
0.288167 0.513542 0.197345
0.318914 0.514809 0.197284
0.353597 0.516365 0.197208
0.39144 0.518242 0.197116
0.431846 0.520424 0.197009
0.474372 0.522911 0.196872
0.518074 0.525719 0.196735
0.565179 0.536034 0.196567
0.611093 0.549691 0.196384
0.655268 0.565255 0.196185
0.698589 0.583032 0.195956
0.741924 0.603403 0.195727
0.786175 0.626917 0.195468
0.832471 0.654398 0.195178
0.882292 0.687114 0.194888
0.251698 0.571954 0.199817
0.289525 0.573007 0.199756
0.314519 0.573785 0.19971
0.344564 0.574792 0.199649
0.378775 0.576043 0.199573
0.416388 0.577554 0.199481
0.456825 0.579309 0.199374
0.499596 0.581323 0.199237
0.541176 0.583597 0.1991
0.57882 0.58613 0.198932
0.621073 0.596857 0.198749
0.664118 0.611566 0.19855
0.706661 0.628473 0.198337
0.749462 0.647974 0.198108
0.793408 0.67068 0.197848
0.839612 0.697429 0.197574
0.889632 0.72958 0.197269
0.284047 0.627253 0.202411
0.320363 0.628138 0.20235
0.344701 0.628794 0.202304
0.374228 0.629648 0.202243
0.408148 0.630701 0.202167
0.445731 0.631968 0.202075
0.486366 0.633448 0.201968
0.52813 0.635157 0.201846
0.566537 0.637095 0.201694
0.601846 0.639246 0.201541
0.634531 0.641627 0.201358
0.673747 0.653117 0.20116
0.71548 0.66949 0.200946
0.757763 0.688487 0.200717
0.801419 0.710735 0.200458
0.847578 0.737148 0.200183
0.897841 0.769131 0.199893
0.320439 0.679576 0.205249
0.355703 0.680339 0.205188
0.379599 0.680919 0.205142
0.40885 0.681666 0.205081
0.44271 0.682582 0.205005
0.480491 0.683711 0.204913
0.52079 0.685008 0.204807
0.558923 0.686519 0.204685
0.594415 0.688228 0.204532
0.627512 0.690135 0.204379
0.658503 0.692241 0.204196
0.687602 0.69456 0.204013
0.725063 0.707164 0.2038
0.766812 0.725902 0.203571
0.810208 0.747967 0.203311
0.856367 0.774304 0.203037
0.906981 0.806455 0.202747
0.362203 0.730694 0.208301
0.396857 0.731395 0.20824
0.420584 0.731914 0.208194
0.449836 0.732586 0.208133
0.48394 0.73344 0.208057
0.521401 0.734462 0.207965
0.557809 0.735653 0.207858
0.592447 0.737026 0.207736
0.625238 0.738582 0.207599
0.656275 0.740337 0.207446
0.685649 0.742275 0.207279
0.713466 0.744411 0.20708
0.739895 0.746746 0.206867
0.776638 0.760906 0.206638
0.819806 0.782986 0.206394
0.866041 0.809491 0.206134
0.917098 0.842069 0.205844
0.411383 0.782223 0.211582
0.445945 0.782895 0.211521
0.469825 0.783383 0.211475
0.499428 0.784024 0.211429
0.53225 0.784833 0.211353
0.565301 0.785794 0.211261
0.597818 0.786923 0.211154
0.629374 0.788235 0.211032
0.659739 0.789715 0.210895
0.688853 0.791379 0.210742
0.716701 0.793225 0.210575
0.743313 0.79527 0.210376
0.768765 0.797482 0.210178
0.793133 0.799908 0.209949
0.830228 0.816281 0.209705
0.876616 0.843153 0.209445
0.928267 0.876448 0.209155
0.471321 0.835966 0.215091
0.506355 0.836622 0.21503
0.529259 0.83711 0.214984
0.555474 0.837736 0.214923
0.583673 0.838529 0.214862
0.612772 0.839475 0.214771
0.642008 0.840589 0.214664
0.670878 0.841886 0.214542
0.699077 0.843351 0.21442
0.726436 0.844999 0.214267
0.752865 0.846845 0.214084
0.778363 0.848859 0.213901
0.802915 0.851072 0.213703
0.826581 0.853498 0.213474
0.849393 0.856107 0.21323
0.888167 0.875685 0.21297
0.940581 0.909941 0.212696
0.544289 0.894286 0.218814
0.573953 0.894972 0.218753
0.593072 0.89546 0.218708
0.615442 0.896117 0.218662
0.640024 0.896941 0.218585
0.665919 0.897917 0.218494
0.692393 0.899092 0.218402
0.718944 0.900435 0.21828
0.745235 0.901961 0.218143
0.771038 0.90367 0.21799
0.796216 0.905592 0.217823
0.820706 0.907713 0.217639
0.844465 0.910033 0.217441
0.867536 0.912566 0.217227
0.889906 0.915312 0.216983
0.91162 0.918288 0.216724
0.954116 0.942901 0.216449
0.622843 0.961074 0.222751
0.647639 0.961822 0.22269
0.663996 0.962371 0.222644
0.683436 0.963104 0.222583
0.705196 0.964004 0.222522
0.728481 0.965103 0.222431
0.752667 0.9664 0.222339
0.777279 0.967895 0.222217
0.801953 0.969589 0.22208
0.826444 0.971511 0.221942
0.850584 0.973663 0.221775
0.874266 0.976028 0.221592
0.897444 0.978653 0.221393
0.920104 0.981506 0.22118
0.942229 0.984619 0.220951
0.963867 0.988006 0.220691
0.985016 0.991653 0.220417
0.0513161 0.0257877 0.234806
0.135164 0.0396124 0.234745
0.17258 0.0472877 0.234714
0.211872 0.0557717 0.234653
0.253468 0.0648203 0.235492
0.29839 0.0742962 0.237736
0.345892 0.084123 0.240314
0.396307 0.0942092 0.243214
0.450111 0.10454 0.246387
0.507851 0.115084 0.249821
0.563119 0.125811 0.253437
0.613687 0.136736 0.257176
0.661448 0.147814 0.260899
0.707805 0.15906 0.264485
0.753918 0.170459 0.267659
0.801007 0.182025 0.270024
0.850507 0.193744 0.270893
0.0805676 0.141588 0.23563
0.147677 0.143343 0.235569
0.183139 0.145724 0.235523
0.221195 0.148806 0.235477
0.262074 0.15256 0.236225
0.30605 0.15697 0.237583
0.35288 0.16202 0.239063
0.402808 0.167681 0.24065
0.456291 0.173922 0.242237
0.513603 0.180682 0.243748
0.567803 0.187961 0.245029
0.61767 0.195697 0.245899
