proprietary/odm/etc/camera/filters_lut/p3_to_bt2020_3dlut_light.cube
TITLE "1943421768400"
LUT_3D_SIZE 5
#LUT data points
0.0000000 0.0000000 0.0000000
0.2195470 0.0540809 0.0000000
0.4392096 0.1081943 0.0000000
0.6982594 0.1929437 0.0000000
0.9522700 0.3747160 0.0000000
0.1112202 0.2421910 0.0331121
0.2444678 0.2488873 0.0320581
0.4510252 0.2667825 0.0283929
0.7014577 0.3115078 0.0109571
0.9530172 0.4476627 0.0000000
0.2224966 0.4845215 0.0662358
0.3109905 0.4879718 0.0657368
0.4889788 0.4978016 0.0641395
0.7118580 0.5231280 0.0589480
0.9553561 0.5973834 0.0278222
0.3967976 0.7375140 0.1181306
0.4523516 0.7384135 0.1178538
0.5769929 0.7410460 0.1169985
0.7411878 0.7482540 0.1143841
0.9626605 0.7734841 0.1024229
0.6917830 0.9883880 0.2294040
0.7072273 0.9886168 0.2292670
0.7468766 0.9892730 0.2288359
0.8285678 0.9911558 0.2275699
0.9917300 0.9983520 0.2221560
0.0532235 0.0272555 0.2420051
0.2246302 0.0605594 0.2486697
0.4416256 0.1115642 0.2495785
0.6989465 0.1948553 0.2486203
0.9524350 0.3756981 0.2432050
0.1236003 0.2432963 0.2492114
0.2500632 0.2500103 0.2499912
0.4538085 0.2679372 0.2507528
0.7021974 0.3125952 0.2503263
0.9531835 0.4484679 0.2453417
0.2289429 0.4850533 0.2560984
0.3155688 0.4885142 0.2562338
0.4917855 0.4983484 0.2564172
0.7126369 0.5236544 0.2560571
0.9555420 0.5977834 0.2516944
0.4004487 0.7376517 0.2742544
0.4555448 0.7385501 0.2742178
0.5788430 0.7411796 0.2740701
0.7419068 0.7483908 0.2734526
0.9628542 0.7736187 0.2696211
0.6927779 0.9884211 0.3375299
0.7081389 0.9886467 0.3374509
0.7476018 0.9893063 0.3372098
0.8290232 0.9911878 0.3364872
0.9919001 0.9983859 0.3332750
0.1064701 0.0545321 0.4841283
0.2411723 0.0767791 0.4922359
0.4493420 0.1211190 0.4974102
0.7010652 0.2004810 0.4991640
0.9529298 0.3786411 0.4974941
0.1546905 0.2469492 0.4930379
0.2662232 0.2536030 0.4949184
0.4622076 0.2714806 0.4975930
0.7044419 0.3158604 0.4994232
0.9536942 0.4508701 0.4982873
0.2472239 0.4867188 0.4984601
0.3289018 0.4901776 0.4989499
0.5000844 0.5000195 0.4999994
0.7149698 0.5252433 0.5013126
0.9560789 0.5989513 0.5008095
0.4111952 0.7380661 0.5084082
0.4649781 0.7389642 0.5085177
0.5842772 0.7415927 0.5087898
0.7440387 0.7488037 0.5092434
0.9634227 0.7740137 0.5087956
0.6957239 0.9885212 0.5421719
0.7108368 0.9887442 0.5421569
0.7497614 0.9894063 0.5421109
0.8303816 0.9912899 0.5419473
0.9924317 0.9984892 0.5409320
0.1898739 0.0972471 0.7371940
0.2868093 0.1112596 0.7402814
0.4732967 0.1454154 0.7445717
0.7074743 0.2160099 0.7479310
0.9544117 0.3870747 0.7493551
0.2210242 0.2585784 0.7413912
0.3087828 0.2648328 0.7427574
0.4865975 0.2820659 0.7452358
0.7110526 0.3253139 0.7479018
0.9552055 0.4578045 0.7494246
0.2937605 0.4919189 0.7450476
0.3648364 0.4953441 0.7454979
0.5227475 0.5050900 0.7465345
0.7216745 0.5299132 0.7481926
0.9576584 0.6023361 0.7497232
0.4408988 0.7393079 0.7487770
0.4913223 0.7402045 0.7489077
0.5991840 0.7428256 0.7492584
0.7500973 0.7500253 0.7500062
0.9650714 0.7751686 0.7511635
0.7040196 0.9888181 0.7586961
0.7184681 0.9890434 0.7587201
0.7558990 0.9897009 0.7587816
0.8342806 0.9915847 0.7589248
0.9939572 0.9987820 0.7592303
0.3687340 0.1888610 0.9880980
0.4263829 0.1964378 0.9890011
0.5596362 0.2175825 0.9910926
0.7337276 0.2698676 0.9944000
0.9606620 0.4194550 0.9980770
0.3859514 0.3041249 0.9895932
0.4415548 0.3091840 0.9902653
0.5689585 0.3237243 0.9918846
0.7372223 0.3620342 0.9946488
0.9615320 0.4849559 0.9980620
0.4325484 0.5146825 0.9921262
0.4831444 0.5177146 0.9924832
0.5936389 0.5263786 0.9934129
0.7471474 0.5487180 0.9952412
0.9641298 0.6155949 0.9980508
0.5409019 0.7447128 0.9949649
0.5746590 0.7455832 0.9950997
0.6491889 0.7481376 0.9954734
0.7727955 0.7551864 0.9963585
0.9716756 0.7798988 0.9982328
0.7340200 0.9900510 0.9988560
0.7462846 0.9902678 0.9988860
0.7787142 0.9909322 0.9989818
0.8491951 0.9928130 0.9992372
1.0000000 1.0000000 1.0000000
