proprietary/odm/etc/camera/filters_lut/p3_to_bt2020_3dlut_light.cube
TITLE "1943421768400"
LUT_3D_SIZE 17
#LUT data points
0.0000000 0.0000000 0.0000000
0.0548723 0.0135186 0.0000000
0.1097714 0.0270407 0.0000000
0.1646600 0.0405608 0.0000000
0.2195470 0.0540809 0.0000000
0.2744373 0.0676008 0.0000000
0.3293314 0.0811286 0.0000000
0.3842220 0.0946479 0.0000000
0.4392096 0.1081943 0.0000000
0.5006100 0.1233500 0.0000000
0.5677203 0.1420776 0.0000000
0.6334922 0.1650283 0.0000000
0.6982594 0.1929437 0.0000000
0.7623385 0.2267239 0.0000000
0.8259400 0.2673956 0.0000000
0.8892190 0.3162324 0.0000000
0.9522700 0.3747160 0.0000000
0.0278010 0.0605325 0.0082712
0.0611760 0.0622311 0.0080073
0.1127539 0.0667178 0.0070736
0.1665578 0.0733781 0.0050212
0.2209320 0.0817088 0.0005901
0.2755291 0.0912578 0.0000111
0.3302275 0.1017039 0.0000000
0.3849872 0.1127980 0.0000000
0.4398746 0.1243961 0.0000000
0.5011762 0.1377863 0.0000000
0.5681239 0.1547872 0.0000000
0.6337610 0.1760916 0.0000000
0.6984470 0.2024974 0.0000000
0.7624739 0.2349017 0.0000000
0.8260423 0.2743701 0.0000000
0.8892824 0.3221485 0.0000000
0.9523151 0.3797255 0.0000000
0.0556056 0.1210960 0.0165560
0.0778215 0.1219603 0.0164306
0.1222686 0.1244450 0.0160293
0.1728225 0.1283147 0.0152968
0.2254735 0.1334057 0.0141853
0.2790553 0.1395693 0.0125744
0.3330973 0.1466916 0.0102089
0.3873983 0.1546482 0.0063096
0.4419527 0.1633377 0.0007441
0.5029499 0.1737948 0.0000000
0.5693448 0.1875861 0.0000000
0.6346020 0.2055489 0.0000000
0.6990287 0.2285930 0.0000000
0.7628752 0.2577514 0.0000000
0.8263191 0.2941747 0.0000000
0.8894804 0.3391760 0.0000000
0.9524530 0.3942764 0.0000000
0.0834082 0.1816430 0.0248288
0.0996034 0.1822276 0.0247491
0.1370696 0.1839400 0.0244905
0.1833717 0.1866649 0.0240439
0.2334233 0.1903184 0.0233736
0.2853112 0.1948135 0.0224703
0.3382000 0.2000863 0.0212879
0.3916816 0.2060841 0.0197823
0.4456363 0.2127564 0.0178664
0.5060382 0.2209489 0.0150279
0.5714632 0.2320130 0.0092153
0.6360523 0.2468095 0.0007098
0.7000218 0.2663534 0.0000000
0.7635615 0.2917939 0.0000000
0.8267968 0.3244480 0.0000000
0.8898169 0.3657513 0.0000000
0.9526843 0.4173724 0.0000000
0.1112202 0.2421910 0.0331121
0.1238246 0.2426367 0.0330508
0.1555269 0.2439350 0.0328626
0.1974413 0.2460336 0.0325308
0.2444678 0.2488873 0.0320581
0.2942386 0.2524231 0.0314267
0.3455959 0.2566095 0.0306139
0.3979399 0.2614051 0.0296105
0.4510252 0.2667825 0.0283929
0.5105250 0.2734377 0.0267392
0.5745371 0.2825432 0.0241804
0.6381404 0.2948942 0.0199532
0.7014577 0.3115078 0.0109571
0.7645433 0.3335819 0.0001237
0.8274792 0.3625277 0.0000000
0.8902872 0.3999551 0.0000000
0.9530172 0.4476627 0.0000000
0.1390250 0.3027540 0.0413858
0.1493068 0.3031071 0.0413365
0.1764739 0.3041477 0.0411867
0.2142748 0.3058513 0.0409353
0.2581509 0.3081843 0.0405658
0.3055708 0.3111024 0.0400769
0.3551519 0.3145795 0.0394590
0.4061260 0.3185737 0.0387025
0.4581322 0.3230778 0.0377967
0.5163911 0.3286850 0.0365905
0.5785724 0.3363808 0.0347940
0.6409066 0.3469183 0.0320498
0.7033516 0.3612343 0.0276462
0.7658436 0.3805153 0.0196394
0.8283710 0.4061997 0.0017795
0.8909021 0.4399810 0.0000000
0.9534450 0.4837895 0.0000000
0.1668306 0.3633020 0.0496681
0.1754931 0.3635945 0.0496257
0.1991139 0.3644662 0.0495002
0.2332416 0.3659013 0.0492897
0.2740381 0.3678754 0.0489908
0.3190123 0.3703574 0.0485938
0.3666687 0.3733239 0.0480936
0.4161134 0.3767532 0.0474851
0.4668942 0.3806276 0.0467643
0.5235346 0.3854662 0.0458098
0.5835438 0.3921399 0.0444161
0.6443474 0.4013132 0.0423224
0.7057146 0.4138567 0.0391350
0.7674745 0.4308858 0.0340639
0.8294883 0.4538151 0.0250503
0.8916767 0.4843572 0.0026829
0.9539673 0.5234281 0.0000000
0.1946403 0.4238500 0.0579423
0.2021097 0.4241073 0.0579080
0.2229242 0.4248591 0.0578011
0.2538561 0.4260959 0.0576225
0.2917489 0.4277979 0.0573710
0.3342875 0.4299584 0.0570365
0.3799490 0.4325452 0.0566128
0.4277725 0.4355440 0.0561074
0.4772075 0.4389461 0.0555084
0.5317798 0.4432052 0.0547236
0.5893823 0.4491003 0.0535750
0.6484387 0.4572209 0.0518775
0.7085560 0.4683703 0.0493393
0.7694302 0.4835914 0.0454603
0.8308408 0.5040748 0.0392432
0.8925973 0.5301642 0.0280514
0.9546080 0.5615700 0.0000000
0.2224966 0.4845215 0.0662358
0.2290613 0.4847375 0.0662087
0.2476186 0.4853942 0.0661172
0.2757802 0.4864787 0.0659600
0.3109905 0.4879718 0.0657368
0.3511630 0.4898730 0.0654453
0.3948215 0.4921554 0.0650886
0.4409579 0.4947996 0.0646527
0.4889788 0.4978016 0.0641395
0.5409843 0.5015545 0.0634702
0.5960112 0.5067110 0.0624919
0.6531423 0.5137180 0.0610652
0.7118580 0.5231280 0.0589480
0.7717252 0.5355328 0.0557686
0.8324208 0.5516064 0.0508719
0.8936950 0.5720405 0.0429159
0.9553561 0.5973834 0.0278222
0.2536735 0.5478523 0.0755208
0.2594472 0.5480098 0.0754938
0.2759719 0.5484988 0.0754105
0.3014908 0.5493076 0.0752748
0.3339832 0.5504217 0.0750813
0.3716508 0.5518284 0.0748307
0.4131064 0.5535189 0.0745174
0.4573395 0.5554806 0.0741426
0.5035994 0.5577012 0.0737039
0.5521973 0.5604647 0.0731260
0.6042391 0.5642690 0.0722918
0.6590709 0.5694557 0.0710737
0.7160636 0.5764701 0.0692849
0.7746753 0.5858405 0.0666293
0.8344719 0.5981986 0.0626226
0.8951073 0.6142301 0.0563911
0.9563365 0.6346225 0.0460479
0.2921729 0.6113337 0.0869823
0.2972093 0.6114532 0.0869590
0.3117363 0.6117931 0.0868898
0.3345378 0.6123599 0.0867711
0.3640860 0.6131416 0.0866037
0.3988931 0.6141430 0.0863900
0.4377349 0.6153462 0.0861188
0.4796503 0.6167503 0.0858004
0.5229106 0.6183412 0.0854229
0.5670532 0.6203349 0.0849337
0.6153825 0.6231007 0.0842292
0.6672535 0.6268931 0.0831988
0.7219609 0.6320745 0.0816968
0.7788579 0.6390620 0.0794812
0.8373986 0.6484157 0.0761934
0.8971417 0.6607390 0.0712019
0.9577432 0.6767458 0.0633853
0.3393754 0.6745252 0.1010392
0.3437128 0.6746108 0.1010127
0.3563538 0.6748474 0.1009523
0.3764640 0.6752487 0.1008557
0.4029388 0.6758048 0.1007094
0.4346267 0.6765095 0.1005240
0.4705003 0.6773655 0.1002945
0.5093865 0.6783622 0.1000204
0.5472561 0.6795046 0.0997013
0.5863017 0.6809393 0.0992863
0.6301873 0.6829332 0.0986958
0.6783610 0.6856934 0.0978310
0.7301125 0.6894844 0.0965779
0.7847312 0.6946504 0.0947433
0.8415587 0.7016290 0.0920287
0.9000559 0.7109576 0.0879906
0.9597568 0.7232668 0.0818489
0.3967976 0.7375140 0.1181306
0.4005086 0.7375725 0.1181141
0.4114092 0.7377411 0.1180594
0.4289426 0.7380203 0.1179761
0.4523516 0.7384135 0.1178538
0.4807883 0.7389158 0.1176916
0.5129601 0.7395190 0.1175010
0.5455047 0.7402287 0.1172657
0.5769929 0.7410460 0.1169985
0.6105436 0.7420710 0.1166507
0.6493724 0.7435052 0.1161487
0.6931265 0.7454984 0.1154284
0.7411878 0.7482540 0.1143841
0.7928605 0.7520408 0.1128631
0.8474170 0.7572019 0.1106308
0.9041997 0.7641725 0.1073367
0.9626605 0.7734841 0.1024229
0.4662517 0.8003637 0.1388061
0.4694205 0.8003954 0.1387896
0.4787478 0.8005187 0.1387470
0.4938570 0.8007154 0.1386716
0.5138320 0.8009919 0.1385730
0.5368359 0.8013452 0.1384366
0.5614582 0.8017742 0.1382732
0.5867723 0.8022754 0.1380782
0.6121891 0.8028557 0.1378459
0.6401625 0.8035888 0.1375557
0.6735411 0.8046158 0.1371387
0.7122660 0.8060515 0.1365392
0.7559217 0.8080420 0.1356697
0.8039176 0.8107961 0.1344064
0.8555293 0.8145792 0.1325730
0.9100465 0.8197373 0.1298744
0.9667976 0.8266942 0.1258939
0.5458001 0.8630960 0.1637037
0.5480787 0.8631270 0.1637011
0.5547209 0.8632166 0.1636563
0.5652539 0.8633538 0.1635954
0.5790307 0.8635431 0.1635075
0.5953154 0.8637945 0.1633971
0.6133900 0.8640985 0.1632565
0.6326437 0.8644559 0.1630936
0.6526018 0.8648665 0.1629055
0.6752408 0.8653866 0.1626613
0.7030865 0.8661222 0.1623072
0.7363844 0.8671486 0.1618026
0.7750255 0.8685830 0.1610785
0.8186281 0.8705735 0.1600370
0.8665662 0.8733306 0.1585225
0.9181363 0.8771045 0.1563138
0.9726252 0.8822579 0.1530803
0.6209046 0.9257659 0.1935987
0.6224099 0.9257933 0.1935969
0.6268170 0.9258435 0.1935652
0.6339221 0.9259478 0.1935060
0.6434173 0.9260847 0.1934332
0.6549245 0.9262570 0.1933391
0.6680510 0.9264710 0.1932208
0.6824256 0.9267296 0.1930831
0.6977230 0.9270165 0.1929263
0.7155442 0.9273865 0.1927137
0.7380872 0.9279091 0.1924235
0.7658713 0.9286419 0.1920068
0.7991108 0.9296641 0.1914011
0.8377095 0.9310999 0.1905410
0.8812572 0.9330961 0.1892890
0.9291643 0.9358449 0.1874744
0.9807080 0.9396245 0.1848229
0.6917830 0.9883880 0.2294040
0.6927973 0.9884039 0.2294031
0.6957811 0.9884490 0.2293739
0.7006369 0.9885123 0.2293280
0.7072273 0.9886168 0.2292670
0.7153596 0.9887387 0.2291875
0.7248183 0.9888877 0.2290873
0.7353780 0.9890627 0.2289767
0.7468766 0.9892730 0.2288359
0.7605590 0.9895322 0.2286680
0.7783248 0.9899026 0.2284242
0.8008211 0.9904237 0.2280702
0.8285678 0.9911558 0.2275699
0.8617598 0.9921768 0.2268512
0.9003159 0.9936112 0.2258147
0.9438474 0.9956078 0.2243202
0.9917300 0.9983520 0.2221560
0.0133059 0.0068199 0.0604868
0.0561624 0.0151550 0.0621509
0.1103775 0.0278871 0.0623750
0.1650597 0.0411297 0.0622674
0.2198536 0.0545115 0.0620214
0.2746767 0.0679475 0.0616800
0.3295313 0.0814094 0.0612493
0.3843911 0.0948974 0.0607302
0.4393592 0.1084099 0.0601286
0.5007367 0.1235353 0.0593491
0.5678125 0.1422430 0.0582195
0.6335537 0.1651703 0.0565706
0.6983045 0.1930701 0.0541461
0.7623665 0.2268284 0.0504870
0.8259677 0.2674860 0.0446851
0.8892350 0.3163077 0.0350520
0.9522709 0.3747769 0.0158223
0.0309197 0.0608135 0.0622918
0.0625808 0.0625121 0.0624914
0.1134518 0.0670107 0.0626757
0.1669944 0.0736679 0.0626580
0.2212540 0.0819709 0.0624740
0.2757762 0.0915007 0.0621772
0.3304315 0.1019231 0.0617759
0.3851605 0.1129984 0.0612736
0.4400258 0.1245795 0.0606875
0.5013104 0.1379550 0.0599238
0.5682125 0.1549336 0.0588111
0.6338235 0.1762252 0.0571900
0.6984909 0.2026081 0.0548004
0.7625032 0.2350033 0.0511979
0.8260605 0.2744501 0.0455104
0.8892982 0.3222137 0.0359544
0.9523178 0.3797749 0.0178509
0.0572373 0.1212228 0.0640315
0.0789630 0.1220980 0.0640654
0.1229775 0.1245832 0.0641094
0.1733016 0.1284569 0.0640792
0.2258260 0.1335481 0.0639402
0.2793261 0.1397202 0.0636917
0.3333194 0.1468402 0.0633349
0.3875835 0.1547858 0.0628788
0.4421172 0.1634745 0.0623338
0.5030852 0.1739248 0.0616071
0.5694398 0.1877046 0.0605444
0.6346668 0.2056575 0.0589861
0.6990747 0.2286893 0.0566933
0.7629057 0.2578416 0.0532443
0.8263403 0.2942511 0.0478573
0.8894961 0.3392497 0.0385108
0.9524671 0.3943358 0.0227167
0.0845018 0.1817330 0.0666888
0.1005124 0.1823211 0.0666886
0.1377185 0.1840250 0.0666711
0.1838409 0.1867575 0.0665987
0.2337857 0.1904143 0.0664598
0.2855990 0.1949081 0.0662317
0.3384331 0.2001812 0.0659085
0.3918799 0.2061781 0.0654961
0.4458048 0.2128495 0.0649912
0.5061817 0.2210415 0.0643157
0.5715579 0.2321060 0.0633207
0.6361163 0.2469012 0.0618587
0.7000682 0.2664394 0.0596976
0.7635908 0.2918693 0.0564636
0.8268131 0.3245131 0.0514704
0.8898323 0.3658218 0.0431707
0.9526943 0.4174214 0.0289321
0.1120410 0.2422674 0.0702188
0.1245622 0.2426998 0.0702042
0.1561086 0.2440020 0.0701549
0.1978878 0.2461063 0.0700656
0.2448236 0.2489540 0.0699195
0.2945249 0.2524971 0.0696967
0.3458364 0.2566834 0.0694000
0.3981392 0.2614771 0.0690201
0.4511982 0.2668503 0.0685560
0.5106649 0.2735134 0.0679316
0.5746330 0.2826119 0.0670164
0.6382118 0.2949665 0.0656634
0.7015014 0.3115738 0.0636546
0.7645826 0.3336437 0.0606588
0.8274995 0.3625889 0.0560916
0.8903028 0.4000134 0.0487939
0.9530206 0.4477121 0.0357690
0.1396826 0.3028010 0.0745003
0.1499175 0.3031544 0.0744818
0.1769844 0.3041977 0.0744244
0.2146903 0.3059060 0.0743208
0.2584955 0.3082414 0.0741692
0.3058524 0.3111612 0.0739529
0.3553865 0.3146337 0.0736763
0.4063295 0.3186292 0.0733225
0.4583110 0.3231327 0.0728954
0.5165393 0.3287360 0.0723233
0.5786707 0.3364388 0.0714814
0.6409791 0.3469787 0.0702341
0.7034006 0.3612919 0.0683825
0.7658822 0.3805719 0.0656337
0.8283980 0.4062555 0.0614786
0.8909178 0.4400305 0.0549842
0.9534488 0.4838362 0.0438580
0.1673801 0.3633487 0.0794107
0.1760055 0.3636411 0.0793939
0.1995706 0.3645124 0.0793326
0.2336266 0.3659476 0.0792272
0.2743627 0.3679211 0.0790747
0.3192883 0.3704037 0.0788732
0.3669087 0.3733701 0.0786033
0.4163227 0.3767993 0.0782777
0.4670747 0.3806734 0.0778803
0.5236784 0.3855124 0.0773560
0.5836436 0.3921861 0.0765770
0.6444209 0.4013622 0.0754366
0.7057675 0.4139035 0.0737413
0.7675068 0.4309318 0.0712297
0.8295129 0.4538638 0.0674504
0.8916914 0.4843996 0.0616331
0.9539826 0.5234741 0.0521844
0.1951091 0.4238959 0.0848509
0.2025591 0.4241457 0.0848310
0.2233287 0.4248949 0.0847698
0.2542122 0.4261284 0.0846674
0.2920570 0.4278370 0.0845154
0.3345494 0.4299939 0.0843189
0.3801791 0.4325836 0.0840699
0.4279739 0.4355837 0.0837625
0.4773890 0.4389895 0.0833959
0.5319194 0.4432463 0.0829095
0.5894804 0.4491356 0.0821983
0.6485058 0.4572615 0.0811462
0.7086023 0.4684115 0.0795963
0.7694639 0.4836327 0.0772995
0.8308599 0.5041169 0.0738606
0.8926188 0.5301981 0.0686336
0.9546235 0.5616045 0.0603709
0.2229074 0.4845517 0.0907272
0.2294571 0.4847709 0.0907046
0.2479867 0.4854285 0.0906498
0.2761137 0.4865095 0.0905443
0.3112796 0.4880133 0.0904058
0.3514168 0.4899078 0.0902166
0.3950464 0.4921921 0.0899808
0.4411578 0.4948346 0.0896945
0.4891573 0.4978329 0.0893519
0.5411207 0.5015925 0.0889026
0.5961083 0.5067435 0.0882440
0.6532137 0.5137546 0.0872808
0.7119042 0.5231596 0.0858586
0.7717585 0.5355638 0.0837524
0.8324415 0.5516369 0.0806186
0.8937104 0.5720711 0.0758915
0.9553718 0.5974141 0.0685612
0.2540308 0.5478752 0.0977187
0.2597939 0.5480371 0.0977022
0.2762974 0.5485259 0.0976420
0.3017957 0.5493294 0.0975501
0.3342570 0.5504429 0.0974135
0.3718920 0.5518524 0.0972350
0.4133194 0.5535489 0.0970166
0.4575300 0.5555049 0.0967507
0.5037703 0.5577222 0.0964320
0.5523254 0.5604925 0.0960188
0.6043334 0.5642896 0.0954153
0.6591464 0.5694793 0.0945326
0.7161170 0.5764881 0.0932377
0.7747114 0.5858640 0.0913283
0.8344922 0.5982211 0.0884885
0.8951237 0.6142497 0.0842320
0.9563511 0.6346378 0.0777385
0.2924924 0.6113501 0.1068350
0.2975172 0.6114711 0.1068190
0.3120253 0.6118097 0.1067657
0.3348127 0.6123765 0.1066779
0.3643347 0.6131634 0.1065495
0.3991193 0.6141612 0.1063888
0.4379388 0.6153673 0.1061820
0.4798374 0.6167659 0.1059372
0.5230635 0.6183592 0.1056533
0.5671759 0.6203591 0.1052763
0.6154753 0.6231169 0.1047284
0.6673225 0.6269123 0.1039351
0.7220095 0.6320895 0.1027709
0.7788914 0.6390846 0.1010616
0.8374229 0.6484315 0.0985361
0.8971574 0.6607579 0.0947716
0.9577515 0.6767584 0.0890873
0.3396406 0.6745379 0.1185710
0.3439781 0.6746183 0.1185542
0.3566126 0.6748599 0.1184955
0.3767074 0.6752604 0.1184192
0.4031643 0.6758107 0.1183068
0.4348359 0.6765238 0.1181550
0.4706892 0.6773782 0.1179724
0.5095570 0.6783763 0.1177488
0.5473930 0.6795156 0.1174881
0.5864131 0.6809520 0.1171544
0.6302730 0.6829442 0.1166684
0.6784248 0.6857046 0.1159619
0.7301604 0.6894960 0.1149353
0.7847639 0.6946640 0.1134282
0.8415853 0.7016444 0.1112139
0.9000739 0.7109701 0.1079324
0.9597725 0.7232815 0.1030214
0.3970306 0.7375270 0.1334345
0.4007394 0.7375771 0.1334269
0.4116364 0.7377472 0.1333814
0.4291551 0.7380325 0.1333086
0.4525519 0.7384200 0.1332031
0.4809738 0.7389210 0.1330692
0.5131315 0.7395292 0.1329043
0.5456449 0.7402368 0.1327088
0.5771087 0.7410487 0.1324812
0.6106419 0.7420781 0.1321809
0.6494492 0.7435132 0.1317526
0.6931879 0.7455090 0.1311370
0.7412360 0.7482647 0.1302395
0.7928916 0.7520531 0.1289284
0.8474377 0.7572138 0.1270165
0.9042164 0.7641789 0.1241931
0.9626755 0.7734876 0.1199948
0.4664418 0.8003638 0.1520523
0.4696084 0.8004085 0.1520389
0.4789368 0.8005210 0.1519967
0.4940414 0.8007202 0.1519334
0.5140008 0.8009951 0.1518411
0.5369876 0.8013472 0.1517215
0.5615882 0.8017807 0.1515781
0.5868883 0.8022844 0.1514079
0.6122833 0.8028600 0.1512053
0.6402430 0.8035959 0.1509435
0.6736089 0.8046203 0.1505714
0.7123175 0.8060569 0.1500375
0.7559663 0.8080472 0.1492612
0.8039501 0.8108065 0.1481413
0.8555479 0.8145921 0.1464979
0.9100608 0.8197391 0.1440911
0.9668118 0.8266966 0.1405509
0.5459381 0.8631086 0.1750830
0.5482169 0.8631284 0.1750695
0.5548570 0.8632166 0.1750376
0.5653876 0.8633551 0.1749768
0.5791499 0.8635505 0.1749018
0.5954230 0.8638009 0.1747943
0.6134917 0.8641035 0.1746710
0.6327350 0.8644589 0.1745189
0.6526832 0.8648705 0.1743488
0.6753100 0.8653937 0.1741190
0.7031465 0.8661253 0.1737977
0.7364332 0.8671500 0.1733372
0.7750687 0.8685861 0.1726731
0.8186589 0.8705812 0.1717179
0.8665929 0.8733334 0.1703199
0.9181529 0.8771156 0.1682891
0.9726395 0.8822579 0.1653154
0.6209991 0.9257783 0.2033087
0.6225027 0.9257950 0.2033054
0.6269076 0.9258540 0.2032751
0.6340108 0.9259479 0.2032286
0.6434953 0.9260883 0.2031540
0.6550021 0.9262673 0.2030657
0.6681239 0.9264814 0.2029559
0.6824910 0.9267300 0.2028292
0.6977837 0.9270203 0.2026763
0.7156008 0.9273911 0.2024829
0.7381340 0.9279100 0.2022077
0.7659143 0.9286423 0.2018111
0.7991504 0.9296748 0.2012478
0.8377289 0.9311005 0.2004332
0.8812830 0.9330970 0.1992599
0.9291800 0.9358450 0.1975523
0.9807238 0.9396254 0.1950664
0.6918458 0.9883880 0.2376552
0.6928584 0.9884039 0.2376534
0.6958406 0.9884490 0.2376250
0.7006985 0.9885130 0.2375811
0.7072883 0.9886168 0.2375289
0.7154096 0.9887387 0.2374521
0.7248674 0.9888912 0.2373529
0.7354348 0.9890705 0.2372426
0.7469185 0.9892732 0.2371164
0.7606057 0.9895324 0.2369517
0.7783589 0.9899028 0.2367193
0.8008558 0.9904237 0.2363841
0.8285981 0.9911557 0.2358969
0.8617877 0.9921895 0.2352110
0.9003342 0.9936229 0.2342205
0.9438500 0.9956078 0.2327989
0.9917309 0.9983520 0.2307132
0.0266117 0.0136263 0.1209907
0.0603301 0.0192095 0.1230210
0.1123142 0.0302895 0.1243204
0.1663009 0.0427940 0.1247080
0.2207598 0.0557761 0.1247815
0.2753990 0.0689636 0.1247082
0.3301307 0.0822611 0.1245512
0.3849004 0.0956211 0.1243274
0.4398067 0.1090507 0.1240647
0.5011178 0.1241014 0.1236999
0.5680777 0.1427263 0.1231846
0.6337397 0.1655869 0.1224353
0.6984275 0.1934295 0.1213501
0.7624581 0.2271361 0.1197988
0.8260301 0.2677480 0.1175472
0.8892799 0.3165227 0.1142813
0.9523142 0.3749600 0.1094936
0.0387034 0.0617396 0.1232225
0.0666260 0.0634206 0.1237019
0.1155652 0.0679033 0.1243736
0.1683398 0.0745163 0.1247441
0.2222220 0.0827634 0.1248752
0.2765359 0.0922212 0.1248487
0.3310540 0.1025810 0.1247267
0.3856859 0.1135952 0.1245372
0.4404844 0.1251176 0.1242827
0.5017040 0.1384518 0.1239411
0.5684861 0.1553731 0.1234326
0.6340164 0.1766120 0.1226943
0.6986192 0.2029529 0.1216256
0.7625961 0.2352954 0.1200774
0.8261206 0.2747072 0.1178411
0.8893427 0.3224283 0.1145906
0.9523589 0.3799592 0.1098064
0.0618147 0.1216484 0.1245963
0.0823089 0.1225160 0.1247291
0.1250733 0.1250095 0.1249921
0.1747264 0.1288945 0.1252354
0.2268703 0.1339863 0.1253708
0.2801412 0.1401501 0.1253997
0.3339805 0.1472598 0.1253280
0.3881421 0.1551986 0.1251855
0.4425975 0.1638689 0.1249698
0.5034916 0.1742972 0.1246538
0.5697157 0.1880609 0.1241862
0.6348584 0.2059819 0.1234725
0.6992076 0.2289902 0.1224292
0.7629974 0.2581040 0.1209107
0.8264020 0.2944834 0.1187114
0.8895415 0.3394502 0.1154934
0.9524974 0.3945083 0.1107598
0.0876821 0.1820103 0.1261120
0.1031747 0.1825936 0.1261563
0.1396343 0.1842984 0.1262677
0.1852478 0.1870383 0.1263929
0.2348580 0.1906924 0.1264802
0.2864516 0.1951961 0.1265079
0.3391317 0.2004696 0.1264588
0.3924624 0.2064668 0.1263423
0.4463083 0.2131344 0.1261593
0.5065988 0.2213219 0.1258816
0.5718472 0.2323765 0.1254441
0.6363143 0.2471612 0.1247743
0.7002039 0.2666849 0.1237738
0.7636843 0.2921006 0.1222918
0.8268854 0.3247246 0.1201385
0.8898773 0.3660073 0.1169739
0.9527266 0.4175873 0.1123145
0.1144558 0.2424674 0.1280537
0.1267313 0.2429101 0.1280729
0.1578228 0.2442031 0.1281205
0.1992202 0.2463099 0.1281751
0.2458812 0.2491628 0.1282106
0.2953827 0.2527072 0.1282087
0.3465465 0.2568975 0.1281576
0.3987437 0.2616921 0.1280495
0.4517184 0.2670658 0.1278819
0.5110968 0.2737287 0.1276283
0.5749252 0.2828265 0.1272241
0.6384133 0.2951785 0.1265924
0.7016414 0.3117815 0.1256322
0.7646759 0.3338398 0.1242070
0.8275645 0.3627719 0.1221083
0.8903488 0.4001831 0.1190232
0.9530519 0.4478622 0.1144644
0.1416269 0.3029645 0.1304715
0.1517242 0.3033173 0.1304760
0.1785109 0.3043627 0.1304917
0.2159327 0.3060704 0.1305055
0.2595120 0.3084029 0.1305049
0.3066979 0.3113268 0.1304738
0.3561039 0.3148004 0.1304093
0.4069413 0.3188019 0.1302926
0.4588446 0.3233012 0.1301370
0.5169705 0.3289107 0.1298933
0.5789728 0.3366097 0.1295117
0.6411851 0.3471477 0.1289129
0.7035409 0.3614611 0.1280011
0.7659796 0.3807344 0.1266291
0.8284622 0.4064128 0.1245981
0.8909639 0.4401796 0.1216002
0.9534792 0.4839726 0.1171622
0.1690041 0.3634818 0.1333491
0.1775519 0.3637769 0.1333483
0.2009218 0.3646488 0.1333425
0.2347775 0.3660847 0.1333344
0.2753346 0.3680561 0.1333067
0.3201131 0.3705392 0.1332570
0.3676126 0.3735069 0.1331728
0.4169354 0.3769381 0.1330548
0.4676108 0.3808147 0.1328931
0.5241065 0.3856537 0.1326602
0.5839443 0.3923327 0.1322931
0.6446245 0.4015031 0.1317249
0.7059113 0.4140467 0.1308507
0.7676106 0.4310745 0.1295349
0.8295819 0.4540019 0.1275721
0.8917381 0.4845300 0.1246684
0.9540138 0.5235847 0.1203778
0.1965016 0.4240069 0.1366602
0.2039013 0.4242625 0.1366570
0.2245490 0.4250091 0.1366452
0.2552719 0.4262461 0.1366202
0.2929702 0.4279519 0.1365778
0.3353412 0.4301109 0.1365061
0.3808684 0.4326996 0.1364142
0.4285779 0.4357016 0.1362865
0.4779239 0.4391046 0.1361244
0.5323435 0.4433656 0.1358948
0.5897788 0.4492603 0.1355381
0.6487164 0.4573841 0.1349914
0.7087521 0.4685345 0.1341534
0.7695663 0.4837561 0.1328911
0.8309315 0.5042375 0.1310073
0.8926718 0.5303056 0.1282083
0.9546547 0.5616925 0.1240603
0.2241312 0.4846482 0.1403947
0.2306397 0.4848710 0.1403865
0.2490782 0.4855305 0.1403652
0.2770917 0.4866124 0.1403297
0.3121455 0.4881089 0.1402730
0.3521761 0.4900076 0.1401976
0.3957143 0.4922902 0.1400977
0.4417498 0.4949358 0.1399611
0.4896882 0.4979373 0.1397977
0.5415262 0.5016923 0.1395701
0.5963996 0.5068416 0.1392235
0.6534192 0.5138528 0.1386938
0.7120475 0.5232566 0.1378923
0.7718623 0.5356576 0.1366797
0.8325148 0.5517277 0.1348684
0.8937571 0.5721514 0.1321762
0.9554033 0.5974872 0.1281872
0.2551010 0.5479486 0.1450181
0.2608483 0.5481126 0.1450101
0.2772859 0.5486010 0.1449861
0.3026945 0.5494049 0.1449411
0.3350625 0.5505179 0.1448793
0.3726146 0.5519247 0.1447938
0.4139659 0.5536201 0.1446856
0.4581091 0.5555789 0.1445475
0.5042780 0.5577983 0.1443804
0.5527148 0.5605618 0.1441549
0.6046189 0.5643648 0.1438163
0.6593476 0.5695502 0.1433058
0.7162610 0.5765643 0.1425384
0.7748121 0.5859312 0.1413793
0.8345667 0.5982873 0.1396534
0.8951702 0.6143175 0.1370856
0.9563820 0.6346983 0.1332665
0.2934251 0.6114066 0.1513223
0.2984342 0.6115187 0.1513080
0.3129013 0.6118648 0.1512797
0.3356228 0.6124299 0.1512322
0.3650751 0.6132138 0.1511697
0.3997942 0.6142116 0.1510786
0.4385498 0.6154183 0.1509655
0.4803910 0.6168207 0.1508250
0.5235287 0.6184118 0.1506585
0.5675369 0.6204076 0.1504339
0.6157456 0.6231677 0.1501115
0.6675237 0.6269648 0.1496190
0.7221519 0.6321405 0.1488892
0.7789956 0.6391340 0.1477915
0.8374930 0.6484813 0.1461660
0.8972072 0.6608103 0.1437382
0.9577888 0.6768036 0.1401351
0.3404511 0.6745787 0.1598260
0.3447730 0.6746596 0.1598179
0.3573767 0.6749026 0.1597882
0.3774283 0.6752978 0.1597415
0.4038383 0.6758522 0.1596678
0.4354561 0.6765583 0.1595758
0.4712619 0.6774116 0.1594598
0.5100682 0.6784103 0.1593223
0.5478023 0.6795518 0.1591597
0.5867398 0.6809846 0.1589413
0.6305231 0.6829838 0.1586267
0.6786199 0.6857391 0.1581591
0.7303008 0.6895303 0.1574680
0.7848659 0.6946968 0.1564466
0.8416591 0.7016763 0.1549290
0.9001206 0.7110039 0.1526713
0.9598091 0.7233126 0.1493243
0.3977151 0.7375482 0.1711566
0.4014238 0.7376064 0.1711525
0.4122957 0.7377759 0.1711215
0.4297923 0.7380587 0.1710738
0.4531566 0.7384481 0.1710029
0.4815372 0.7389476 0.1709110
0.5136323 0.7395521 0.1708012
0.5460609 0.7402647 0.1706624
0.5774574 0.7410773 0.1705010
0.6109254 0.7421045 0.1702978
0.6496783 0.7435394 0.1699954
0.6933627 0.7455319 0.1695550
0.7413709 0.7482921 0.1689135
0.7929941 0.7520750 0.1679710
0.8475113 0.7572354 0.1665708
0.9042733 0.7642058 0.1645077
