proprietary/odm/etc/camera/filters_lut/p3_to_bt2020_3dlut_light.cube
TITLE "1943421768400"
LUT_3D_SIZE 9
#LUT data points
0.0000000 0.0000000 0.0000000
0.1097714 0.0270407 0.0000000
0.2195470 0.0540809 0.0000000
0.3293314 0.0811286 0.0000000
0.4392096 0.1081943 0.0000000
0.5677203 0.1420776 0.0000000
0.6982594 0.1929437 0.0000000
0.8259400 0.2673956 0.0000000
0.9522700 0.3747160 0.0000000
0.0556056 0.1210960 0.0165560
0.1222686 0.1244450 0.0160293
0.2254735 0.1334057 0.0141853
0.3330973 0.1466916 0.0102089
0.4419527 0.1633377 0.0007441
0.5693448 0.1875861 0.0000000
0.6990287 0.2285930 0.0000000
0.8263191 0.2941747 0.0000000
0.9524530 0.3942764 0.0000000
0.1112202 0.2421910 0.0331121
0.1555269 0.2439350 0.0328626
0.2444678 0.2488873 0.0320581
0.3455959 0.2566095 0.0306139
0.4510252 0.2667825 0.0283929
0.5745371 0.2825432 0.0241804
0.7014577 0.3115078 0.0109571
0.8274792 0.3625277 0.0000000
0.9530172 0.4476627 0.0000000
0.1668306 0.3633020 0.0496681
0.1991139 0.3644662 0.0495002
0.2740381 0.3678754 0.0489908
0.3666687 0.3733239 0.0480936
0.4668942 0.3806276 0.0467643
0.5835438 0.3921399 0.0444161
0.7057146 0.4138567 0.0391350
0.8294883 0.4538151 0.0250503
0.9539673 0.5234281 0.0000000
0.2224966 0.4845215 0.0662358
0.2476186 0.4853942 0.0661172
0.3109905 0.4879718 0.0657368
0.3948215 0.4921554 0.0650886
0.4889788 0.4978016 0.0641395
0.5960112 0.5067110 0.0624919
0.7118580 0.5231280 0.0589480
0.8324208 0.5516064 0.0508719
0.9553561 0.5973834 0.0278222
0.2921729 0.6113337 0.0869823
0.3117363 0.6117931 0.0868898
0.3640860 0.6131416 0.0866037
0.4377349 0.6153462 0.0861188
0.5229106 0.6183412 0.0854229
0.6153825 0.6231007 0.0842292
0.7219609 0.6320745 0.0816968
0.8373986 0.6484157 0.0761934
0.9577432 0.6767458 0.0633853
0.3967976 0.7375140 0.1181306
0.4114092 0.7377411 0.1180594
0.4523516 0.7384135 0.1178538
0.5129601 0.7395190 0.1175010
0.5769929 0.7410460 0.1169985
0.6493724 0.7435052 0.1161487
0.7411878 0.7482540 0.1143841
0.8474170 0.7572019 0.1106308
0.9626605 0.7734841 0.1024229
0.5458001 0.8630960 0.1637037
0.5547209 0.8632166 0.1636563
0.5790307 0.8635431 0.1635075
0.6133900 0.8640985 0.1632565
0.6526018 0.8648665 0.1629055
0.7030865 0.8661222 0.1623072
0.7750255 0.8685830 0.1610785
0.8665662 0.8733306 0.1585225
0.9726252 0.8822579 0.1530803
0.6917830 0.9883880 0.2294040
0.6957811 0.9884490 0.2293739
0.7072273 0.9886168 0.2292670
0.7248183 0.9888877 0.2290873
0.7468766 0.9892730 0.2288359
0.7783248 0.9899026 0.2284242
0.8285678 0.9911558 0.2275699
0.9003159 0.9936112 0.2258147
0.9917300 0.9983520 0.2221560
0.0266117 0.0136263 0.1209907
0.1123142 0.0302895 0.1243204
0.2207598 0.0557761 0.1247815
0.3301307 0.0822611 0.1245512
0.4398067 0.1090507 0.1240647
0.5680777 0.1427263 0.1231846
0.6984275 0.1934295 0.1213501
0.8260301 0.2677480 0.1175472
0.9523142 0.3749600 0.1094936
0.0618147 0.1216484 0.1245963
0.1250733 0.1250095 0.1249921
0.2268703 0.1339863 0.1253708
0.3339805 0.1472598 0.1253280
0.4425975 0.1638689 0.1249698
0.5697157 0.1880609 0.1241862
0.6992076 0.2289902 0.1224292
0.8264020 0.2944834 0.1187114
0.9524974 0.3945083 0.1107598
0.1144558 0.2424674 0.1280537
0.1578228 0.2442031 0.1281205
0.2458812 0.2491628 0.1282106
0.3465465 0.2568975 0.1281576
0.4517184 0.2670658 0.1278819
0.5749252 0.2828265 0.1272241
0.7016414 0.3117815 0.1256322
0.8275645 0.3627719 0.1221083
0.9530519 0.4478622 0.1144644
0.1690041 0.3634818 0.1333491
0.2009218 0.3646488 0.1333425
0.2753346 0.3680561 0.1333067
0.3676126 0.3735069 0.1331728
0.4676108 0.3808147 0.1328931
0.5839443 0.3923327 0.1322931
0.7059113 0.4140467 0.1308507
0.8295819 0.4540019 0.1275721
0.9540138 0.5235847 0.1203778
0.2241312 0.4846482 0.1403947
0.2490782 0.4855305 0.1403652
0.3121455 0.4881089 0.1402730
0.3957143 0.4922902 0.1400977
0.4896882 0.4979373 0.1397977
0.5963996 0.5068416 0.1392235
0.7120475 0.5232566 0.1378923
0.8325148 0.5517277 0.1348684
0.9554033 0.5974872 0.1281872
0.2934251 0.6114066 0.1513223
0.3129013 0.6118648 0.1512797
0.3650751 0.6132138 0.1511697
0.4385498 0.6154183 0.1509655
0.5235287 0.6184118 0.1506585
0.6157456 0.6231677 0.1501115
0.7221519 0.6321405 0.1488892
0.8374930 0.6484813 0.1461660
0.9577888 0.6768036 0.1401351
0.3977151 0.7375482 0.1711566
0.4122957 0.7377759 0.1711215
0.4531566 0.7384481 0.1710029
0.5136323 0.7395521 0.1708012
0.5774574 0.7410773 0.1705010
0.6496783 0.7435394 0.1699954
0.7413709 0.7482921 0.1689135
0.8475113 0.7572354 0.1665708
0.9627078 0.7735164 0.1614449
0.5463646 0.8631126 0.2053055
0.5552559 0.8632305 0.2052728
0.5795010 0.8635649 0.2051597
0.6137739 0.8641144 0.2049758
0.6529112 0.8648823 0.2047170
0.7033157 0.8661380 0.2042809
0.7751792 0.8685985 0.2033687
0.8666578 0.8733460 0.2014597
0.9726712 0.8822729 0.1973557
0.6920420 0.9884030 0.2607346
0.6960239 0.9884492 0.2607050
0.7074570 0.9886171 0.2606138
0.7250214 0.9888944 0.2604633
0.7470561 0.9892776 0.2602597
0.7784737 0.9899140 0.2599025
0.8286781 0.9911676 0.2591775
0.9003943 0.9936255 0.2576960
0.9917617 0.9983670 0.2545848
0.0532235 0.0272555 0.2420051
0.1206012 0.0383981 0.2460575
0.2246302 0.0605594 0.2486697
0.3326044 0.0855719 0.2494426
0.4416256 0.1115642 0.2495785
0.5691639 0.1446618 0.2493702
0.6989465 0.1948553 0.2486203
0.8262787 0.2687831 0.2468808
0.9524350 0.3756981 0.2432050
0.0773617 0.1234776 0.2464697
0.1331575 0.1268088 0.2474204
0.2310751 0.1357579 0.2487697
0.3366580 0.1489572 0.2495117
0.4445340 0.1654457 0.2497636
0.5708375 0.1894665 0.2496698
0.6997335 0.2301662 0.2490267
0.8266608 0.2954142 0.2473611
0.9526186 0.3952073 0.2437381
0.1236003 0.2432963 0.2492114
0.1644924 0.2450415 0.2494605
0.2500632 0.2500103 0.2499912
0.3493913 0.2577573 0.2504778
0.4538085 0.2679372 0.2507528
0.5761123 0.2836884 0.2507883
0.7021974 0.3125952 0.2503263
0.8278315 0.3635006 0.2488303
0.9531835 0.4484679 0.2453417
0.1753385 0.3640207 0.2522150
0.2062454 0.3651908 0.2523126
0.2791716 0.3686033 0.2525379
0.3704162 0.3740633 0.2527892
0.4697503 0.3813801 0.2529660
0.5851479 0.3929034 0.2530050
0.7064890 0.4146234 0.2526446
0.8298533 0.4545527 0.2513161
0.9541452 0.5240420 0.2479950
0.2289429 0.4850533 0.2560984
0.2534035 0.4859311 0.2561410
0.3155688 0.4885142 0.2562338
0.3983759 0.4926953 0.2563433
0.4917855 0.4983484 0.2564172
0.5975711 0.5072533 0.2563998
0.7126369 0.5236544 0.2560571
0.8327987 0.5520891 0.2548358
0.9555420 0.5977834 0.2516944
0.2971206 0.6116143 0.2622982
0.3163629 0.6120705 0.2623084
0.3680285 0.6134204 0.2623258
0.4409868 0.6156228 0.2623415
0.5253721 0.6186174 0.2623222
0.6168289 0.6233749 0.2622242
0.7227316 0.6323417 0.2618481
0.8377829 0.6486794 0.2606988
0.9579267 0.6769861 0.2577531
0.4004487 0.7376517 0.2742544
0.4149337 0.7378784 0.2742479
0.4555448 0.7385501 0.2742178
0.5156215 0.7396559 0.2741617
0.5788430 0.7411796 0.2740701
0.6505924 0.7436410 0.2738941
0.7419068 0.7483908 0.2734526
0.8477932 0.7573407 0.2723387
0.9628542 0.7736187 0.2696211
0.5480365 0.8631681 0.2967893
0.5568494 0.8632791 0.2967730
0.5808920 0.8636130 0.2967174
0.6149205 0.8641678 0.2966245
0.6538297 0.8649334 0.2964986
0.7040040 0.8661884 0.2962677
0.7756347 0.8686488 0.2957778
0.8669204 0.8733946 0.2946848
0.9728113 0.8823221 0.2922098
0.6927779 0.9884211 0.3375299
0.6967546 0.9884791 0.3375104
0.7081389 0.9886467 0.3374509
0.7256402 0.9889219 0.3373493
0.7476018 0.9893063 0.3372098
0.7789251 0.9899370 0.3369709
0.8290232 0.9911878 0.3364872
0.9006193 0.9936518 0.3354671
0.9919001 0.9983859 0.3332750
0.0798352 0.0408905 0.3630120
0.1340624 0.0490222 0.3666893
0.2314372 0.0677835 0.3709223
0.3369337 0.0908201 0.3730176
0.4447693 0.1156389 0.3739454
0.5709998 0.1478239 0.3743460
0.6998233 0.1972179 0.3742394
0.8267022 0.2704929 0.3733209
0.9526360 0.3769280 0.3710344
0.0977814 0.1267730 0.3676913
0.1457122 0.1300037 0.3690664
0.2380880 0.1387834 0.3713725
0.3412057 0.1517979 0.3730109
0.4478218 0.1680635 0.3739163
0.5727310 0.1917989 0.3744038
0.7006291 0.2321197 0.3744030
0.8270890 0.2969551 0.3735781
0.9528254 0.3963669 0.3713558
0.1374393 0.2447728 0.3712061
0.1750166 0.2465082 0.3716209
0.2569002 0.2514735 0.3725641
0.3541125 0.2592244 0.3735373
0.4573005 0.2694023 0.3742760
0.5780878 0.2851261 0.3748183
0.7031273 0.3139555 0.3749954
0.8282730 0.3647079 0.3743700
0.9533987 0.4494666 0.3722998
0.1853839 0.3649556 0.3738240
0.2148014 0.3661228 0.3739989
0.2854474 0.3695381 0.3744426
0.3750520 0.3750075 0.3749931
0.4733041 0.3823312 0.3755072
0.5871395 0.3938663 0.3759686
0.7074513 0.4155835 0.3762242
0.8303128 0.4554753 0.3757799
0.9543639 0.5248068 0.3738945
0.2367353 0.4857333 0.3766956
0.2604448 0.4866117 0.3767846
0.3211903 0.4891971 0.3770188
0.4027748 0.4933809 0.3773372
0.4952648 0.4990379 0.3776672
0.5995031 0.5079382 0.3780006
0.7136091 0.5243161 0.3782241
0.8332661 0.5526869 0.3778777
0.9557680 0.5982684 0.3761701
0.3031669 0.6119640 0.3810726
0.3220389 0.6124229 0.3811174
0.3728887 0.6137718 0.3812318
0.4450137 0.6159731 0.3813905
0.5284006 0.6189659 0.3815641
0.6186149 0.6237192 0.3817519
0.7236880 0.6326886 0.3818753
0.8382620 0.6490068 0.3815502
0.9581553 0.6772904 0.3800011
0.4049609 0.7378215 0.3894931
0.4192844 0.7380483 0.3895071
0.4594952 0.7387220 0.3895361
0.5188890 0.7398265 0.3895847
0.5811258 0.7413512 0.3896303
0.6521065 0.7438111 0.3896687
0.7427959 0.7485620 0.3896277
0.8482720 0.7575083 0.3892338
0.9630884 0.7737798 0.3877964
0.5507999 0.8632501 0.4057221
0.5594765 0.8633660 0.4057217
0.5831850 0.8636969 0.4057072
0.6168127 0.8642504 0.4056831
0.6553424 0.8650198 0.4056478
0.7051459 0.8662730 0.4055732
0.7763933 0.8687342 0.4053821
0.8673638 0.8734819 0.4048563
0.9730493 0.8824079 0.4034382
0.6940110 0.9884640 0.4364292
0.6979602 0.9885214 0.4364150
0.7092712 0.9886879 0.4363849
0.7266644 0.9889630 0.4363328
0.7485022 0.9893472 0.4362489
0.7796839 0.9899804 0.4361140
0.8295886 0.9912334 0.4358290
0.9009927 0.9936904 0.4351932
0.9921226 0.9984318 0.4337706
0.1064701 0.0545321 0.4841283
0.1512509 0.0608667 0.4872860
0.2411723 0.0767791 0.4922359
0.3432464 0.0977128 0.4955520
0.4493420 0.1211190 0.4974102
0.5736272 0.1521483 0.4985717
0.7010652 0.2004810 0.4991640
0.8273016 0.2728779 0.4989232
0.9529298 0.3786411 0.4974941
0.1206236 0.1315200 0.4885995
0.1617481 0.1345852 0.4901816
0.2478019 0.1430614 0.4932001
0.3476736 0.1557569 0.4957214
0.4525304 0.1716975 0.4973713
0.5754161 0.1950343 0.4985297
0.7018934 0.2348379 0.4992008
0.8276967 0.2991038 0.4990524
0.9531243 0.3979869 0.4976862
0.1546905 0.2469492 0.4930379
0.1887580 0.2486692 0.4935957
0.2662232 0.2536030 0.4949184
0.3606866 0.2613311 0.4963741
0.4622076 0.2714806 0.4975930
0.5808554 0.2871513 0.4986473
0.7044419 0.3158604 0.4994232
0.8288945 0.3664001 0.4994757
0.9536942 0.4508701 0.4982873
0.1985755 0.3663099 0.4958895
0.2262291 0.3674785 0.4961375
0.2940171 0.3708905 0.4967852
0.3814661 0.3763638 0.4976183
0.4782611 0.3836927 0.4984428
0.5899135 0.3952305 0.4992937
0.7088011 0.4169366 0.5000733
0.8309551 0.4567710 0.5002941
0.9546689 0.5258741 0.4993145
0.2472239 0.4867188 0.4984601
0.2699810 0.4875933 0.4985920
0.3289018 0.4901776 0.4989499
0.4088589 0.4943624 0.4994519
0.5000844 0.5000195 0.4999994
0.6021860 0.5089081 0.5006353
0.7149698 0.5252433 0.5013126
0.8339283 0.5535249 0.5016055
0.9560789 0.5989513 0.5008095
0.3114436 0.6124640 0.5019828
0.3298261 0.6129202 0.5020565
0.3795919 0.6142686 0.5022463
0.4505891 0.6164668 0.5025260
0.5325652 0.6194592 0.5028569
0.6210914 0.6242082 0.5032678
0.7250224 0.6331681 0.5037673
0.8389298 0.6494740 0.5040367
0.9584758 0.6777070 0.5033953
0.4111952 0.7380661 0.5084082
0.4253027 0.7382927 0.5084367
0.4649781 0.7389642 0.5085177
0.5233667 0.7400704 0.5086394
0.5842772 0.7415927 0.5087898
0.6542045 0.7440547 0.5089883
0.7440387 0.7488037 0.5092434
0.8489327 0.7577466 0.5093635
0.9634227 0.7740137 0.5087956
0.5545971 0.8633708 0.5204050
0.5630947 0.8634789 0.5204099
0.5863501 0.8638157 0.5204272
0.6194357 0.8643701 0.5204583
0.6574484 0.8651389 0.5204909
0.7067275 0.8663917 0.5205304
0.7774433 0.8688531 0.5205616
0.8679844 0.8735985 0.5204556
0.9733749 0.8825222 0.5198243
0.6957239 0.9885212 0.5421719
0.6996314 0.9885822 0.5421719
0.7108368 0.9887442 0.5421569
0.7280866 0.9890190 0.5421382
0.7497614 0.9894063 0.5421109
0.7807368 0.9900378 0.5420609
0.8303816 0.9912899 0.5419473
0.9015221 0.9937511 0.5416634
0.9924317 0.9984892 0.5409320
0.1398075 0.0716091 0.6109863
0.1762108 0.0765456 0.6127703
0.2570077 0.0897121 0.6162344
0.3539525 0.1081699 0.6192047
0.4571699 0.1296942 0.6212187
0.5780650 0.1590564 0.6227420
0.7031595 0.2057670 0.6238463
0.8283091 0.2767805 0.6242919
0.9534178 0.3814674 0.6239188
0.1509463 0.1392545 0.6137329
0.1853310 0.1420861 0.6148451
0.2633804 0.1500761 0.6172324
0.3584537 0.1622217 0.6195475
0.4604923 0.1776147 0.6212932
0.5799129 0.2003111 0.6227164
0.7040190 0.2392736 0.6238236
0.8287088 0.3026268 0.6243194
0.9536163 0.4006501 0.6239848
0.1795375 0.2507304 0.6173148
0.2094983 0.2524102 0.6177912
0.2810390 0.2572644 0.6189632
0.3714308 0.2649040 0.6203374
0.4703427 0.2749691 0.6215742
0.5854270 0.2905213 0.6227536
0.7066292 0.3190136 0.6238312
0.8299352 0.3691906 0.6244268
0.9541952 0.4531813 0.6242140
0.2186043 0.3686628 0.6196993
0.2439328 0.3698201 0.6199265
0.3076845 0.3732209 0.6205234
0.3918873 0.3786766 0.6213195
0.4864020 0.3859972 0.6221451
0.5944476 0.3975232 0.6230541
0.7110348 0.4191913 0.6240216
0.8320273 0.4589140 0.6246877
0.9551851 0.5276227 0.6246164
0.2636390 0.4883971 0.6215236
0.2850489 0.4892690 0.6216477
0.3412763 0.4918486 0.6219887
0.4187429 0.4960243 0.6224761
0.5078884 0.5016763 0.6230259
0.6065519 0.5105334 0.6236986
0.7172136 0.5267903 0.6245184
0.8350220 0.5549098 0.6251834
0.9566052 0.6000792 0.6252374
0.3246585 0.6133087 0.6236644
0.3423057 0.6137628 0.6237352
0.3904273 0.6151068 0.6239201
0.4596724 0.6173021 0.6242073
0.5392497 0.6202875 0.6245468
0.6251206 0.6250308 0.6250050
0.7272136 0.6339755 0.6256268
0.8400390 0.6502455 0.6262260
0.9590147 0.6784062 0.6263631
0.4213125 0.7384756 0.6272129
0.4350772 0.7386963 0.6272453
0.4739064 0.7393684 0.6273349
0.5305449 0.7404771 0.6274756
0.5893707 0.7419970 0.6276561
0.6576268 0.7444572 0.6279085
0.7460754 0.7492065 0.6282921
0.8500257 0.7581445 0.6287188
0.9639705 0.7743968 0.6288593
0.5607043 0.8635696 0.6336400
0.5689191 0.8636800 0.6336491
0.5914622 0.8640159 0.6336863
0.6236819 0.8645674 0.6337401
0.6608767 0.8653370 0.6338117
0.7093201 0.8665881 0.6339168
0.7791696 0.8690486 0.6340818
0.8690049 0.8737964 0.6342735
0.9739220 0.8827207 0.6342874
0.6985229 0.9886170 0.6455959
0.7023691 0.9886780 0.6455959
0.7134147 0.9888456 0.6456030
0.7304157 0.9891203 0.6456152
0.7518253 0.9895029 0.6456304
0.7824675 0.9901338 0.6456419
0.8316851 0.9913868 0.6456571
0.9023856 0.9938497 0.6456438
0.9929352 0.9985846 0.6454589
0.1898739 0.0972471 0.7371940
0.2180117 0.1009398 0.7381278
0.2868093 0.1112596 0.7402814
0.3754024 0.1266045 0.7426185
0.4732967 0.1454154 0.7445717
0.5870931 0.1721101 0.7463369
0.7074743 0.2160099 0.7479310
0.8303727 0.2844761 0.7489888
0.9544117 0.3870747 0.7493551
0.1982627 0.1538613 0.7387356
0.2254498 0.1563638 0.7394360
0.2925851 0.1635446 0.7411215
0.3797979 0.1747119 0.7430544
0.4766891 0.1890949 0.7447618
0.5889752 0.2105846 0.7463826
0.7083666 0.2479847 0.7479176
0.8307884 0.3095979 0.7489823
0.9546088 0.4059649 0.7493718
0.2210242 0.2585784 0.7413912
0.2458685 0.2601765 0.7417714
0.3087828 0.2648328 0.7427574
0.3923909 0.2722415 0.7440047
0.4865975 0.2820659 0.7452358
0.5944840 0.2973131 0.7465359
0.7110526 0.3253139 0.7479018
0.8320537 0.3747540 0.7489693
0.9552055 0.4578045 0.7494246
0.2539864 0.3736304 0.7434996
0.2759922 0.3747724 0.7437041
0.3334489 0.3781129 0.7442578
0.4121093 0.3835067 0.7450200
0.5023916 0.3907661 0.7458452
0.6033372 0.4022143 0.7468220
0.7155094 0.4237540 0.7479778
0.8341926 0.4632236 0.7489991
0.9562169 0.5311041 0.7495325
0.2937605 0.4919189 0.7450476
0.3130587 0.4927872 0.7451693
0.3648364 0.4953441 0.7454979
0.4379406 0.4994920 0.7459770
0.5227475 0.5050900 0.7465345
0.6150692 0.5138556 0.7472504
0.7216745 0.5299132 0.7481926
0.8372233 0.5576898 0.7491408
0.9576584 0.6023361 0.7497232
0.3496409 0.6150547 0.7466095
0.3660491 0.6155102 0.7466742
0.4113039 0.6168457 0.7468678
0.4773915 0.6190261 0.7471534
0.5519767 0.6219928 0.7475112
0.6329732 0.6267099 0.7480000
0.7315635 0.6356125 0.7487088
0.8422592 0.6518032 0.7495288
0.9600931 0.6798032 0.7501336
0.4408988 0.7393079 0.7487770
0.4540571 0.7395353 0.7488109
0.4913223 0.7402045 0.7489077
0.5441321 0.7413083 0.7490608
0.5991840 0.7428256 0.7492584
0.6643166 0.7452811 0.7495451
0.7500973 0.7500253 0.7500062
0.8522108 0.7589486 0.7506150
0.9650714 0.7751686 0.7511635
0.5723702 0.8639702 0.7523006
0.5800732 0.8640873 0.7523165
0.6013124 0.8644200 0.7523621
0.6319242 0.8649728 0.7524334
0.6675691 0.8657398 0.7525260
0.7144169 0.8669930 0.7526674
0.7825906 0.8694540 0.7529122
0.8710400 0.8742001 0.7532755
0.9750098 0.8831184 0.7536576
0.7040196 0.9888181 0.7586961
0.7077440 0.9888762 0.7587058
0.7184681 0.9890434 0.7587201
0.7350133 0.9893187 0.7587439
0.7558990 0.9897009 0.7587816
0.7858991 0.9903317 0.7588319
0.8342806 0.9915847 0.7589248
0.9041105 0.9940414 0.7590735
0.9939572 0.9987820 0.7592303
0.2631352 0.1347676 0.8627926
0.2840751 0.1374602 0.8632777
0.3394493 0.1452001 0.8645147
0.4163239 0.1572598 0.8661145
0.5053659 0.1727590 0.8677202
0.6048748 0.1957519 0.8694700
0.7162965 0.2352678 0.8713916
0.8346193 0.2993430 0.8730269
0.9564560 0.3981249 0.8740653
0.2692748 0.1798474 0.8636184
0.2898171 0.1819452 0.8640297
0.3443365 0.1880553 0.8651002
0.4203454 0.1977599 0.8665141
0.5085643 0.2105343 0.8679676
0.6066719 0.2300224 0.8695858
0.7172133 0.2647123 0.8714155
0.8350625 0.3231850 0.8730163
0.9566556 0.4164463 0.8740533
0.2866184 0.2743031 0.8653978
0.3060971 0.2757694 0.8656767
0.3583045 0.2800668 0.8664228
0.4319457 0.2869960 0.8674570
0.5177147 0.2962897 0.8685751
0.6119204 0.3108525 0.8699000
0.7199323 0.3378116 0.8714996
0.8363747 0.3857804 0.8729989
0.9572787 0.4669769 0.8740481
0.3129856 0.3840638 0.8671671
0.3310044 0.3851521 0.8673422
0.3799830 0.3883669 0.8678235
0.4502040 0.3935750 0.8685172
0.5317409 0.4006380 0.8693127
0.6202418 0.4118443 0.8703199
0.7243799 0.4330023 0.8716435
0.8385678 0.4718762 0.8730078
0.9583192 0.5379301 0.8740369
0.3462519 0.4993772 0.8686043
0.3626956 0.5002216 0.8687127
0.4080263 0.5027003 0.8690265
0.4742217 0.5067223 0.8694905
0.5494531 0.5121470 0.8700524
0.6311875 0.5206461 0.8707937
0.7304349 0.5362171 0.8718545
0.8416396 0.5632344 0.8730581
0.9597974 0.6068136 0.8740659
0.3949460 0.6187254 0.8699968
0.4094888 0.6191686 0.8700632
0.4502585 0.6204799 0.8702525
0.5108099 0.6226150 0.8705438
0.5751320 0.6255330 0.8709114
0.6478283 0.6301810 0.8714291
0.7400467 0.6389632 0.8722203
0.8466847 0.6549496 0.8732187
0.9622748 0.6826108 0.8741708
0.4777608 0.7410483 0.8716417
0.4898915 0.7412750 0.8716769
0.5234251 0.7419377 0.8717815
0.5686338 0.7430367 0.8719427
0.6174097 0.7445446 0.8721491
0.6770498 0.7469848 0.8724634
0.7579441 0.7517064 0.8729827
0.8565432 0.7605932 0.8737190
0.9672723 0.7767391 0.8745391
0.5937134 0.8648069 0.8738282
0.6005481 0.8649156 0.8738446
0.6195824 0.8652512 0.8738996
0.6473926 0.8658028 0.8739785
0.6802986 0.8665680 0.8740862
0.7242365 0.8678201 0.8742453
0.7892850 0.8702770 0.8745424
0.8750571 0.8750151 0.8750042
0.9771907 0.8839242 0.8756102
0.7145643 0.9892253 0.8773381
0.7180830 0.9892747 0.8773531
0.7282044 0.9894425 0.8773711
0.7439013 0.9897198 0.8774105
0.7638175 0.9901020 0.8774562
0.7925872 0.9907375 0.8775348
0.8393780 0.9919886 0.8776701
0.9075404 0.9944480 0.8779149
0.9959903 0.9991893 0.8782673
0.3687340 0.1888610 0.9880980
0.3839494 0.1907890 0.9883420
0.4263829 0.1964378 0.9890011
0.4893467 0.2055039 0.9899748
0.5596362 0.2175825 0.9910926
0.6373011 0.2362371 0.9925113
0.7337276 0.2698676 0.9944000
0.8433337 0.3272141 0.9964123
0.9606620 0.4194550 0.9980770
0.3731560 0.2232277 0.9885268
0.3882066 0.2248958 0.9887423
0.4302668 0.2298001 0.9893642
0.4927615 0.2377329 0.9902653
0.5620298 0.2483952 0.9913099
0.6388503 0.2650650 0.9926590
0.7346132 0.2956482 0.9944616
0.8437905 0.3489893 0.9964276
0.9608776 0.4367965 0.9980770
0.3859514 0.3041249 0.9895932
0.4005728 0.3054070 0.9897655
0.4415548 0.3091840 0.9902653
0.5026795 0.3153504 0.9910016
0.5689585 0.3237243 0.9918846
0.6433735 0.3370283 0.9930398
0.7372223 0.3620342 0.9946488
0.8451374 0.4072337 0.9964714
0.9615320 0.4849559 0.9980620
0.4061371 0.4052321 0.9908867
0.4201055 0.4062308 0.9910167
0.4594730 0.4091915 0.9913902
0.5180231 0.4140478 0.9919459
0.5797510 0.4206802 0.9926334
0.6505632 0.4313059 0.9935654
0.7414410 0.4515670 0.9949234
0.8473538 0.4890867 0.9965463
0.9626153 0.5510042 0.9980470
0.4325484 0.5146825 0.9921262
0.4457447 0.5154471 0.9922189
0.4831444 0.5177146 0.9924832
0.5372580 0.5213979 0.9928947
0.5936389 0.5263786 0.9934129
0.6600474 0.5342196 0.9941358
0.7471474 0.5487180 0.9952412
0.8504266 0.5741500 0.9966438
0.9641298 0.6155949 0.9980508
0.4727187 0.6263897 0.9934388
0.4848705 0.6268065 0.9934969
0.5188852 0.6280476 0.9936731
0.5648127 0.6300874 0.9939547
0.6142328 0.6328778 0.9943140
0.6745284 0.6373403 0.9948337
0.7561354 0.6458090 0.9956721
0.8553993 0.6613115 0.9968266
0.9666549 0.6882089 0.9980892
0.5409019 0.7447128 0.9949649
0.5499737 0.7449358 0.9949950
0.5746590 0.7455832 0.9950997
0.6094992 0.7466567 0.9952595
0.6491889 0.7481376 0.9954734
0.7002034 0.7505396 0.9958016
0.7727955 0.7551864 0.9963585
0.8650087 0.7639531 0.9971976
0.9716756 0.7798988 0.9982328
0.6300688 0.8665466 0.9966597
0.6356465 0.8666543 0.9966769
0.6513893 0.8669779 0.9967325
0.6748994 0.8675282 0.9968154
0.7033953 0.8682882 0.9969334
0.7424637 0.8695329 0.9971162
0.8020187 0.8719769 0.9974342
0.8828966 0.8766953 0.9979710
0.9815063 0.8855707 0.9987197
0.7340200 0.9900510 0.9988560
0.7371732 0.9901120 0.9988693
0.7462846 0.9902678 0.9988860
0.7605052 0.9905428 0.9989284
0.7787142 0.9909322 0.9989818
0.8053144 0.9915620 0.9990690
0.8491951 0.9928130 0.9992372
0.9142203 0.9952717 0.9995287
1.0000000 1.0000000 1.0000000
